; G-Code generated by Simplify3D(R) Version 3.1.1
; Mar 13, 2017 at 7:56:44 AM
; Settings Summary
;   processName,Process1
;   applyToModels,ACPowerInlet
;   profileName,Belfry (modified)
;   profileVersion,2017-03-09 09:08:18
;   baseProfile,Default
;   printMaterial,PLA+
;   printQuality,Medium
;   printExtruders,
;   extruderName,Extruder 1
;   extruderToolheadNumber,0
;   extruderDiameter,0.4
;   extruderAutoWidth,1
;   extruderWidth,0.48
;   extrusionMultiplier,1
;   extruderUseRetract,1
;   extruderRetractionDistance,4
;   extruderExtraRestartDistance,0
;   extruderRetractionZLift,0
;   extruderRetractionSpeed,3600
;   extruderUseCoasting,0
;   extruderCoastingDistance,0.2
;   extruderUseWipe,1
;   extruderWipeDistance,2
;   primaryExtruder,0
;   layerHeight,0.3
;   topSolidLayers,3
;   bottomSolidLayers,3
;   perimeterOutlines,3
;   printPerimetersInsideOut,1
;   startPointOption,2
;   startPointOriginX,0
;   startPointOriginY,0
;   startPointOriginZ,300
;   sequentialIslands,0
;   spiralVaseMode,0
;   firstLayerHeightPercentage,90
;   firstLayerWidthPercentage,100
;   firstLayerUnderspeed,0.5
;   useRaft,0
;   raftExtruder,0
;   raftLayers,3
;   raftOffset,3
;   raftSeparationDistance,0.14
;   raftInfill,85
;   disableRaftBaseLayers,0
;   useSkirt,1
;   skirtExtruder,0
;   skirtLayers,1
;   skirtOutlines,1
;   skirtOffset,4
;   usePrimePillar,0
;   primePillarExtruder,999
;   primePillarWidth,12
;   primePillarLocation,7
;   primePillarSpeedMultiplier,1
;   useOozeShield,0
;   oozeShieldExtruder,999
;   oozeShieldOffset,2
;   oozeShieldOutlines,1
;   oozeShieldSidewallShape,1
;   oozeShieldSidewallAngle,30
;   oozeShieldSpeedMultiplier,1
;   infillExtruder,0
;   internalInfillPattern,Rectilinear
;   externalInfillPattern,Rectilinear
;   infillPercentage,20
;   outlineOverlapPercentage,15
;   infillExtrusionWidthPercentage,100
;   minInfillLength,5
;   infillLayerInterval,1
;   infillAngles,45,-45
;   overlapInfillAngles,0
;   generateSupport,1
;   supportExtruder,0
;   supportInfillPercentage,30
;   supportExtraInflation,0
;   denseSupportLayers,0
;   denseSupportInfillPercentage,70
;   supportLayerInterval,1
;   supportHorizontalPartOffset,0.3
;   supportUpperSeparationLayers,1
;   supportLowerSeparationLayers,1
;   supportType,0
;   supportGridSpacing,4
;   maxOverhangAngle,45
;   supportAngles,0
;   temperatureName,Extruder 1,Heated Bed
;   temperatureNumber,0,0
;   temperatureSetpointCount,1,3
;   temperatureSetpointLayers,1,1,2,3
;   temperatureSetpointTemperatures,225,70,65,60
;   temperatureStabilizeAtStartup,1,1
;   temperatureHeatedBed,0,1
;   temperatureRelayBetweenLayers,0,0
;   temperatureRelayBetweenLoops,0,0
;   fanLayers,1,2,3
;   fanSpeeds,0,50,100
;   blipFanToFullPower,0
;   adjustSpeedForCooling,1
;   minSpeedLayerTime,15
;   minCoolingSpeedSlowdown,20
;   increaseFanForCooling,0
;   minFanLayerTime,45
;   maxCoolingFanSpeed,100
;   increaseFanForBridging,0
;   bridgingFanSpeed,100
;   use5D,1
;   relativeEdistances,0
;   allowEaxisZeroing,1
;   independentExtruderAxes,0
;   includeM10123,0
;   stickySupport,1
;   applyToolheadOffsets,0
;   gcodeXoffset,0
;   gcodeYoffset,0
;   gcodeZoffset,0
;   overrideMachineDefinition,1
;   machineTypeOverride,0
;   strokeXoverride,300
;   strokeYoverride,200
;   strokeZoverride,350
;   originOffsetXoverride,0
;   originOffsetYoverride,0
;   originOffsetZoverride,0
;   homeXdirOverride,-1
;   homeYdirOverride,-1
;   homeZdirOverride,-1
;   flipXoverride,1
;   flipYoverride,-1
;   flipZoverride,1
;   toolheadOffsets,0,0|0,0|0,0|0,0|0,0|0,0
;   overrideFirmwareConfiguration,1
;   firmwareTypeOverride,RepRap (Marlin/Repetier/Sprinter)
;   GPXconfigOverride,r2
;   baudRateOverride,115200
;   overridePrinterModels,0
;   printerModelsOverride
;   startingGcode,G28 ; home all axes
;   layerChangeGcode,
;   retractionGcode,
;   toolChangeGcode,
;   endingGcode,G91 ;relative positioning,G1 Z+0.5 ;move Z up a bit,G28 X0 Y0 ;move X/Y to min endstops, so the head is out of the way,M104 S0 ; turn off extruder,M140 S0 ; turn off bed,M84 ; disable motors
;   exportFileFormat,gcode
;   celebration,0
;   celebrationSong,Random Song
;   postProcessing,
;   defaultSpeed,3000
;   outlineUnderspeed,0.5
;   solidInfillUnderspeed,0.8
;   supportUnderspeed,0.8
;   rapidXYspeed,4200
;   rapidZspeed,1002
;   minBridgingArea,50
;   bridgingExtraInflation,0
;   bridgingExtrusionMultiplier,1
;   bridgingSpeedMultiplier,1
;   filamentDiameter,1.7
;   filamentPricePerKg,30
;   filamentDensity,1.25
;   useMinPrintHeight,0
;   minPrintHeight,0
;   useMaxPrintHeight,0
;   maxPrintHeight,0
;   useDiaphragm,0
;   diaphragmLayerInterval,20
;   robustSlicing,1
;   mergeAllIntoSolid,0
;   onlyRetractWhenCrossingOutline,1
;   retractBetweenLayers,1
;   useRetractionMinTravel,0
;   retractionMinTravel,3
;   retractWhileWiping,0
;   onlyWipeOutlines,1
;   avoidCrossingOutline,0
;   maxMovementDetourFactor,3
;   toolChangeRetractionDistance,12
;   toolChangeExtraRestartDistance,-0.5
;   toolChangeRetractionSpeed,600
;   allowThinWallGapFill,1
;   thinWallAllowedOverlapPercentage,10
;   horizontalSizeCompensation,0
G90
M82
M106 S0
M140 S70
M190 S70
M104 S225 T0
M109 S225 T0
G28 ; home all axes
G92 E0
G1 E-4.0000 F3600
G1 Z0.270 F1002
; layer 1, Z = 0.27
T0
; tool H0.300 W0.480
; skirt
G1 X95.797 Y74.207 F4200
G1 E0.0000 F1080
G92 E0
G1 X98.207 Y71.797 E0.2163 F1500
G1 X98.295 Y71.760 E0.2223
G1 X201.705 Y71.760 E6.7828
G1 X201.793 Y71.797 E6.7889
G1 X204.203 Y74.207 E7.0051
G1 X204.240 Y74.295 E7.0112
G1 X204.240 Y81.819 E7.4885
G1 X204.231 Y81.866 E7.4915
G1 X203.604 Y83.379 E7.5955
G1 X203.577 Y83.419 E7.5985
G1 X184.240 Y102.756 E9.3334
G1 X184.240 Y114.819 E10.0987
G1 X184.231 Y114.866 E10.1017
G1 X183.604 Y116.379 E10.2057
G1 X183.577 Y116.419 E10.2087
G1 X172.419 Y127.577 E11.2098
G1 X172.380 Y127.604 E11.2128
G1 X170.866 Y128.231 E11.3168
G1 X170.819 Y128.240 E11.3198
G1 X129.181 Y128.240 E13.9614
G1 X129.134 Y128.231 E13.9644
G1 X127.621 Y127.604 E14.0684
G1 X127.581 Y127.577 E14.0714
G1 X116.423 Y116.419 E15.0725
G1 X116.396 Y116.379 E15.0755
G1 X115.769 Y114.866 E15.1795
G1 X115.760 Y114.819 E15.1825
G1 X115.760 Y102.756 E15.9478
G1 X96.423 Y83.419 E17.6827
G1 X96.396 Y83.379 E17.6857
G1 X95.769 Y81.866 E17.7897
G1 X95.760 Y81.819 E17.7927
G1 X95.760 Y74.295 E18.2700
G1 X95.797 Y74.207 E18.2761
G92 E0
G1 E-4.0000 F3600
; inner perimeter
G1 X101.200 Y77.200 F4200
G1 E0.0000 F3600
G92 E0
G1 X198.800 Y77.200 E6.1919 F1250
G1 X198.800 Y80.503 E6.4015
G1 X178.800 Y100.503 E8.1959
G1 X178.800 Y113.503 E9.0206
G1 X169.503 Y122.800 E9.8547
G1 X130.497 Y122.800 E12.3293
G1 X121.200 Y113.503 E13.1635
G1 X121.200 Y100.503 E13.9882
G1 X101.200 Y80.503 E15.7826
G1 X101.200 Y77.200 E15.9922
; inner perimeter
G1 X100.720 Y76.720 F4200
G92 E0
G1 X199.280 Y76.720 E6.2528 F1000
G1 X199.280 Y80.702 E6.5054
G1 X179.280 Y100.702 E8.2998
G1 X179.280 Y113.702 E9.1246
G1 X169.702 Y123.280 E9.9839
G1 X130.298 Y123.280 E12.4838
G1 X120.720 Y113.702 E13.3431
G1 X120.720 Y100.702 E14.1679
G1 X100.720 Y80.702 E15.9623
G1 X100.720 Y76.720 E16.2149
; outer perimeter
G1 X100.240 Y76.240 F4200
G92 E0
G1 X199.760 Y76.240 E6.3137 F750
G1 X199.760 Y80.901 E6.6094
G1 X179.760 Y100.901 E8.4038
G1 X179.760 Y113.901 E9.2285
G1 X169.901 Y123.760 E10.1131
G1 X130.099 Y123.760 E12.6382
G1 X120.240 Y113.901 E13.5228
G1 X120.240 Y100.901 E14.3475
G1 X100.240 Y80.901 E16.1419
G1 X100.240 Y76.240 E16.4376
G1 X102.240 Y76.240 F3000
; inner perimeter
G1 X123.800 Y84.800 F4200
G92 E0
G1 X123.800 Y115.700 E1.9603 F1250
G1 X176.200 Y115.700 E5.2847
G1 X176.200 Y84.800 E7.2450
G1 X123.800 Y84.800 E10.5694
; inner perimeter
G1 X124.280 Y85.280 F4200
G92 E0
G1 X124.280 Y115.220 E1.8994 F1000
G1 X175.720 Y115.220 E5.1629
G1 X175.720 Y85.280 E7.0623
G1 X124.280 Y85.280 E10.3258
; outer perimeter
G1 X124.760 Y85.760 F4200
G92 E0
G1 X124.760 Y114.740 E1.8385 F750
G1 X175.240 Y114.740 E5.0411
G1 X175.240 Y85.760 E6.8796
G1 X124.760 Y85.760 E10.0822
G92 E0
G1 E-4.0000 F3600
G1 X124.760 Y87.760 F3000
; inner perimeter
G1 X147.290 Y80.561 F4200
G1 E0.0000 F3600
G92 E0
G1 X147.382 Y81.262 E0.0449 F1250
G1 X147.653 Y81.916 E0.0898
G1 X148.083 Y82.477 E0.1347
G1 X148.642 Y82.906 E0.1793
G1 X149.294 Y83.177 E0.2241
G1 X149.995 Y83.271 E0.2690
G1 X150.697 Y83.180 E0.3139
G1 X151.351 Y82.910 E0.3588
G1 X151.913 Y82.481 E0.4037
G1 X152.347 Y81.917 E0.4488
G1 X152.618 Y81.262 E0.4937
G1 X152.710 Y80.561 E0.5386
G1 X152.618 Y79.859 E0.5835
G1 X152.347 Y79.206 E0.6284
G1 X151.917 Y78.644 E0.6733
G1 X151.358 Y78.216 E0.7179
G1 X150.706 Y77.944 E0.7628
G1 X150.005 Y77.851 E0.8076
G1 X149.303 Y77.942 E0.8525
G1 X148.649 Y78.212 E0.8974
G1 X148.086 Y78.642 E0.9423
G1 X147.652 Y79.208 E0.9876
G1 X147.382 Y79.859 E1.0323
G1 X147.290 Y80.561 E1.0772
; inner perimeter
G1 X147.774 Y80.561 F4200
G92 E0
G1 X147.850 Y81.137 E0.0369 F1000
G1 X148.072 Y81.674 E0.0737
G1 X148.426 Y82.135 E0.1106
G1 X148.884 Y82.487 E0.1473
G1 X149.420 Y82.710 E0.1841
G1 X149.996 Y82.787 E0.2210
G1 X150.572 Y82.712 E0.2578
G1 X151.110 Y82.491 E0.2947
G1 X151.571 Y82.138 E0.3315
G1 X151.928 Y81.675 E0.3686
G1 X152.150 Y81.137 E0.4055
G1 X152.226 Y80.561 E0.4424
G1 X152.150 Y79.985 E0.4793
G1 X151.928 Y79.448 E0.5161
G1 X151.574 Y78.987 E0.5530
G1 X151.116 Y78.635 E0.5897
G1 X150.580 Y78.412 E0.6265
G1 X150.004 Y78.335 E0.6634
G1 X149.428 Y78.410 E0.7002
G1 X148.890 Y78.631 E0.7371
G1 X148.428 Y78.985 E0.7740
G1 X148.071 Y79.450 E0.8112
G1 X147.850 Y79.985 E0.8479
G1 X147.774 Y80.561 E0.8848
; outer perimeter
G1 X148.258 Y80.561 F4200
G92 E0
G1 X148.317 Y81.012 E0.0289 F750
G1 X148.491 Y81.432 E0.0577
G1 X148.768 Y81.793 E0.0866
G1 X149.127 Y82.068 E0.1152
G1 X149.546 Y82.243 E0.1441
G1 X149.997 Y82.303 E0.1729
G1 X150.448 Y82.244 E0.2017
G1 X150.868 Y82.071 E0.2306
G1 X151.229 Y81.795 E0.2594
G1 X151.509 Y81.432 E0.2885
G1 X151.683 Y81.012 E0.3173
G1 X151.742 Y80.561 E0.3462
G1 X151.683 Y80.110 E0.3750
G1 X151.509 Y79.690 E0.4039
G1 X151.232 Y79.329 E0.4327
G1 X150.873 Y79.054 E0.4614
G1 X150.454 Y78.879 E0.4902
G1 X150.003 Y78.819 E0.5191
G1 X149.552 Y78.878 E0.5479
G1 X149.132 Y79.051 E0.5768
G1 X148.770 Y79.327 E0.6056
G1 X148.490 Y79.692 E0.6348
G1 X148.317 Y80.110 E0.6635
G1 X148.258 Y80.561 E0.6924
G92 E0
G1 E-4.0000 F3600
G1 X148.317 Y81.012 F3000
G1 X148.491 Y81.432 F3000
G1 X148.768 Y81.793 F3000
G1 X149.127 Y82.068 F3000
G1 X149.296 Y82.138 F3000
; inner perimeter
G1 X148.081 Y117.526 F4200
G1 E0.0000 F3600
G92 E0
G1 X147.651 Y118.088 E0.0449 F1250
G1 X147.381 Y118.742 E0.0898
G1 X147.290 Y119.442 E0.1346
G1 X147.382 Y120.141 E0.1793
G1 X147.655 Y120.797 E0.2244
G1 X148.083 Y121.355 E0.2690
G1 X148.645 Y121.786 E0.3139
G1 X149.299 Y122.057 E0.3588
G1 X150.000 Y122.149 E0.4037
G1 X150.701 Y122.057 E0.4486
G1 X151.356 Y121.786 E0.4935
G1 X151.919 Y121.352 E0.5386
G1 X152.349 Y120.790 E0.5835
G1 X152.619 Y120.136 E0.6284
G1 X152.710 Y119.435 E0.6733
G1 X152.617 Y118.733 E0.7182
G1 X152.345 Y118.081 E0.7630
G1 X151.917 Y117.522 E0.8077
G1 X151.355 Y117.092 E0.8525
G1 X150.701 Y116.821 E0.8974
G1 X150.000 Y116.729 E0.9423
G1 X149.298 Y116.821 E0.9872
G1 X148.644 Y117.092 E1.0322
G1 X148.081 Y117.526 E1.0773
; inner perimeter
G1 X148.424 Y117.867 F4200
G92 E0
G1 X148.071 Y118.329 E0.0369 F1000
G1 X147.849 Y118.866 E0.0737
G1 X147.774 Y119.442 E0.1106
G1 X147.850 Y120.016 E0.1473
G1 X148.074 Y120.554 E0.1843
G1 X148.426 Y121.013 E0.2210
G1 X148.887 Y121.367 E0.2578
G1 X149.424 Y121.589 E0.2947
G1 X150.000 Y121.665 E0.3316
G1 X150.576 Y121.589 E0.3685
G1 X151.114 Y121.367 E0.4054
G1 X151.576 Y121.010 E0.4424
G1 X151.929 Y120.549 E0.4793
G1 X152.151 Y120.012 E0.5161
G1 X152.226 Y119.435 E0.5530
G1 X152.149 Y118.859 E0.5899
G1 X151.926 Y118.323 E0.6267
G1 X151.574 Y117.865 E0.6634
G1 X151.113 Y117.511 E0.7002
G1 X150.576 Y117.289 E0.7371
G1 X150.000 Y117.213 E0.7740
G1 X149.424 Y117.289 E0.8109
G1 X148.886 Y117.511 E0.8478
G1 X148.424 Y117.867 E0.8848
; outer perimeter
G1 X148.766 Y118.209 F4200
G92 E0
G1 X148.490 Y118.570 E0.0288 F750
G1 X148.317 Y118.991 E0.0577
G1 X148.258 Y119.441 E0.0865
G1 X148.317 Y119.890 E0.1152
G1 X148.493 Y120.312 E0.1442
G1 X148.768 Y120.671 E0.1729
G1 X149.129 Y120.948 E0.2018
G1 X149.549 Y121.122 E0.2306
G1 X150.000 Y121.181 E0.2595
G1 X150.451 Y121.122 E0.2883
G1 X150.871 Y120.948 E0.3172
G1 X151.234 Y120.669 E0.3462
G1 X151.510 Y120.307 E0.3750
G1 X151.683 Y119.887 E0.4039
G1 X151.742 Y119.436 E0.4327
G1 X151.682 Y118.985 E0.4616
G1 X151.507 Y118.566 E0.4904
G1 X151.232 Y118.207 E0.5191
G1 X150.871 Y117.930 E0.5480
G1 X150.451 Y117.756 E0.5768
G1 X150.000 Y117.697 E0.6057
G1 X149.549 Y117.756 E0.6345
G1 X149.129 Y117.930 E0.6634
G1 X148.766 Y118.209 E0.6924
G1 X148.490 Y118.570 F3000
G1 X148.317 Y118.991 F3000
G1 X148.258 Y119.441 F3000
G1 X148.317 Y119.890 F3000
G1 X148.388 Y120.060 F3000
; solid layer
G1 X148.201 Y121.960 F4200
G92 E0
G1 X148.633 Y122.392 E0.0387 F1200
G1 X151.234 Y122.278 F4200
G92 E0
G1 X151.349 Y122.392 E0.0102 F1200
G1 X152.027 Y122.392 E0.0533
G1 X151.684 Y122.048 E0.0841
G1 X152.067 Y121.753 E0.1148
G1 X152.706 Y122.392 E0.1722
G1 X153.385 Y122.392 E0.2152
G1 X152.395 Y121.402 E0.3041
G1 X152.689 Y121.017 E0.3348
G1 X154.064 Y122.392 E0.4581
G1 X154.743 Y122.392 E0.5012
G1 X152.893 Y120.542 E0.6672
G1 X153.016 Y120.242 E0.6877
G1 X153.046 Y120.016 E0.7022
G1 X155.421 Y122.392 E0.9153
G1 X156.100 Y122.392 E0.9584
G1 X153.118 Y119.410 E1.2259
G1 X175.612 Y116.108 F4200
G92 E0
G1 X175.615 Y116.111 E0.0003 F1200
G1 X175.275 Y116.451 E0.0307
G1 X174.933 Y116.108 E0.0615
G1 X174.254 Y116.108 E0.1045
G1 X174.936 Y116.790 E0.1657
G1 X174.596 Y117.129 E0.1962
G1 X173.575 Y116.108 E0.2878
G1 X172.896 Y116.108 E0.3309
G1 X174.257 Y117.469 E0.4530
G1 X173.918 Y117.808 E0.4834
G1 X172.217 Y116.108 E0.6360
G1 X171.539 Y116.108 E0.6791
G1 X173.578 Y118.148 E0.8621
G1 X173.239 Y118.487 E0.8925
G1 X170.860 Y116.108 E1.1060
G1 X170.181 Y116.108 E1.1490
G1 X172.899 Y118.826 E1.3929
G1 X172.560 Y119.166 E1.4234
G1 X169.502 Y116.108 E1.6977
G1 X168.823 Y116.108 E1.7408
G1 X172.221 Y119.505 E2.0456
G1 X171.881 Y119.845 E2.0761
G1 X168.144 Y116.108 E2.4113
G1 X167.466 Y116.108 E2.4544
G1 X171.542 Y120.184 E2.8201
G1 X171.202 Y120.524 E2.8505
G1 X166.787 Y116.108 E3.2467
G1 X166.108 Y116.108 E3.2898
G1 X170.863 Y120.863 E3.7164
G1 X170.524 Y121.202 E3.7468
G1 X165.429 Y116.108 E4.2039
G1 X164.750 Y116.108 E4.2470
G1 X170.184 Y121.542 E4.7345
G1 X169.845 Y121.881 E4.7649
G1 X164.072 Y116.108 E5.2829
G1 X163.393 Y116.108 E5.3260
G1 X169.505 Y122.221 E5.8744
G1 X169.334 Y122.392 E5.8898
G1 X168.998 Y122.392 E5.9111
G1 X162.714 Y116.108 E6.4749
G1 X162.035 Y116.108 E6.5180
G1 X168.319 Y122.392 E7.0818
G1 X167.640 Y122.392 E7.1248
G1 X161.356 Y116.108 E7.6886
G1 X160.677 Y116.108 E7.7317
G1 X166.961 Y122.392 E8.2955
G1 X166.283 Y122.392 E8.3386
G1 X159.999 Y116.108 E8.9024
G1 X159.320 Y116.108 E8.9454
G1 X165.604 Y122.392 E9.5092
G1 X164.925 Y122.392 E9.5523
G1 X158.641 Y116.108 E10.1161
G1 X157.962 Y116.108 E10.1592
G1 X164.246 Y122.392 E10.7230
G1 X163.567 Y122.392 E10.7660
G1 X157.283 Y116.108 E11.3298
G1 X156.604 Y116.108 E11.3729
G1 X162.888 Y122.392 E11.9367
G1 X162.210 Y122.392 E11.9798
G1 X155.926 Y116.108 E12.5436
G1 X155.247 Y116.108 E12.5866
G1 X161.531 Y122.392 E13.1504
G1 X160.852 Y122.392 E13.1935
G1 X154.568 Y116.108 E13.7573
G1 X153.889 Y116.108 E13.8004
G1 X160.173 Y122.392 E14.3642
G1 X159.494 Y122.392 E14.4072
G1 X153.210 Y116.108 E14.9710
G1 X152.532 Y116.108 E15.0141
G1 X158.816 Y122.392 E15.5779
G1 X158.137 Y122.392 E15.6210
G1 X151.853 Y116.108 E16.1848
G1 X151.174 Y116.108 E16.2278
G1 X157.458 Y122.392 E16.7916
G1 X156.779 Y122.392 E16.8347
G1 X153.014 Y118.627 E17.1725
G1 X152.701 Y117.875 E17.2241
G1 X152.207 Y117.231 E17.2756
G1 X151.561 Y116.735 E17.3273
G1 X150.812 Y116.425 E17.3787
G1 X150.495 Y116.108 E17.4072
G1 X149.816 Y116.108 E17.4502
G1 X150.029 Y116.321 E17.4693
G1 X150.000 Y116.317 E17.4712
G1 X149.423 Y116.393 E17.5082
G1 X149.137 Y116.108 E17.5337
G1 X148.459 Y116.108 E17.5768
