; G-Code generated by Simplify3D(R) Version 3.1.1
; Mar 11, 2017 at 9:26:52 AM
; Settings Summary
;   processName,Process1
;   applyToModels,CutterClampLeft,CutterRodClampBottom,CutterRodMountBottom
;   profileName,Kossel Mini (modified)
;   profileVersion,2017-03-09 09:09:04
;   baseProfile,
;   printMaterial,PLA+
;   printQuality,Medium
;   printExtruders,
;   extruderName,Primary Extruder
;   extruderToolheadNumber,0
;   extruderDiameter,0.4
;   extruderAutoWidth,1
;   extruderWidth,0.48
;   extrusionMultiplier,1
;   extruderUseRetract,1
;   extruderRetractionDistance,4
;   extruderExtraRestartDistance,0
;   extruderRetractionZLift,0.1
;   extruderRetractionSpeed,3600
;   extruderUseCoasting,0
;   extruderCoastingDistance,5
;   extruderUseWipe,1
;   extruderWipeDistance,2
;   primaryExtruder,0
;   layerHeight,0.3
;   topSolidLayers,3
;   bottomSolidLayers,3
;   perimeterOutlines,3
;   printPerimetersInsideOut,1
;   startPointOption,2
;   startPointOriginX,0
;   startPointOriginY,0
;   startPointOriginZ,300
;   sequentialIslands,0
;   spiralVaseMode,0
;   firstLayerHeightPercentage,80
;   firstLayerWidthPercentage,120
;   firstLayerUnderspeed,0.5
;   useRaft,0
;   raftExtruder,0
;   raftLayers,3
;   raftOffset,3
;   raftSeparationDistance,0.14
;   raftInfill,85
;   disableRaftBaseLayers,0
;   useSkirt,1
;   skirtExtruder,0
;   skirtLayers,1
;   skirtOutlines,1
;   skirtOffset,4
;   usePrimePillar,0
;   primePillarExtruder,999
;   primePillarWidth,12
;   primePillarLocation,7
;   primePillarSpeedMultiplier,1
;   useOozeShield,0
;   oozeShieldExtruder,999
;   oozeShieldOffset,2
;   oozeShieldOutlines,1
;   oozeShieldSidewallShape,1
;   oozeShieldSidewallAngle,30
;   oozeShieldSpeedMultiplier,1
;   infillExtruder,0
;   internalInfillPattern,Rectilinear
;   externalInfillPattern,Rectilinear
;   infillPercentage,40
;   outlineOverlapPercentage,30
;   infillExtrusionWidthPercentage,110
;   minInfillLength,2
;   infillLayerInterval,1
;   infillAngles,45,-45
;   overlapInfillAngles,0
;   generateSupport,0
;   supportExtruder,0
;   supportInfillPercentage,30
;   supportExtraInflation,0
;   denseSupportLayers,0
;   denseSupportInfillPercentage,70
;   supportLayerInterval,1
;   supportHorizontalPartOffset,0.3
;   supportUpperSeparationLayers,1
;   supportLowerSeparationLayers,1
;   supportType,0
;   supportGridSpacing,4
;   maxOverhangAngle,45
;   supportAngles,0
;   temperatureName,Primary Extruder,Heated Bed
;   temperatureNumber,0,1
;   temperatureSetpointCount,2,3
;   temperatureSetpointLayers,1,2,1,2,3
;   temperatureSetpointTemperatures,230,225,70,65,60
;   temperatureStabilizeAtStartup,1,1
;   temperatureHeatedBed,0,1
;   temperatureRelayBetweenLayers,0,0
;   temperatureRelayBetweenLoops,0,0
;   fanLayers,1,2,3
;   fanSpeeds,0,50,100
;   blipFanToFullPower,1
;   adjustSpeedForCooling,1
;   minSpeedLayerTime,15
;   minCoolingSpeedSlowdown,20
;   increaseFanForCooling,0
;   minFanLayerTime,60
;   maxCoolingFanSpeed,100
;   increaseFanForBridging,1
;   bridgingFanSpeed,100
;   use5D,1
;   relativeEdistances,0
;   allowEaxisZeroing,1
;   independentExtruderAxes,0
;   includeM10123,0
;   stickySupport,1
;   applyToolheadOffsets,0
;   gcodeXoffset,0
;   gcodeYoffset,0
;   gcodeZoffset,0
;   overrideMachineDefinition,1
;   machineTypeOverride,1
;   strokeXoverride,190
;   strokeYoverride,190
;   strokeZoverride,204.4
;   originOffsetXoverride,95
;   originOffsetYoverride,95
;   originOffsetZoverride,0
;   homeXdirOverride,0
;   homeYdirOverride,0
;   homeZdirOverride,1
;   flipXoverride,1
;   flipYoverride,-1
;   flipZoverride,1
;   toolheadOffsets,0,0|0,0|0,0|0,0|0,0|0,0
;   overrideFirmwareConfiguration,1
;   firmwareTypeOverride,RepRap (Marlin/Repetier/Sprinter)
;   GPXconfigOverride,r2
;   baudRateOverride,115200
;   overridePrinterModels,1
;   printerModelsOverride
;   startingGcode,G28 ; home all axes
;   layerChangeGcode,
;   retractionGcode,
;   toolChangeGcode,
;   endingGcode,M104 S0 ; turn off extruder,M140 S0 ; turn off bed,M107 ; turn off cooling fan,G28 ; home axes,M84 ; disable motors
;   exportFileFormat,gcode
;   celebration,0
;   celebrationSong,Random Song
;   postProcessing,
;   defaultSpeed,4200
;   outlineUnderspeed,0.5
;   solidInfillUnderspeed,0.8
;   supportUnderspeed,0.8
;   rapidXYspeed,6000
;   rapidZspeed,1200
;   minBridgingArea,50
;   bridgingExtraInflation,0
;   bridgingExtrusionMultiplier,0.95
;   bridgingSpeedMultiplier,0.7
;   filamentDiameter,1.73
;   filamentPricePerKg,25
;   filamentDensity,1.25
;   useMinPrintHeight,0
;   minPrintHeight,0
;   useMaxPrintHeight,0
;   maxPrintHeight,10
;   useDiaphragm,0
;   diaphragmLayerInterval,20
;   robustSlicing,1
;   mergeAllIntoSolid,0
;   onlyRetractWhenCrossingOutline,1
;   retractBetweenLayers,1
;   useRetractionMinTravel,0
;   retractionMinTravel,3
;   retractWhileWiping,0
;   onlyWipeOutlines,1
;   avoidCrossingOutline,0
;   maxMovementDetourFactor,3
;   toolChangeRetractionDistance,12
;   toolChangeExtraRestartDistance,-0.5
;   toolChangeRetractionSpeed,600
;   allowThinWallGapFill,1
;   thinWallAllowedOverlapPercentage,10
;   horizontalSizeCompensation,0
G90
M82
M106 S0
M140 S70
M190 S70
M104 S230 T0
M109 S230 T0
G28 ; home all axes
G92 E0
G1 E-4.0000 F3600
G1 Z0.340 F1200
; layer 1, Z = 0.24
T0
; tool H0.300 W0.576
; skirt
G1 X-6.736 Y-11.871 F6000
G1 Z0.240 F1200
G1 E0.0000 F1080
G92 E0
G1 X-6.734 Y-20.398 E0.6268 F2100
G1 X-6.697 Y-20.486 E0.6339
G1 X-4.551 Y-22.632 E0.8569
G1 X-6.697 Y-24.777 E1.0800
G1 X-6.734 Y-24.865 E1.0870
G1 X-6.736 Y-34.335 E1.7832
G1 X-6.700 Y-34.423 E1.7902
G1 X-4.289 Y-36.835 E2.0409
G1 X-4.201 Y-36.872 E2.0479
G1 X14.209 Y-36.872 E3.4012
G1 X14.297 Y-36.835 E3.4083
G1 X16.708 Y-34.424 E3.6589
G1 X16.744 Y-34.336 E3.6659
G1 X16.744 Y-24.866 E4.3621
G1 X16.708 Y-24.778 E4.3691
G1 X14.561 Y-22.632 E4.5922
G1 X16.708 Y-20.485 E4.8153
G1 X16.744 Y-20.397 E4.8223
G1 X16.744 Y-11.872 E5.4491
G1 X29.209 Y-11.872 E6.3654
G1 X29.297 Y-11.835 E6.3724
G1 X31.708 Y-9.424 E6.6230
G1 X31.744 Y-9.336 E6.6300
G1 X31.744 Y14.073 E8.3509
G1 X31.708 Y14.161 E8.3579
G1 X29.297 Y16.572 E8.6086
G1 X29.209 Y16.608 E8.6156
G1 X-3.287 Y16.608 E11.0044
G1 X-3.261 Y34.332 E12.3073
G1 X-3.298 Y34.420 E12.3143
G1 X-5.709 Y36.835 E12.5652
G1 X-5.797 Y36.872 E12.5723
G1 X-23.315 Y36.871 E13.8600
G1 X-23.362 Y36.862 E13.8635
G1 X-24.875 Y36.235 E13.9840
G1 X-24.915 Y36.209 E13.9874
G1 X-31.073 Y30.050 E14.6277
G1 X-31.100 Y30.011 E14.6312
G1 X-31.727 Y28.497 E14.7516
G1 X-31.736 Y28.451 E14.7551
G1 X-31.740 Y-28.451 E18.9381
G1 X-31.731 Y-28.497 E18.9416
G1 X-31.103 Y-30.012 E19.0621
G1 X-31.077 Y-30.051 E19.0656
G1 X-24.913 Y-36.210 E19.7061
G1 X-24.874 Y-36.236 E19.7095
G1 X-23.361 Y-36.862 E19.8299
G1 X-23.315 Y-36.871 E19.8334
G1 X-12.299 Y-36.871 E20.6432
G1 X-12.211 Y-36.834 E20.6502
G1 X-9.800 Y-34.424 E20.9008
G1 X-9.764 Y-34.336 E20.9078
G1 X-9.764 Y-11.871 E22.5593
G1 X-6.736 Y-11.871 E22.7818
G92 E0
G1 E-4.0000 F3600
G1 Z0.340 F1200
; inner perimeter
G1 X-1.055 Y-14.072 F6000
G1 Z0.240 F1200
G1 E0.0000 F3600
G92 E0
G1 X-1.054 Y-17.253 E0.2338 F1750
G1 X2.334 Y-17.253 E0.4829
G1 X1.959 Y-16.347 E0.5550
G1 X1.852 Y-15.532 E0.6155
G1 X1.959 Y-14.716 E0.6760
G1 X2.226 Y-14.072 E0.7272
G1 X-1.055 Y-14.072 E0.9684
G92 E0
G1 E-4.0000 F3600
G1 Z0.340 F1200
G1 X7.782 Y-14.072 F6000
G1 Z0.240 F1200
G1 E0.0000 F3600
G92 E0
G1 X8.049 Y-14.716 E0.0513 F1750
G1 X8.157 Y-15.532 E0.1117
G1 X8.049 Y-16.347 E0.1722
G1 X7.674 Y-17.253 E0.2443
G1 X11.064 Y-17.253 E0.4935
G1 X11.064 Y-14.072 E0.7273
G1 X7.782 Y-14.072 E0.9686
G92 E0
G1 E-4.0000 F3600
G1 Z0.340 F1200
; inner perimeter
G1 X-1.632 Y-13.496 F6000
G1 Z0.240 F1200
G1 E0.0000 F3600
G92 E0
G1 X-1.630 Y-17.829 E0.3185 F1400
G1 X3.810 Y-17.829 E0.7184
G1 X3.186 Y-17.350 E0.7763
G1 X2.777 Y-16.817 E0.8256
G1 X2.520 Y-16.197 E0.8749
G1 X2.433 Y-15.532 E0.9243
G1 X2.520 Y-14.866 E0.9736
G1 X2.777 Y-14.246 E1.0230
G1 X3.353 Y-13.496 E1.0925
G1 X-1.632 Y-13.496 E1.4589
G1 X6.655 Y-13.496 F6000
G92 E0
G1 X7.231 Y-14.246 E0.0695 F1400
G1 X7.488 Y-14.866 E0.1189
G1 X7.576 Y-15.532 E0.1682
G1 X7.488 Y-16.197 E0.2176
G1 X7.231 Y-16.817 E0.2669
G1 X6.822 Y-17.350 E0.3163
G1 X6.199 Y-17.829 E0.3741
G1 X11.640 Y-17.829 E0.7741
G1 X11.640 Y-13.496 E1.0926
G1 X6.655 Y-13.496 E1.4591
; outer perimeter
G1 X-2.208 Y-12.920 F6000
G92 E0
G1 X-2.206 Y-18.405 E0.4032 F1050
G1 X12.216 Y-18.405 E1.4634
G1 X12.216 Y-12.920 E1.8667
G1 X-2.208 Y-12.920 E2.9270
G1 X-2.207 Y-14.920 F4200
; inner perimeter
; inner perimeter
; outer perimeter
G1 X3.082 Y-15.016 F6000
G92 E0
G1 X3.280 Y-14.536 E0.0382 F1050
G1 X3.597 Y-14.124 E0.0764
G1 X4.009 Y-13.808 E0.1146
G1 X4.489 Y-13.609 E0.1528
G1 X5.004 Y-13.541 E0.1910
G1 X5.519 Y-13.609 E0.2292
G1 X5.999 Y-13.808 E0.2674
G1 X6.412 Y-14.124 E0.3056
G1 X6.728 Y-14.536 E0.3438
G1 X6.927 Y-15.016 E0.3820
G1 X6.995 Y-15.532 E0.4202
G1 X6.927 Y-16.047 E0.4584
G1 X6.728 Y-16.527 E0.4966
G1 X6.412 Y-16.939 E0.5348
G1 X5.999 Y-17.255 E0.5730
G1 X5.519 Y-17.454 E0.6112
G1 X5.004 Y-17.522 E0.6494
G1 X4.489 Y-17.454 E0.6876
G1 X4.009 Y-17.255 E0.7258
G1 X3.597 Y-16.939 E0.7640
G1 X3.280 Y-16.527 E0.8022
G1 X3.082 Y-16.047 E0.8404
G1 X3.014 Y-15.532 E0.8786
G1 X3.082 Y-15.016 E0.9168
G92 E0
G1 E-4.0000 F3600
G1 X3.280 Y-14.536 F4200
G1 X3.597 Y-14.124 F4200
G1 X4.009 Y-13.808 F4200
G1 X4.416 Y-13.639 F4200
G1 Z0.340 F1200
; gap fill
G1 X4.889 Y-17.919 F6000
G1 Z0.240 F1200
G1 E0.0000 F3600
G92 E0
G1 X4.813 Y-17.996 E0.0079 F1680
; solid layer
G1 X1.072 Y-16.849 F6000
G92 E0
G1 X1.555 Y-16.366 E0.0503 F1680
G1 X1.460 Y-15.646 E0.1036
G1 X0.257 Y-16.849 E0.2287
G1 X-0.558 Y-16.849 E0.2886
G1 X1.549 Y-14.743 E0.5076
G1 X1.566 Y-14.610 E0.5174
G1 X1.623 Y-14.475 E0.5282
G1 X1.002 Y-14.475 E0.5738
G1 X-0.652 Y-16.129 E0.7457
G1 X-0.652 Y-15.314 E0.8056
G1 X0.188 Y-14.475 E0.8929
G1 X-0.627 Y-14.475 E0.9528
G1 X-0.652 Y-14.500 E0.9554
G92 E0
G1 E-4.0000 F3600
G1 Z0.340 F1200
G1 X9.148 Y-14.475 F6000
G1 Z0.240 F1200
G1 E0.0000 F3600
G92 E0
G1 X8.508 Y-15.115 E0.0665 F1680
G1 X8.563 Y-15.532 E0.0974
G1 X8.511 Y-15.926 E0.1267
G1 X9.963 Y-14.475 E0.2776
G1 X10.661 Y-14.475 E0.3289
G1 X10.661 Y-14.591 E0.3375
G1 X8.403 Y-16.849 E0.5723
G1 X9.217 Y-16.849 E0.6321
G1 X10.661 Y-15.406 E0.7822
G1 X10.661 Y-16.220 E0.8421
G1 X10.032 Y-16.849 E0.9075
G92 E0
G1 E-4.0000 F3600
G1 Z0.340 F1200
; inner perimeter
G1 X11.064 Y-28.011 F6000
G1 Z0.240 F1200
G1 E0.0000 F3600
G92 E0
G1 X7.674 Y-28.011 E0.2492 F1750
G1 X8.049 Y-28.916 E0.3212
G1 X8.157 Y-29.732 E0.3817
G1 X8.049 Y-30.547 E0.4422
G1 X7.782 Y-31.192 E0.4935
G1 X11.064 Y-31.192 E0.7347
G1 X11.064 Y-28.011 E0.9686
G1 X2.334 Y-28.011 F6000
G92 E0
G1 X-1.054 Y-28.011 E0.2491 F1750
G1 X-1.055 Y-31.192 E0.4829
G1 X2.226 Y-31.192 E0.7242
G1 X1.959 Y-30.547 E0.7754
G1 X1.852 Y-29.732 E0.8359
G1 X1.959 Y-28.916 E0.8964
G1 X2.334 Y-28.011 E0.9684
; inner perimeter
G1 X11.640 Y-27.435 F6000
G92 E0
G1 X6.199 Y-27.435 E0.4000 F1400
G1 X6.822 Y-27.913 E0.4578
G1 X7.231 Y-28.446 E0.5072
G1 X7.488 Y-29.066 E0.5565
G1 X7.576 Y-29.732 E0.6059
G1 X7.488 Y-30.397 E0.6552
G1 X7.231 Y-31.017 E0.7046
G1 X6.655 Y-31.768 E0.7741
G1 X11.640 Y-31.768 E1.1405
G1 X11.640 Y-27.435 E1.4591
G1 X3.810 Y-27.435 F6000
G92 E0
G1 X-1.630 Y-27.435 E0.3999 F1400
G1 X-1.632 Y-31.768 E0.7184
G1 X3.353 Y-31.768 E1.0849
G1 X2.777 Y-31.017 E1.1544
G1 X2.520 Y-30.397 E1.2037
G1 X2.433 Y-29.732 E1.2531
G1 X2.520 Y-29.066 E1.3024
G1 X2.777 Y-28.446 E1.3518
G1 X3.186 Y-27.913 E1.4011
G1 X3.810 Y-27.435 E1.4589
; outer perimeter
G1 X12.216 Y-26.859 F6000
G92 E0
G1 X-2.206 Y-26.859 E1.0602 F1050
G1 X-2.208 Y-32.344 E1.4634
G1 X12.216 Y-32.344 E2.5238
G1 X12.216 Y-26.859 E2.9270
G1 X10.216 Y-26.859 F4200
; inner perimeter
; inner perimeter
; outer perimeter
G1 X5.519 Y-27.809 F6000
G92 E0
G1 X5.999 Y-28.008 E0.0382 F1050
G1 X6.412 Y-28.324 E0.0764
G1 X6.728 Y-28.736 E0.1146
G1 X6.927 Y-29.216 E0.1528
G1 X6.995 Y-29.732 E0.1910
G1 X6.927 Y-30.247 E0.2292
G1 X6.728 Y-30.727 E0.2674
G1 X6.412 Y-31.139 E0.3056
G1 X5.999 Y-31.455 E0.3438
G1 X5.519 Y-31.654 E0.3820
G1 X5.004 Y-31.722 E0.4202
G1 X4.489 Y-31.654 E0.4584
G1 X4.009 Y-31.455 E0.4966
G1 X3.597 Y-31.139 E0.5348
G1 X3.280 Y-30.727 E0.5730
G1 X3.082 Y-30.247 E0.6112
G1 X3.014 Y-29.732 E0.6494
G1 X3.082 Y-29.216 E0.6876
G1 X3.280 Y-28.736 E0.7258
G1 X3.597 Y-28.324 E0.7640
G1 X4.009 Y-28.008 E0.8022
G1 X4.489 Y-27.809 E0.8404
G1 X5.004 Y-27.741 E0.8786
G1 X5.519 Y-27.809 E0.9168
G1 X5.999 Y-28.008 F4200
G1 X6.412 Y-28.324 F4200
G1 X6.728 Y-28.736 F4200
G1 X6.897 Y-29.144 F4200
; gap fill
G1 X5.226 Y-27.358 F6000
G92 E0
G1 X5.316 Y-27.267 E0.0094 F1680
G92 E0
G1 E-4.0000 F3600
G1 Z0.340 F1200
G1 X3.963 Y-31.879 F6000
G1 Z0.240 F1200
G1 E0.0000 F3600
G92 E0
G1 X3.954 Y-31.888 E0.0010 F1680
; solid layer
G1 X0.981 Y-30.788 F6000
G92 E0
G1 X1.514 Y-30.255 E0.0555 F1680
G1 X1.445 Y-29.732 E0.0943
G1 X1.479 Y-29.476 E0.1132
G1 X0.166 Y-30.788 E0.2497
G1 X-0.649 Y-30.788 E0.3096
G1 X1.726 Y-28.414 E0.5565
G1 X0.911 Y-28.414 E0.6164
G1 X-0.652 Y-29.977 E0.7789
G1 X-0.652 Y-29.162 E0.8388
G1 X0.097 Y-28.414 E0.9166
G92 E0
G1 E-4.0000 F3600
G1 Z0.340 F1200
G1 X9.057 Y-28.414 F6000
G1 Z0.240 F1200
G1 E0.0000 F3600
G92 E0
G1 X8.467 Y-29.004 E0.0613 F1680
G1 X8.562 Y-29.723 E0.1147
G1 X9.872 Y-28.414 E0.2509
G1 X10.661 Y-28.414 E0.3089
G1 X10.661 Y-28.439 E0.3107
G1 X8.438 Y-30.662 E0.5418
G1 X8.386 Y-30.788 E0.5519
G1 X9.126 Y-30.788 E0.6063
G1 X10.661 Y-29.254 E0.7659
G1 X10.661 Y-30.068 E0.8257
G1 X9.941 Y-30.788 E0.9006
G92 E0
G1 E-4.0000 F3600
G1 Z0.340 F1200
; inner perimeter
G1 X-15.444 Y-31.191 F6000
G1 Z0.240 F1200
G1 E0.0000 F3600
G92 E0
G1 X-15.444 Y-6.191 E1.8378 F1750
G1 X-8.970 Y-6.191 E2.3137
G1 X-8.970 Y-1.362 E2.6687
G1 X-9.819 Y-1.090 E2.7343
G1 X-10.808 Y-0.635 E2.8143
G1 X-11.736 Y-0.066 E2.8943
G1 X-12.588 Y0.610 E2.9743
G1 X-13.356 Y1.385 E3.0545
G1 X-14.023 Y2.245 E3.1345
G1 X-14.583 Y3.179 E3.2145
G1 X-15.026 Y4.172 E3.2945
G1 X-15.348 Y5.212 E3.3745
G1 X-15.543 Y6.283 E3.4545
G1 X-15.608 Y7.369 E3.5345
G1 X-15.543 Y8.455 E3.6145
G1 X-15.348 Y9.526 E3.6945
G1 X-15.026 Y10.565 E3.7745
G1 X-14.583 Y11.559 E3.8545
G1 X-14.023 Y12.493 E3.9345
G1 X-13.356 Y13.352 E4.0145
G1 X-12.591 Y14.126 E4.0945
G1 X-11.741 Y14.800 E4.1743
G1 X-10.814 Y15.370 E4.2543
G1 X-9.825 Y15.825 E4.3343
G1 X-8.968 Y16.101 E4.4005
G1 X-8.946 Y31.192 E5.5098
G1 X-21.899 Y31.191 E6.4621
G1 X-26.056 Y27.035 E6.8942
G1 X-26.060 Y-27.035 E10.8690
G1 X-21.900 Y-31.191 E11.3013
G1 X-15.444 Y-31.191 E11.7759
; inner perimeter
G1 X-14.868 Y-31.767 F6000
G92 E0
G1 X-14.868 Y-6.767 E1.8378 F1400
G1 X-8.394 Y-6.767 E2.3137
G1 X-8.394 Y-0.911 E2.7442
G1 X-8.640 Y-0.863 E2.7627
G1 X-9.610 Y-0.552 E2.8376
G1 X-10.536 Y-0.126 E2.9125
G1 X-11.405 Y0.407 E2.9874
G1 X-12.203 Y1.040 E3.0623
G1 X-12.922 Y1.766 E3.1375
G1 X-13.547 Y2.571 E3.2124
G1 X-14.071 Y3.445 E3.2873
G1 X-14.486 Y4.376 E3.3622
G1 X-14.787 Y5.349 E3.4371
G1 X-14.970 Y6.352 E3.5120
G1 X-15.031 Y7.369 E3.5869
G1 X-14.970 Y8.386 E3.6618
G1 X-14.787 Y9.389 E3.7368
G1 X-14.486 Y10.362 E3.8117
G1 X-14.071 Y11.293 E3.8866
G1 X-13.547 Y12.167 E3.9615
G1 X-12.922 Y12.972 E4.0364
G1 X-12.206 Y13.696 E4.1113
G1 X-11.410 Y14.328 E4.1860
G1 X-10.542 Y14.861 E4.2609
G1 X-9.616 Y15.287 E4.3358
G1 X-8.646 Y15.600 E4.4107
G1 X-8.393 Y15.649 E4.4297
G1 X-8.369 Y31.768 E5.6146
G1 X-22.138 Y31.767 E6.6268
G1 X-26.632 Y27.273 E7.0941
G1 X-26.636 Y-27.273 E11.1039
G1 X-22.138 Y-31.767 E11.5713
G1 X-14.868 Y-31.767 E12.1058
; outer perimeter
G1 X-14.292 Y-32.343 F6000
G92 E0
G1 X-14.292 Y-7.343 E1.8378 F1050
G1 X-7.818 Y-7.343 E2.3137
G1 X-7.818 Y-0.435 E2.8215
G1 X-8.497 Y-0.304 E2.8724
G1 X-9.401 Y-0.014 E2.9422
G1 X-10.265 Y0.383 E3.0120
G1 X-11.074 Y0.879 E3.0819
G1 X-11.818 Y1.470 E3.1517
G1 X-12.488 Y2.147 E3.2217
G1 X-13.071 Y2.897 E3.2915
G1 X-13.559 Y3.712 E3.3614
G1 X-13.946 Y4.579 E3.4312
G1 X-14.227 Y5.486 E3.5010
G1 X-14.397 Y6.421 E3.5708
G1 X-14.454 Y7.369 E3.6407
G1 X-14.397 Y8.317 E3.7105
G1 X-14.227 Y9.252 E3.7803
G1 X-13.946 Y10.159 E3.8501
G1 X-13.559 Y11.026 E3.9200
G1 X-13.071 Y11.841 E3.9898
