; G-Code generated by Simplify3D(R) Version 3.1.1
; Mar 10, 2017 at 4:51:42 PM
; Settings Summary
;   processName,Process1
;   applyToModels,CutterRack,CutterRodMountTop,CutterRodMountTop(2)
;   profileName,Kossel Mini (modified)
;   profileVersion,2017-03-09 09:09:04
;   baseProfile,
;   printMaterial,PLA+
;   printQuality,Medium
;   printExtruders,
;   extruderName,Primary Extruder
;   extruderToolheadNumber,0
;   extruderDiameter,0.4
;   extruderAutoWidth,1
;   extruderWidth,0.48
;   extrusionMultiplier,1
;   extruderUseRetract,1
;   extruderRetractionDistance,4
;   extruderExtraRestartDistance,0
;   extruderRetractionZLift,0.1
;   extruderRetractionSpeed,3600
;   extruderUseCoasting,0
;   extruderCoastingDistance,5
;   extruderUseWipe,1
;   extruderWipeDistance,2
;   primaryExtruder,0
;   layerHeight,0.2
;   topSolidLayers,3
;   bottomSolidLayers,3
;   perimeterOutlines,3
;   printPerimetersInsideOut,1
;   startPointOption,2
;   startPointOriginX,0
;   startPointOriginY,0
;   startPointOriginZ,300
;   sequentialIslands,0
;   spiralVaseMode,0
;   firstLayerHeightPercentage,80
;   firstLayerWidthPercentage,120
;   firstLayerUnderspeed,0.5
;   useRaft,0
;   raftExtruder,0
;   raftLayers,3
;   raftOffset,3
;   raftSeparationDistance,0.14
;   raftInfill,85
;   disableRaftBaseLayers,0
;   useSkirt,1
;   skirtExtruder,0
;   skirtLayers,1
;   skirtOutlines,1
;   skirtOffset,4
;   usePrimePillar,0
;   primePillarExtruder,999
;   primePillarWidth,12
;   primePillarLocation,7
;   primePillarSpeedMultiplier,1
;   useOozeShield,0
;   oozeShieldExtruder,999
;   oozeShieldOffset,2
;   oozeShieldOutlines,1
;   oozeShieldSidewallShape,1
;   oozeShieldSidewallAngle,30
;   oozeShieldSpeedMultiplier,1
;   infillExtruder,0
;   internalInfillPattern,Rectilinear
;   externalInfillPattern,Rectilinear
;   infillPercentage,50
;   outlineOverlapPercentage,30
;   infillExtrusionWidthPercentage,110
;   minInfillLength,2
;   infillLayerInterval,1
;   infillAngles,45,-45
;   overlapInfillAngles,0
;   generateSupport,1
;   supportExtruder,0
;   supportInfillPercentage,30
;   supportExtraInflation,0
;   denseSupportLayers,0
;   denseSupportInfillPercentage,70
;   supportLayerInterval,1
;   supportHorizontalPartOffset,0.3
;   supportUpperSeparationLayers,1
;   supportLowerSeparationLayers,1
;   supportType,0
;   supportGridSpacing,4
;   maxOverhangAngle,45
;   supportAngles,0
;   temperatureName,Primary Extruder,Heated Bed
;   temperatureNumber,0,1
;   temperatureSetpointCount,2,3
;   temperatureSetpointLayers,1,2,1,2,3
;   temperatureSetpointTemperatures,230,225,70,65,60
;   temperatureStabilizeAtStartup,1,1
;   temperatureHeatedBed,0,1
;   temperatureRelayBetweenLayers,0,0
;   temperatureRelayBetweenLoops,0,0
;   fanLayers,1,2,3
;   fanSpeeds,0,50,100
;   blipFanToFullPower,1
;   adjustSpeedForCooling,1
;   minSpeedLayerTime,15
;   minCoolingSpeedSlowdown,20
;   increaseFanForCooling,0
;   minFanLayerTime,60
;   maxCoolingFanSpeed,100
;   increaseFanForBridging,1
;   bridgingFanSpeed,100
;   use5D,1
;   relativeEdistances,0
;   allowEaxisZeroing,1
;   independentExtruderAxes,0
;   includeM10123,0
;   stickySupport,1
;   applyToolheadOffsets,0
;   gcodeXoffset,0
;   gcodeYoffset,0
;   gcodeZoffset,0
;   overrideMachineDefinition,1
;   machineTypeOverride,1
;   strokeXoverride,190
;   strokeYoverride,190
;   strokeZoverride,204.4
;   originOffsetXoverride,95
;   originOffsetYoverride,95
;   originOffsetZoverride,0
;   homeXdirOverride,0
;   homeYdirOverride,0
;   homeZdirOverride,1
;   flipXoverride,1
;   flipYoverride,-1
;   flipZoverride,1
;   toolheadOffsets,0,0|0,0|0,0|0,0|0,0|0,0
;   overrideFirmwareConfiguration,1
;   firmwareTypeOverride,RepRap (Marlin/Repetier/Sprinter)
;   GPXconfigOverride,r2
;   baudRateOverride,115200
;   overridePrinterModels,1
;   printerModelsOverride
;   startingGcode,G28 ; home all axes
;   layerChangeGcode,
;   retractionGcode,
;   toolChangeGcode,
;   endingGcode,M104 S0 ; turn off extruder,M140 S0 ; turn off bed,M107 ; turn off cooling fan,G28 ; home axes,M84 ; disable motors
;   exportFileFormat,gcode
;   celebration,0
;   celebrationSong,Random Song
;   postProcessing,
;   defaultSpeed,3600
;   outlineUnderspeed,0.5
;   solidInfillUnderspeed,0.8
;   supportUnderspeed,0.8
;   rapidXYspeed,6000
;   rapidZspeed,1200
;   minBridgingArea,50
;   bridgingExtraInflation,0
;   bridgingExtrusionMultiplier,0.95
;   bridgingSpeedMultiplier,0.7
;   filamentDiameter,1.73
;   filamentPricePerKg,25
;   filamentDensity,1.25
;   useMinPrintHeight,0
;   minPrintHeight,0
;   useMaxPrintHeight,0
;   maxPrintHeight,10
;   useDiaphragm,0
;   diaphragmLayerInterval,20
;   robustSlicing,1
;   mergeAllIntoSolid,0
;   onlyRetractWhenCrossingOutline,1
;   retractBetweenLayers,1
;   useRetractionMinTravel,0
;   retractionMinTravel,3
;   retractWhileWiping,0
;   onlyWipeOutlines,1
;   avoidCrossingOutline,0
;   maxMovementDetourFactor,3
;   toolChangeRetractionDistance,12
;   toolChangeExtraRestartDistance,-0.5
;   toolChangeRetractionSpeed,600
;   allowThinWallGapFill,1
;   thinWallAllowedOverlapPercentage,10
;   horizontalSizeCompensation,0
G90
M82
M106 S0
M140 S70
M190 S70
M104 S230 T0
M109 S230 T0
G28 ; home all axes
G92 E0
G1 E-4.0000 F3600
G1 Z0.260 F1200
; layer 1, Z = 0.16
T0
; tool H0.200 W0.576
; skirt
G1 X34.588 Y-10.531 F6000
G1 Z0.160 F1200
G1 E0.0000 F1080
G92 E0
G1 X42.468 Y9.168 E1.0398 F1800
G1 X42.475 Y9.190 E1.0409
G1 X42.623 Y9.962 E1.0794
G1 X42.625 Y9.985 E1.0806
G1 X42.625 Y31.460 E2.1330
G1 X42.616 Y31.506 E2.1353
G1 X41.989 Y33.020 E2.2156
G1 X41.963 Y33.060 E2.2180
G1 X35.804 Y39.218 E2.6448
G1 X35.765 Y39.244 E2.6471
G1 X34.251 Y39.871 E2.7274
G1 X34.205 Y39.881 E2.7297
G1 X-12.819 Y39.881 E5.0343
G1 X-12.907 Y39.844 E5.0390
G1 X-13.681 Y39.071 E5.0926
G1 X-14.230 Y39.271 E5.1212
G1 X-13.444 Y39.556 E5.1622
G1 X-13.386 Y39.601 E5.1658
G1 X-11.897 Y41.728 E5.2930
G1 X-11.875 Y41.798 E5.2966
G1 X-11.875 Y47.963 E5.5987
G1 X-11.897 Y48.033 E5.6023
G1 X-13.386 Y50.160 E5.7296
G1 X-13.445 Y50.205 E5.7332
G1 X-14.230 Y50.491 E5.7741
G1 X-13.444 Y50.776 E5.8151
G1 X-13.386 Y50.821 E5.8187
G1 X-11.897 Y52.948 E5.9459
G1 X-11.875 Y53.018 E5.9496
G1 X-11.875 Y59.183 E6.2517
G1 X-11.897 Y59.253 E6.2553
G1 X-13.386 Y61.380 E6.3825
G1 X-13.445 Y61.425 E6.3861
G1 X-20.499 Y63.992 E6.7541
G1 X-20.520 Y63.998 E6.7551
G1 X-21.229 Y64.123 E6.7904
G1 X-21.250 Y64.124 E6.7914
G1 X-40.090 Y64.124 E7.7147
G1 X-40.178 Y64.088 E7.7194
G1 X-42.589 Y61.677 E7.8865
G1 X-42.625 Y61.589 E7.8912
G1 X-42.625 Y-61.589 E13.9279
G1 X-42.589 Y-61.677 E13.9326
G1 X-40.178 Y-64.088 E14.0997
G1 X-40.090 Y-64.124 E14.1044
G1 X-21.250 Y-64.124 E15.0277
G1 X-21.229 Y-64.123 E15.0287
G1 X-20.519 Y-63.997 E15.0641
G1 X-20.499 Y-63.992 E15.0651
G1 X-13.444 Y-61.424 E15.4330
G1 X-13.386 Y-61.379 E15.4366
G1 X-11.897 Y-59.252 E15.5639
G1 X-11.875 Y-59.182 E15.5675
G1 X-11.875 Y-53.017 E15.8696
G1 X-11.897 Y-52.947 E15.8732
G1 X-13.386 Y-50.820 E16.0004
G1 X-13.444 Y-50.775 E16.0040
G1 X-14.230 Y-50.489 E16.0450
G1 X-13.444 Y-50.204 E16.0860
G1 X-13.386 Y-50.159 E16.0896
G1 X-12.662 Y-49.124 E16.1515
G1 X-5.913 Y-49.124 E16.4822
G1 X7.919 Y-63.433 E17.4575
G1 X7.959 Y-63.461 E17.4599
G1 X9.501 Y-64.115 E17.5420
G1 X9.548 Y-64.124 E17.5444
G1 X31.648 Y-64.124 E18.6274
G1 X31.717 Y-64.103 E18.6310
G1 X33.808 Y-62.688 E18.7547
G1 X33.853 Y-62.632 E18.7583
G1 X42.468 Y-41.094 E19.8951
G1 X42.475 Y-41.072 E19.8962
G1 X42.623 Y-40.300 E19.9347
G1 X42.625 Y-40.278 E19.9358
G1 X42.625 Y-18.803 E20.9883
G1 X42.616 Y-18.756 E20.9906
G1 X41.989 Y-17.242 E21.0709
G1 X41.963 Y-17.203 E21.0732
G1 X35.804 Y-11.044 E21.5001
G1 X35.765 Y-11.018 E21.5024
G1 X34.588 Y-10.531 E21.5648
G92 E0
G1 E-4.0000 F3600
G1 Z0.260 F1200
; inner perimeter
G1 X32.789 Y-16.062 F6000
G1 Z0.160 F1200
G1 E0.0000 F3600
G92 E0
G1 X-2.675 Y-16.062 E1.7380 F1500
G1 X-2.675 Y-24.427 E2.1480
G1 X-1.955 Y-24.671 E2.1852
G1 X-1.293 Y-24.997 E2.2214
G1 X-0.679 Y-25.408 E2.2576
G1 X-0.120 Y-25.899 E2.2940
G1 X0.366 Y-26.454 E2.3302
G1 X0.775 Y-27.068 E2.3664
G1 X1.101 Y-27.731 E2.4025
G1 X1.337 Y-28.430 E2.4387
G1 X1.481 Y-29.154 E2.4749
G1 X1.528 Y-29.890 E2.5111
G1 X1.479 Y-30.627 E2.5472
G1 X1.334 Y-31.351 E2.5834
G1 X1.096 Y-32.049 E2.6196
G1 X0.769 Y-32.711 E2.6557
G1 X0.359 Y-33.324 E2.6919
G1 X-0.124 Y-33.875 E2.7278
G1 X-0.679 Y-34.361 E2.7640
G1 X-1.293 Y-34.772 E2.8002
G1 X-1.955 Y-35.098 E2.8363
G1 X-2.675 Y-35.342 E2.8736
G1 X-2.675 Y-44.302 E3.3127
G1 X10.996 Y-58.444 E4.2767
G1 X29.410 Y-58.444 E5.1791
G1 X36.945 Y-39.607 E6.1734
G1 X36.945 Y-30.088 E6.6399
G1 X36.515 Y-30.060 E6.6611
G1 X36.430 Y-30.700 E6.6927
G1 X36.116 Y-31.461 E6.7331
G1 X35.614 Y-32.114 E6.7734
G1 X34.962 Y-32.615 E6.8137
G1 X34.201 Y-32.929 E6.8541
G1 X33.385 Y-33.037 E6.8944
G1 X32.569 Y-32.929 E6.9347
G1 X31.809 Y-32.615 E6.9751
G1 X31.156 Y-32.114 E7.0154
G1 X30.655 Y-31.461 E7.0557
G1 X30.340 Y-30.700 E7.0961
G1 X30.233 Y-29.884 E7.1364
G1 X30.340 Y-29.069 E7.1767
G1 X30.655 Y-28.308 E7.2170
G1 X31.156 Y-27.655 E7.2574
G1 X31.809 Y-27.154 E7.2977
G1 X32.569 Y-26.839 E7.3380
G1 X33.385 Y-26.732 E7.3784
G1 X34.201 Y-26.839 E7.4187
G1 X34.962 Y-27.154 E7.4590
G1 X35.614 Y-27.655 E7.4994
G1 X36.116 Y-28.308 E7.5397
G1 X36.430 Y-29.069 E7.5800
G1 X36.515 Y-29.709 E7.6117
G1 X36.945 Y-29.681 E7.6328
G1 X36.945 Y-20.218 E8.0966
G1 X32.789 Y-16.062 E8.3847
; inner perimeter
G1 X33.028 Y-15.486 F6000
G92 E0
G1 X-3.251 Y-15.486 E1.7779 F1200
G1 X-3.251 Y-24.902 E2.2394
G1 X-2.803 Y-24.991 E2.2618
G1 X-2.176 Y-25.204 E2.2942
G1 X-1.582 Y-25.497 E2.3267
G1 X-1.030 Y-25.866 E2.3592
G1 X-0.529 Y-26.306 E2.3919
G1 X-0.093 Y-26.805 E2.4244
G1 X0.275 Y-27.356 E2.4569
G1 X0.567 Y-27.951 E2.4893
G1 X0.780 Y-28.579 E2.5218
G1 X0.908 Y-29.229 E2.5543
G1 X0.951 Y-29.890 E2.5868
G1 X0.907 Y-30.551 E2.6192
G1 X0.777 Y-31.201 E2.6517
G1 X0.563 Y-31.828 E2.6842
G1 X0.270 Y-32.422 E2.7166
G1 X-0.099 Y-32.972 E2.7491
G1 X-0.532 Y-33.467 E2.7813
G1 X-1.031 Y-33.903 E2.8138
G1 X-1.582 Y-34.272 E2.8463
G1 X-2.176 Y-34.565 E2.8788
G1 X-2.803 Y-34.778 E2.9112
G1 X-3.251 Y-34.867 E2.9336
G1 X-3.251 Y-44.535 E3.4074
G1 X10.752 Y-59.020 E4.3948
G1 X29.800 Y-59.020 E5.3283
G1 X37.521 Y-39.718 E6.3472
G1 X37.521 Y-19.980 E7.3145
G1 X33.028 Y-15.486 E7.6260
; outer perimeter
G1 X33.266 Y-14.910 F6000
G92 E0
G1 X-3.827 Y-14.910 E1.8179 F900
G1 X-3.827 Y-25.415 E2.3327
G1 X-3.529 Y-25.434 E2.3473
G1 X-2.953 Y-25.549 E2.3761
G1 X-2.397 Y-25.738 E2.4049
G1 X-1.870 Y-25.997 E2.4336
G1 X-1.382 Y-26.324 E2.4624
G1 X-0.938 Y-26.714 E2.4914
G1 X-0.551 Y-27.156 E2.5202
G1 X-0.225 Y-27.644 E2.5490
G1 X0.034 Y-28.171 E2.5777
G1 X0.222 Y-28.727 E2.6065
G1 X0.336 Y-29.303 E2.6353
G1 X0.374 Y-29.889 E2.6640
G1 X0.335 Y-30.475 E2.6928
G1 X0.220 Y-31.051 E2.7216
G1 X0.030 Y-31.606 E2.7504
G1 X-0.230 Y-32.133 E2.7791
G1 X-0.557 Y-32.620 E2.8079
G1 X-0.941 Y-33.058 E2.8365
G1 X-1.382 Y-33.446 E2.8652
G1 X-1.870 Y-33.772 E2.8940
G1 X-2.397 Y-34.031 E2.9228
G1 X-2.953 Y-34.220 E2.9516
G1 X-3.529 Y-34.335 E2.9803
G1 X-3.827 Y-34.354 E2.9950
G1 X-3.827 Y-44.768 E3.5053
G1 X10.508 Y-59.596 E4.5161
G1 X30.190 Y-59.596 E5.4807
G1 X38.097 Y-39.829 E6.5241
G1 X38.097 Y-19.741 E7.5086
G1 X33.266 Y-14.910 E7.8434
G1 X31.266 Y-14.910 F3600
; inner perimeter
; inner perimeter
G1 X33.385 Y-27.313 F6000
G92 E0
G1 X34.051 Y-27.401 E0.0329 F1200
G1 X34.671 Y-27.658 E0.0658
G1 X35.204 Y-28.066 E0.0987
G1 X35.612 Y-28.599 E0.1316
G1 X35.869 Y-29.219 E0.1645
G1 X35.957 Y-29.884 E0.1974
G1 X35.869 Y-30.550 E0.2303
G1 X35.612 Y-31.170 E0.2632
G1 X35.204 Y-31.703 E0.2961
G1 X34.671 Y-32.111 E0.3290
G1 X34.051 Y-32.368 E0.3619
G1 X33.385 Y-32.456 E0.3948
G1 X32.720 Y-32.368 E0.4277
G1 X32.100 Y-32.111 E0.4606
G1 X31.567 Y-31.703 E0.4935
G1 X31.158 Y-31.170 E0.5264
G1 X30.902 Y-30.550 E0.5593
G1 X30.814 Y-29.884 E0.5922
G1 X30.902 Y-29.219 E0.6251
G1 X31.158 Y-28.599 E0.6580
G1 X31.567 Y-28.066 E0.6909
G1 X32.100 Y-27.658 E0.7238
G1 X32.720 Y-27.401 E0.7567
G1 X33.385 Y-27.313 E0.7896
; outer perimeter
G1 X33.385 Y-27.894 F6000
G92 E0
G1 X33.901 Y-27.962 E0.0255 F900
G1 X34.381 Y-28.161 E0.0509
G1 X34.793 Y-28.477 E0.0764
G1 X35.109 Y-28.889 E0.1019
G1 X35.308 Y-29.369 E0.1273
G1 X35.376 Y-29.884 E0.1528
G1 X35.308 Y-30.400 E0.1783
G1 X35.109 Y-30.880 E0.2037
G1 X34.793 Y-31.292 E0.2292
G1 X34.381 Y-31.608 E0.2547
G1 X33.901 Y-31.807 E0.2801
G1 X33.385 Y-31.875 E0.3056
G1 X32.870 Y-31.807 E0.3311
G1 X32.390 Y-31.608 E0.3565
G1 X31.978 Y-31.292 E0.3820
G1 X31.662 Y-30.880 E0.4075
G1 X31.463 Y-30.400 E0.4329
G1 X31.395 Y-29.884 E0.4584
G1 X31.463 Y-29.369 E0.4838
G1 X31.662 Y-28.889 E0.5093
G1 X31.978 Y-28.477 E0.5348
G1 X32.390 Y-28.161 E0.5602
G1 X32.870 Y-27.962 E0.5857
G1 X33.385 Y-27.894 E0.6112
G92 E0
G1 E-4.0000 F3600
G1 X33.901 Y-27.962 F3600
G1 X34.381 Y-28.161 F3600
G1 X34.793 Y-28.477 F3600
G1 X35.061 Y-28.827 F3600
G1 Z0.260 F1200
; inner perimeter
G1 X20.614 Y-27.655 F6000
G1 Z0.160 F1200
G1 E0.0000 F3600
G92 E0
G1 X21.115 Y-28.308 E0.0403 F1500
G1 X21.430 Y-29.069 E0.0807
G1 X21.538 Y-29.884 E0.1210
G1 X21.430 Y-30.700 E0.1613
G1 X21.115 Y-31.461 E0.2017
G1 X20.614 Y-32.114 E0.2420
G1 X19.962 Y-32.615 E0.2823
G1 X19.201 Y-32.929 E0.3227
G1 X18.385 Y-33.037 E0.3630
G1 X17.569 Y-32.929 E0.4033
G1 X16.809 Y-32.615 E0.4436
G1 X16.156 Y-32.114 E0.4840
G1 X15.655 Y-31.461 E0.5243
G1 X15.340 Y-30.700 E0.5646
G1 X15.233 Y-29.884 E0.6050
G1 X15.340 Y-29.069 E0.6453
G1 X15.655 Y-28.308 E0.6856
G1 X16.156 Y-27.655 E0.7260
G1 X16.809 Y-27.154 E0.7663
G1 X17.570 Y-26.839 E0.8066
G1 X18.385 Y-26.732 E0.8470
G1 X19.201 Y-26.839 E0.8873
G1 X19.962 Y-27.154 E0.9276
G1 X20.614 Y-27.655 E0.9680
; inner perimeter
G1 X20.204 Y-28.066 F6000
G92 E0
G1 X20.612 Y-28.599 E0.0329 F1200
G1 X20.869 Y-29.219 E0.0658
G1 X20.957 Y-29.884 E0.0987
G1 X20.869 Y-30.550 E0.1316
G1 X20.612 Y-31.170 E0.1645
G1 X20.204 Y-31.703 E0.1974
G1 X19.671 Y-32.111 E0.2303
G1 X19.051 Y-32.368 E0.2632
G1 X18.385 Y-32.456 E0.2961
G1 X17.720 Y-32.368 E0.3290
G1 X17.100 Y-32.111 E0.3619
G1 X16.567 Y-31.703 E0.3948
G1 X16.158 Y-31.170 E0.4277
G1 X15.902 Y-30.550 E0.4606
G1 X15.814 Y-29.884 E0.4935
G1 X15.902 Y-29.219 E0.5264
G1 X16.158 Y-28.599 E0.5593
G1 X16.567 Y-28.066 E0.5922
G1 X17.100 Y-27.658 E0.6251
G1 X17.720 Y-27.401 E0.6580
G1 X18.385 Y-27.313 E0.6909
G1 X19.051 Y-27.401 E0.7238
G1 X19.671 Y-27.658 E0.7567
G1 X20.204 Y-28.066 E0.7896
; outer perimeter
G1 X19.793 Y-28.477 F6000
G92 E0
G1 X20.109 Y-28.889 E0.0255 F900
G1 X20.308 Y-29.369 E0.0509
G1 X20.376 Y-29.884 E0.0764
G1 X20.308 Y-30.400 E0.1019
G1 X20.109 Y-30.880 E0.1273
G1 X19.793 Y-31.292 E0.1528
G1 X19.381 Y-31.608 E0.1783
G1 X18.901 Y-31.807 E0.2037
G1 X18.385 Y-31.875 E0.2292
G1 X17.870 Y-31.807 E0.2547
G1 X17.390 Y-31.608 E0.2801
G1 X16.978 Y-31.292 E0.3056
G1 X16.662 Y-30.880 E0.3311
G1 X16.463 Y-30.400 E0.3565
G1 X16.395 Y-29.884 E0.3820
G1 X16.463 Y-29.369 E0.4075
G1 X16.662 Y-28.889 E0.4329
G1 X16.978 Y-28.477 E0.4584
G1 X17.390 Y-28.161 E0.4839
G1 X17.870 Y-27.962 E0.5093
G1 X18.385 Y-27.894 E0.5348
G1 X18.901 Y-27.962 E0.5602
G1 X19.381 Y-28.161 E0.5857
G1 X19.793 Y-28.477 E0.6112
G1 X20.109 Y-28.889 F3600
G1 X20.308 Y-29.369 F3600
G1 X20.376 Y-29.884 F3600
G1 X20.318 Y-30.322 F3600
; inner perimeter
G1 X21.201 Y-46.839 F6000
G92 E0
G1 X21.962 Y-47.154 E0.0403 F1500
G1 X22.614 Y-47.655 E0.0807
G1 X23.115 Y-48.308 E0.1210
G1 X23.430 Y-49.069 E0.1613
G1 X23.538 Y-49.884 E0.2017
G1 X23.430 Y-50.700 E0.2420
G1 X23.115 Y-51.461 E0.2823
G1 X22.614 Y-52.114 E0.3227
G1 X21.962 Y-52.615 E0.3630
G1 X21.201 Y-52.929 E0.4033
G1 X20.385 Y-53.037 E0.4436
G1 X19.570 Y-52.929 E0.4840
G1 X18.809 Y-52.615 E0.5243
G1 X18.156 Y-52.114 E0.5646
G1 X17.655 Y-51.461 E0.6050
G1 X17.340 Y-50.700 E0.6453
G1 X17.233 Y-49.884 E0.6856
G1 X17.340 Y-49.069 E0.7260
G1 X17.655 Y-48.308 E0.7663
G1 X18.156 Y-47.655 E0.8066
G1 X18.809 Y-47.154 E0.8470
G1 X19.569 Y-46.839 E0.8873
G1 X20.385 Y-46.732 E0.9276
G1 X21.201 Y-46.839 E0.9680
; inner perimeter
G1 X21.051 Y-47.401 F6000
G92 E0
G1 X21.671 Y-47.658 E0.0329 F1200
G1 X22.204 Y-48.066 E0.0658
