; G-Code generated by Simplify3D(R) Version 3.1.1
; Mar 10, 2017 at 5:00:37 PM
; Settings Summary
;   processName,Process1
;   applyToModels,CutterBearingClampRight,CutterClampLeft,CutterClampRight,CutterRodClampBottom,CutterRodMountBottom,CutterRodClampBottom(2),CutterRodMountBottom(2)
;   profileName,Kossel Mini (modified)
;   profileVersion,2017-03-09 09:09:04
;   baseProfile,
;   printMaterial,PLA+
;   printQuality,Medium
;   printExtruders,
;   extruderName,Primary Extruder
;   extruderToolheadNumber,0
;   extruderDiameter,0.4
;   extruderAutoWidth,1
;   extruderWidth,0.48
;   extrusionMultiplier,1
;   extruderUseRetract,1
;   extruderRetractionDistance,4
;   extruderExtraRestartDistance,0
;   extruderRetractionZLift,0.1
;   extruderRetractionSpeed,3600
;   extruderUseCoasting,0
;   extruderCoastingDistance,5
;   extruderUseWipe,1
;   extruderWipeDistance,2
;   primaryExtruder,0
;   layerHeight,0.3
;   topSolidLayers,3
;   bottomSolidLayers,3
;   perimeterOutlines,3
;   printPerimetersInsideOut,1
;   startPointOption,2
;   startPointOriginX,0
;   startPointOriginY,0
;   startPointOriginZ,300
;   sequentialIslands,0
;   spiralVaseMode,0
;   firstLayerHeightPercentage,80
;   firstLayerWidthPercentage,120
;   firstLayerUnderspeed,0.5
;   useRaft,0
;   raftExtruder,0
;   raftLayers,3
;   raftOffset,3
;   raftSeparationDistance,0.14
;   raftInfill,85
;   disableRaftBaseLayers,0
;   useSkirt,1
;   skirtExtruder,0
;   skirtLayers,1
;   skirtOutlines,1
;   skirtOffset,4
;   usePrimePillar,0
;   primePillarExtruder,999
;   primePillarWidth,12
;   primePillarLocation,7
;   primePillarSpeedMultiplier,1
;   useOozeShield,0
;   oozeShieldExtruder,999
;   oozeShieldOffset,2
;   oozeShieldOutlines,1
;   oozeShieldSidewallShape,1
;   oozeShieldSidewallAngle,30
;   oozeShieldSpeedMultiplier,1
;   infillExtruder,0
;   internalInfillPattern,Rectilinear
;   externalInfillPattern,Rectilinear
;   infillPercentage,40
;   outlineOverlapPercentage,30
;   infillExtrusionWidthPercentage,110
;   minInfillLength,2
;   infillLayerInterval,1
;   infillAngles,45,-45
;   overlapInfillAngles,0
;   generateSupport,0
;   supportExtruder,0
;   supportInfillPercentage,30
;   supportExtraInflation,0
;   denseSupportLayers,0
;   denseSupportInfillPercentage,70
;   supportLayerInterval,1
;   supportHorizontalPartOffset,0.3
;   supportUpperSeparationLayers,1
;   supportLowerSeparationLayers,1
;   supportType,0
;   supportGridSpacing,4
;   maxOverhangAngle,45
;   supportAngles,0
;   temperatureName,Primary Extruder,Heated Bed
;   temperatureNumber,0,1
;   temperatureSetpointCount,2,3
;   temperatureSetpointLayers,1,2,1,2,3
;   temperatureSetpointTemperatures,230,225,70,65,60
;   temperatureStabilizeAtStartup,1,1
;   temperatureHeatedBed,0,1
;   temperatureRelayBetweenLayers,0,0
;   temperatureRelayBetweenLoops,0,0
;   fanLayers,1,2,3
;   fanSpeeds,0,50,100
;   blipFanToFullPower,1
;   adjustSpeedForCooling,1
;   minSpeedLayerTime,15
;   minCoolingSpeedSlowdown,20
;   increaseFanForCooling,0
;   minFanLayerTime,60
;   maxCoolingFanSpeed,100
;   increaseFanForBridging,1
;   bridgingFanSpeed,100
;   use5D,1
;   relativeEdistances,0
;   allowEaxisZeroing,1
;   independentExtruderAxes,0
;   includeM10123,0
;   stickySupport,1
;   applyToolheadOffsets,0
;   gcodeXoffset,0
;   gcodeYoffset,0
;   gcodeZoffset,0
;   overrideMachineDefinition,1
;   machineTypeOverride,1
;   strokeXoverride,190
;   strokeYoverride,190
;   strokeZoverride,204.4
;   originOffsetXoverride,95
;   originOffsetYoverride,95
;   originOffsetZoverride,0
;   homeXdirOverride,0
;   homeYdirOverride,0
;   homeZdirOverride,1
;   flipXoverride,1
;   flipYoverride,-1
;   flipZoverride,1
;   toolheadOffsets,0,0|0,0|0,0|0,0|0,0|0,0
;   overrideFirmwareConfiguration,1
;   firmwareTypeOverride,RepRap (Marlin/Repetier/Sprinter)
;   GPXconfigOverride,r2
;   baudRateOverride,115200
;   overridePrinterModels,1
;   printerModelsOverride
;   startingGcode,G28 ; home all axes
;   layerChangeGcode,
;   retractionGcode,
;   toolChangeGcode,
;   endingGcode,M104 S0 ; turn off extruder,M140 S0 ; turn off bed,M107 ; turn off cooling fan,G28 ; home axes,M84 ; disable motors
;   exportFileFormat,gcode
;   celebration,0
;   celebrationSong,Random Song
;   postProcessing,
;   defaultSpeed,3600
;   outlineUnderspeed,0.5
;   solidInfillUnderspeed,0.8
;   supportUnderspeed,0.8
;   rapidXYspeed,6000
;   rapidZspeed,1200
;   minBridgingArea,50
;   bridgingExtraInflation,0
;   bridgingExtrusionMultiplier,0.95
;   bridgingSpeedMultiplier,0.7
;   filamentDiameter,1.73
;   filamentPricePerKg,25
;   filamentDensity,1.25
;   useMinPrintHeight,0
;   minPrintHeight,0
;   useMaxPrintHeight,0
;   maxPrintHeight,10
;   useDiaphragm,0
;   diaphragmLayerInterval,20
;   robustSlicing,1
;   mergeAllIntoSolid,0
;   onlyRetractWhenCrossingOutline,1
;   retractBetweenLayers,1
;   useRetractionMinTravel,0
;   retractionMinTravel,3
;   retractWhileWiping,0
;   onlyWipeOutlines,1
;   avoidCrossingOutline,0
;   maxMovementDetourFactor,3
;   toolChangeRetractionDistance,12
;   toolChangeExtraRestartDistance,-0.5
;   toolChangeRetractionSpeed,600
;   allowThinWallGapFill,1
;   thinWallAllowedOverlapPercentage,10
;   horizontalSizeCompensation,0
G90
M82
M106 S0
M140 S70
M190 S70
M104 S230 T0
M109 S230 T0
G28 ; home all axes
G92 E0
G1 E-4.0000 F3600
G1 Z0.340 F1200
; layer 1, Z = 0.24
T0
; tool H0.300 W0.576
; skirt
G1 X25.064 Y-5.179 F6000
G1 Z0.240 F1200
G1 E0.0000 F1080
G92 E0
G1 X26.081 Y-4.161 E0.1058 F1800
G1 X26.118 Y-4.073 E0.1128
G1 X26.118 Y19.018 E1.8103
G1 X27.946 Y20.846 E2.0003
G1 X27.982 Y20.934 E2.0073
G1 X27.982 Y44.343 E3.7282
G1 X27.946 Y44.431 E3.7352
G1 X25.535 Y46.842 E3.9858
G1 X25.447 Y46.878 E3.9928
G1 X-7.963 Y46.878 E6.4488
G1 X-8.051 Y46.842 E6.4558
G1 X-8.758 Y46.135 E6.5293
G1 X-9.465 Y46.842 E6.6029
G1 X-9.553 Y46.878 E6.6099
G1 X-42.963 Y46.878 E9.0659
G1 X-43.051 Y46.842 E9.0729
G1 X-45.461 Y44.431 E9.3235
G1 X-45.498 Y44.343 E9.3305
G1 X-45.498 Y20.934 E11.0514
G1 X-45.461 Y20.846 E11.0584
G1 X-44.743 Y20.127 E11.1331
G1 X-44.827 Y20.043 E11.1418
G1 X-44.854 Y20.004 E11.1453
G1 X-45.481 Y18.490 E11.2658
G1 X-45.490 Y18.444 E11.2692
G1 X-45.494 Y-38.458 E15.4522
G1 X-45.484 Y-38.504 E15.4557
G1 X-44.857 Y-40.019 E15.5762
G1 X-44.830 Y-40.058 E15.5797
G1 X-38.667 Y-46.216 E16.2202
G1 X-38.628 Y-46.243 E16.2236
G1 X-37.115 Y-46.869 E16.3440
G1 X-37.068 Y-46.878 E16.3475
G1 X-26.053 Y-46.878 E17.1573
G1 X-25.964 Y-46.841 E17.1643
G1 X-23.554 Y-44.431 E17.4149
G1 X-23.517 Y-44.342 E17.4220
G1 X-23.517 Y-21.878 E19.0734
G1 X-20.483 Y-21.878 E19.2964
G1 X-20.482 Y-38.448 E20.5146
G1 X-20.473 Y-38.494 E20.5180
G1 X-19.846 Y-40.008 E20.6385
G1 X-19.820 Y-40.047 E20.6420
G1 X-13.661 Y-46.205 E21.2822
G1 X-13.622 Y-46.232 E21.2857
G1 X-12.110 Y-46.859 E21.4060
G1 X-12.063 Y-46.868 E21.4095
G1 X5.448 Y-46.879 E22.6968
G1 X5.537 Y-46.843 E22.7038
G1 X6.251 Y-46.128 E22.7781
G1 X6.965 Y-46.842 E22.8524
G1 X7.053 Y-46.878 E22.8594
G1 X17.077 Y-46.878 E23.5963
G1 X17.124 Y-46.869 E23.5997
G1 X18.637 Y-46.242 E23.7202
G1 X18.677 Y-46.216 E23.7237
G1 X23.898 Y-40.995 E24.2665
G1 X23.898 Y-44.343 E24.5126
G1 X23.934 Y-44.431 E24.5196
G1 X26.345 Y-46.842 E24.7702
G1 X26.433 Y-46.878 E24.7773
G1 X41.083 Y-46.878 E25.8542
G1 X41.171 Y-46.842 E25.8612
G1 X43.581 Y-44.431 E26.1118
G1 X43.618 Y-44.343 E26.1188
G1 X43.618 Y-20.934 E27.8397
G1 X43.581 Y-20.846 E27.8467
G1 X41.171 Y-18.435 E28.0973
G1 X41.083 Y-18.398 E28.1043
G1 X26.433 Y-18.398 E29.1812
G1 X26.345 Y-18.435 E29.1883
G1 X25.498 Y-19.282 E29.2763
G1 X25.498 Y-5.664 E30.2774
G1 X25.461 Y-5.576 E30.2845
G1 X25.064 Y-5.179 E30.3257
G92 E0
G1 E-4.0000 F3600
G1 Z0.340 F1200
; inner perimeter
G1 X20.438 Y-0.929 F6000
G1 Z0.240 F1200
G1 E0.0000 F3600
G92 E0
G1 X20.438 Y16.191 E1.2585 F1500
G1 X19.036 Y16.191 E1.3616
G1 X19.303 Y15.547 E1.4128
G1 X19.410 Y14.731 E1.4733
G1 X19.303 Y13.915 E1.5338
G1 X18.988 Y13.155 E1.5943
G1 X18.487 Y12.502 E1.6548
G1 X17.834 Y12.001 E1.7153
G1 X17.074 Y11.686 E1.7758
G1 X16.258 Y11.579 E1.8363
G1 X15.442 Y11.686 E1.8968
G1 X14.682 Y12.001 E1.9573
G1 X14.029 Y12.502 E2.0178
G1 X13.528 Y13.155 E2.0783
G1 X13.213 Y13.915 E2.1388
G1 X13.106 Y14.731 E2.1993
G1 X13.213 Y15.547 E2.2598
G1 X13.480 Y16.191 E2.3110
G1 X12.078 Y16.191 E2.4141
G1 X12.078 Y-0.929 E3.6726
G1 X13.480 Y-0.929 E3.7757
G1 X13.213 Y-0.285 E3.8269
G1 X13.106 Y0.531 E3.8874
G1 X13.213 Y1.347 E3.9479
G1 X13.528 Y2.108 E4.0084
G1 X14.029 Y2.760 E4.0689
G1 X14.682 Y3.261 E4.1294
G1 X15.442 Y3.576 E4.1899
G1 X16.258 Y3.684 E4.2504
G1 X17.074 Y3.576 E4.3109
G1 X17.834 Y3.261 E4.3714
G1 X18.487 Y2.760 E4.4319
G1 X18.988 Y2.108 E4.4924
G1 X19.303 Y1.347 E4.5529
G1 X19.410 Y0.531 E4.6134
G1 X19.303 Y-0.285 E4.6739
G1 X19.036 Y-0.929 E4.7251
G1 X20.438 Y-0.929 E4.8282
; inner perimeter
G1 X21.014 Y-1.505 F6000
G92 E0
G1 X21.014 Y16.767 E1.3432 F1200
G1 X17.909 Y16.767 E1.5715
G1 X18.485 Y16.017 E1.6410
G1 X18.742 Y15.397 E1.6903
G1 X18.829 Y14.731 E1.7397
G1 X18.742 Y14.066 E1.7890
G1 X18.485 Y13.446 E1.8384
G1 X18.076 Y12.913 E1.8877
G1 X17.544 Y12.504 E1.9371
G1 X16.924 Y12.247 E1.9864
G1 X16.258 Y12.160 E2.0358
G1 X15.592 Y12.247 E2.0851
G1 X14.972 Y12.504 E2.1345
G1 X14.440 Y12.913 E2.1838
G1 X14.031 Y13.446 E2.2332
G1 X13.774 Y14.066 E2.2825
G1 X13.687 Y14.731 E2.3318
G1 X13.774 Y15.397 E2.3812
G1 X14.031 Y16.017 E2.4305
G1 X14.607 Y16.767 E2.5001
G1 X11.502 Y16.767 E2.7283
G1 X11.502 Y-1.505 E4.0715
G1 X14.607 Y-1.505 E4.2998
G1 X14.031 Y-0.754 E4.3693
G1 X13.774 Y-0.134 E4.4186
G1 X13.687 Y0.531 E4.4680
G1 X13.774 Y1.197 E4.5173
G1 X14.031 Y1.817 E4.5667
G1 X14.440 Y2.350 E4.6160
G1 X14.972 Y2.758 E4.6654
G1 X15.592 Y3.015 E4.7147
G1 X16.258 Y3.103 E4.7641
G1 X16.924 Y3.015 E4.8134
G1 X17.544 Y2.758 E4.8628
G1 X18.076 Y2.350 E4.9121
G1 X18.485 Y1.817 E4.9615
G1 X18.742 Y1.197 E5.0108
G1 X18.829 Y0.531 E5.0602
G1 X18.742 Y-0.134 E5.1095
G1 X18.485 Y-0.754 E5.1588
G1 X17.909 Y-1.505 E5.2284
G1 X21.014 Y-1.505 E5.4566
; outer perimeter
G1 X21.590 Y-2.081 F6000
G92 E0
G1 X21.590 Y17.343 E1.4279 F900
G1 X10.926 Y17.343 E2.2118
G1 X10.926 Y-2.081 E3.6398
G1 X21.590 Y-2.081 E4.4237
G1 X21.590 Y-0.081 F3600
; inner perimeter
; inner perimeter
; outer perimeter
G1 X17.982 Y-0.464 F6000
G92 E0
G1 X17.665 Y-0.876 E0.0382 F900
G1 X17.253 Y-1.192 E0.0764
G1 X16.773 Y-1.391 E0.1146
G1 X16.258 Y-1.459 E0.1528
G1 X15.743 Y-1.391 E0.1910
G1 X15.263 Y-1.192 E0.2292
G1 X14.850 Y-0.876 E0.2674
G1 X14.534 Y-0.464 E0.3056
G1 X14.335 Y0.016 E0.3438
G1 X14.267 Y0.531 E0.3820
G1 X14.335 Y1.046 E0.4202
G1 X14.534 Y1.527 E0.4584
G1 X14.850 Y1.939 E0.4966
G1 X15.263 Y2.255 E0.5348
G1 X15.743 Y2.454 E0.5730
G1 X16.258 Y2.522 E0.6112
G1 X16.773 Y2.454 E0.6494
G1 X17.253 Y2.255 E0.6876
G1 X17.665 Y1.939 E0.7258
G1 X17.982 Y1.527 E0.7640
G1 X18.181 Y1.046 E0.8022
G1 X18.248 Y0.531 E0.8404
G1 X18.181 Y0.016 E0.8786
G1 X17.982 Y-0.464 E0.9168
G92 E0
G1 E-4.0000 F3600
G1 X17.665 Y-0.876 F3600
G1 X17.253 Y-1.192 F3600
G1 X16.773 Y-1.391 F3600
G1 X16.336 Y-1.449 F3600
G1 Z0.340 F1200
; inner perimeter
; inner perimeter
; outer perimeter
G1 X17.253 Y13.007 F6000
G1 Z0.240 F1200
G1 E0.0000 F3600
G92 E0
G1 X16.773 Y12.809 E0.0382 F900
G1 X16.258 Y12.741 E0.0764
G1 X15.743 Y12.809 E0.1146
G1 X15.263 Y13.007 E0.1528
G1 X14.850 Y13.324 E0.1910
G1 X14.534 Y13.736 E0.2292
G1 X14.335 Y14.216 E0.2674
G1 X14.267 Y14.731 E0.3056
G1 X14.335 Y15.246 E0.3438
G1 X14.534 Y15.727 E0.3820
G1 X14.850 Y16.139 E0.4202
G1 X15.263 Y16.455 E0.4584
G1 X15.743 Y16.654 E0.4966
G1 X16.258 Y16.722 E0.5348
G1 X16.773 Y16.654 E0.5730
G1 X17.253 Y16.455 E0.6112
G1 X17.665 Y16.139 E0.6494
G1 X17.982 Y15.727 E0.6876
G1 X18.181 Y15.246 E0.7258
G1 X18.248 Y14.731 E0.7640
G1 X18.181 Y14.216 E0.8022
G1 X17.982 Y13.736 E0.8404
G1 X17.665 Y13.324 E0.8786
G1 X17.253 Y13.007 E0.9168
G92 E0
G1 E-4.0000 F3600
G1 X16.773 Y12.809 F3600
G1 X16.258 Y12.741 F3600
G1 X15.743 Y12.809 F3600
G1 X15.335 Y12.977 F3600
G1 Z0.340 F1200
; gap fill
G1 X15.273 Y16.902 F6000
G1 Z0.240 F1200
G1 E0.0000 F3600
G92 E0
G1 X15.305 Y16.934 E0.0034 F1440
; solid layer
G1 X12.481 Y15.739 F6000
G92 E0
G1 X12.530 Y15.788 E0.0051 F1440
G1 X12.876 Y15.788 E0.0305
G1 X12.820 Y15.652 E0.0413
G1 X12.761 Y15.205 E0.0745
G1 X12.481 Y14.925 E0.1036
G1 X12.481 Y14.110 E0.1635
G1 X12.746 Y14.375 E0.1910
G1 X12.820 Y13.810 E0.2329
G1 X12.872 Y13.686 E0.2428
G1 X12.481 Y13.296 E0.2833
G1 X12.481 Y12.481 E0.3432
G1 X13.110 Y13.110 E0.4086
G1 X13.176 Y12.952 E0.4212
G1 X13.432 Y12.618 E0.4522
G1 X12.481 Y11.667 E0.5510
G1 X12.481 Y10.852 E0.6109
G1 X13.799 Y12.170 E0.7480
G1 X14.260 Y11.816 E0.7907
G1 X12.481 Y10.037 E0.9756
G1 X12.481 Y9.223 E1.0355
G1 X14.782 Y11.523 E1.2747
G1 X15.337 Y11.293 E1.3189
G1 X15.363 Y11.290 E1.3208
G1 X12.481 Y8.408 E1.6204
G1 X12.481 Y7.594 E1.6803
G1 X16.083 Y11.195 E2.0547
G1 X16.258 Y11.172 E2.0677
G1 X16.968 Y11.266 E2.1203
G1 X12.481 Y6.779 E2.5868
G1 X12.481 Y5.964 E2.6466
G1 X18.589 Y12.072 E3.2816
G1 X18.775 Y12.215 E3.2988
G1 X18.917 Y12.401 E3.3161
G1 X20.035 Y13.518 E3.4322
G1 X20.035 Y12.703 E3.4921
G1 X12.481 Y5.150 E4.2774
G1 X12.481 Y4.335 E4.3373
G1 X20.035 Y11.889 E5.1226
G1 X20.035 Y11.074 E5.1825
G1 X12.481 Y3.521 E5.9678
G1 X12.481 Y2.706 E6.0276
G1 X20.035 Y10.260 E6.8129
G1 X20.035 Y9.445 E6.8728
G1 X12.481 Y1.892 E7.6581
G1 X12.508 Y-0.525 F6000
G92 E0
G1 X12.800 Y-0.234 E0.0303 F1440
G1 X12.705 Y0.486 E0.0837
G1 X12.481 Y0.262 E0.1070
G1 X12.481 Y1.077 E0.1668
G1 X12.815 Y1.410 E0.2015
G1 X12.820 Y1.452 E0.2046
G1 X13.176 Y2.311 E0.2729
G1 X13.741 Y3.048 E0.3412
G1 X14.478 Y3.614 E0.4095
G1 X15.337 Y3.969 E0.4778
G1 X15.379 Y3.975 E0.4809
G1 X20.035 Y8.631 E0.9650
G1 X20.035 Y7.816 E1.0249
G1 X16.303 Y4.084 E1.4128
G1 X17.023 Y3.990 E1.4662
G1 X20.035 Y7.001 E1.7793
G1 X20.035 Y6.187 E1.8392
G1 X17.630 Y3.782 E2.0891
G1 X18.038 Y3.614 E2.1215
G1 X18.173 Y3.510 E2.1340
G1 X20.035 Y5.372 E2.3276
G1 X20.035 Y4.558 E2.3875
G1 X18.633 Y3.156 E2.5332
G1 X18.775 Y3.048 E2.5463
G1 X19.020 Y2.728 E2.5759
G1 X20.035 Y3.743 E2.6814
G1 X20.035 Y2.928 E2.7413
G1 X19.363 Y2.256 E2.8112
G1 X19.601 Y1.680 E2.8570
G1 X20.035 Y2.114 E2.9021
G1 X20.035 Y1.299 E2.9619
G1 X19.753 Y1.018 E2.9912
G1 X19.817 Y0.531 E3.0273
G1 X19.777 Y0.227 E3.0498
G1 X20.035 Y0.485 E3.0766
G1 X20.035 Y-0.330 E3.1365
G1 X19.839 Y-0.525 E3.1569
G1 X19.724 Y14.022 F6000
G92 E0
G1 X20.035 Y14.333 E0.0323 F1440
G1 X20.035 Y15.147 E0.0922
G1 X19.794 Y14.907 E0.1173
G1 X19.699 Y15.626 E0.1706
G1 X19.861 Y15.788 E0.1874
G92 E0
G1 E-4.0000 F3600
G1 Z0.340 F1200
; inner perimeter
G1 X22.302 Y24.078 F6000
G1 Z0.240 F1200
G1 E0.0000 F3600
G92 E0
G1 X22.302 Y41.198 E1.2585 F1500
G1 X-4.818 Y41.198 E3.2522
G1 X-4.818 Y24.078 E4.5107
G1 X22.302 Y24.078 E6.5044
; inner perimeter
G1 X22.878 Y23.502 F6000
G92 E0
G1 X22.878 Y41.774 E1.3432 F1200
G1 X-5.394 Y41.774 E3.4216
G1 X-5.394 Y23.502 E4.7648
G1 X22.878 Y23.502 E6.8431
; outer perimeter
G1 X23.454 Y22.926 F6000
G92 E0
G1 X23.454 Y42.350 E1.4279 F900
G1 X-5.970 Y42.350 E3.5909
G1 X-5.970 Y22.926 E5.0189
G1 X23.454 Y22.926 E7.1819
G1 X23.454 Y24.926 F3600
; inner perimeter
G1 X3.471 Y30.409 F6000
G92 E0
G1 X2.818 Y29.908 E0.0605 F1500
G1 X2.058 Y29.593 E0.1210
G1 X1.242 Y29.486 E0.1815
G1 X0.426 Y29.593 E0.2420
G1 X-0.334 Y29.908 E0.3025
G1 X-0.987 Y30.409 E0.3630
G1 X-1.488 Y31.062 E0.4235
G1 X-1.803 Y31.822 E0.4840
G1 X-1.910 Y32.638 E0.5445
G1 X-1.803 Y33.454 E0.6050
G1 X-1.488 Y34.215 E0.6655
G1 X-0.987 Y34.867 E0.7260
G1 X-0.334 Y35.368 E0.7865
G1 X0.426 Y35.683 E0.8470
G1 X1.242 Y35.791 E0.9075
G1 X2.058 Y35.683 E0.9680
G1 X2.818 Y35.368 E1.0284
G1 X3.471 Y34.867 E1.0889
G1 X3.972 Y34.215 E1.1494
G1 X4.287 Y33.454 E1.2099
G1 X4.394 Y32.638 E1.2704
G1 X4.287 Y31.822 E1.3309
G1 X3.972 Y31.062 E1.3914
G1 X3.471 Y30.409 E1.4519
; inner perimeter
G1 X3.060 Y30.820 F6000
G92 E0
G1 X2.528 Y30.411 E0.0493 F1200
G1 X1.908 Y30.155 E0.0987
G1 X1.242 Y30.067 E0.1480
G1 X0.576 Y30.155 E0.1974
G1 X-0.044 Y30.411 E0.2467
G1 X-0.576 Y30.820 E0.2961
G1 X-0.985 Y31.353 E0.3454
G1 X-1.242 Y31.973 E0.3948
G1 X-1.329 Y32.638 E0.4441
