; G-Code generated by Simplify3D(R) Version 3.1.1
; Mar 12, 2017 at 6:02:30 PM
; Settings Summary
;   processName,Process1
;   applyToModels,Dasboard
;   profileName,Belfry (modified)
;   profileVersion,2017-03-09 09:08:18
;   baseProfile,Default
;   printMaterial,PLA+
;   printQuality,Medium
;   printExtruders,
;   extruderName,Extruder 1
;   extruderToolheadNumber,0
;   extruderDiameter,0.4
;   extruderAutoWidth,1
;   extruderWidth,0.48
;   extrusionMultiplier,1
;   extruderUseRetract,1
;   extruderRetractionDistance,4
;   extruderExtraRestartDistance,0
;   extruderRetractionZLift,0
;   extruderRetractionSpeed,3600
;   extruderUseCoasting,0
;   extruderCoastingDistance,0.2
;   extruderUseWipe,1
;   extruderWipeDistance,2
;   primaryExtruder,0
;   layerHeight,0.3
;   topSolidLayers,3
;   bottomSolidLayers,3
;   perimeterOutlines,3
;   printPerimetersInsideOut,1
;   startPointOption,2
;   startPointOriginX,0
;   startPointOriginY,0
;   startPointOriginZ,300
;   sequentialIslands,0
;   spiralVaseMode,0
;   firstLayerHeightPercentage,100
;   firstLayerWidthPercentage,100
;   firstLayerUnderspeed,0.5
;   useRaft,0
;   raftExtruder,0
;   raftLayers,3
;   raftOffset,3
;   raftSeparationDistance,0.14
;   raftInfill,85
;   disableRaftBaseLayers,0
;   useSkirt,1
;   skirtExtruder,0
;   skirtLayers,1
;   skirtOutlines,1
;   skirtOffset,4
;   usePrimePillar,0
;   primePillarExtruder,999
;   primePillarWidth,12
;   primePillarLocation,7
;   primePillarSpeedMultiplier,1
;   useOozeShield,0
;   oozeShieldExtruder,999
;   oozeShieldOffset,2
;   oozeShieldOutlines,1
;   oozeShieldSidewallShape,1
;   oozeShieldSidewallAngle,30
;   oozeShieldSpeedMultiplier,1
;   infillExtruder,0
;   internalInfillPattern,Rectilinear
;   externalInfillPattern,Rectilinear
;   infillPercentage,15
;   outlineOverlapPercentage,15
;   infillExtrusionWidthPercentage,100
;   minInfillLength,5
;   infillLayerInterval,1
;   infillAngles,45,-45
;   overlapInfillAngles,0
;   generateSupport,1
;   supportExtruder,0
;   supportInfillPercentage,30
;   supportExtraInflation,0
;   denseSupportLayers,0
;   denseSupportInfillPercentage,70
;   supportLayerInterval,1
;   supportHorizontalPartOffset,0.3
;   supportUpperSeparationLayers,1
;   supportLowerSeparationLayers,1
;   supportType,0
;   supportGridSpacing,4
;   maxOverhangAngle,45
;   supportAngles,0
;   temperatureName,Extruder 1,Heated Bed
;   temperatureNumber,0,0
;   temperatureSetpointCount,1,3
;   temperatureSetpointLayers,1,1,2,3
;   temperatureSetpointTemperatures,225,70,65,60
;   temperatureStabilizeAtStartup,1,1
;   temperatureHeatedBed,0,1
;   temperatureRelayBetweenLayers,0,0
;   temperatureRelayBetweenLoops,0,0
;   fanLayers,1,2,3
;   fanSpeeds,0,50,100
;   blipFanToFullPower,0
;   adjustSpeedForCooling,1
;   minSpeedLayerTime,15
;   minCoolingSpeedSlowdown,20
;   increaseFanForCooling,0
;   minFanLayerTime,45
;   maxCoolingFanSpeed,100
;   increaseFanForBridging,0
;   bridgingFanSpeed,100
;   use5D,1
;   relativeEdistances,0
;   allowEaxisZeroing,1
;   independentExtruderAxes,0
;   includeM10123,0
;   stickySupport,1
;   applyToolheadOffsets,0
;   gcodeXoffset,0
;   gcodeYoffset,0
;   gcodeZoffset,0
;   overrideMachineDefinition,1
;   machineTypeOverride,0
;   strokeXoverride,300
;   strokeYoverride,200
;   strokeZoverride,350
;   originOffsetXoverride,0
;   originOffsetYoverride,0
;   originOffsetZoverride,0
;   homeXdirOverride,-1
;   homeYdirOverride,-1
;   homeZdirOverride,-1
;   flipXoverride,1
;   flipYoverride,-1
;   flipZoverride,1
;   toolheadOffsets,0,0|0,0|0,0|0,0|0,0|0,0
;   overrideFirmwareConfiguration,1
;   firmwareTypeOverride,RepRap (Marlin/Repetier/Sprinter)
;   GPXconfigOverride,r2
;   baudRateOverride,115200
;   overridePrinterModels,0
;   printerModelsOverride
;   startingGcode,G28 ; home all axes
;   layerChangeGcode,
;   retractionGcode,
;   toolChangeGcode,
;   endingGcode,G91 ;relative positioning,G1 Z+0.5 ;move Z up a bit,G28 X0 Y0 ;move X/Y to min endstops, so the head is out of the way,M104 S0 ; turn off extruder,M140 S0 ; turn off bed,M84 ; disable motors
;   exportFileFormat,gcode
;   celebration,0
;   celebrationSong,Random Song
;   postProcessing,
;   defaultSpeed,3600
;   outlineUnderspeed,0.5
;   solidInfillUnderspeed,0.8
;   supportUnderspeed,0.8
;   rapidXYspeed,4200
;   rapidZspeed,1002
;   minBridgingArea,50
;   bridgingExtraInflation,0
;   bridgingExtrusionMultiplier,1
;   bridgingSpeedMultiplier,1
;   filamentDiameter,1.7
;   filamentPricePerKg,30
;   filamentDensity,1.25
;   useMinPrintHeight,0
;   minPrintHeight,0
;   useMaxPrintHeight,0
;   maxPrintHeight,0
;   useDiaphragm,0
;   diaphragmLayerInterval,20
;   robustSlicing,1
;   mergeAllIntoSolid,0
;   onlyRetractWhenCrossingOutline,1
;   retractBetweenLayers,1
;   useRetractionMinTravel,0
;   retractionMinTravel,3
;   retractWhileWiping,0
;   onlyWipeOutlines,1
;   avoidCrossingOutline,0
;   maxMovementDetourFactor,3
;   toolChangeRetractionDistance,12
;   toolChangeExtraRestartDistance,-0.5
;   toolChangeRetractionSpeed,600
;   allowThinWallGapFill,1
;   thinWallAllowedOverlapPercentage,10
;   horizontalSizeCompensation,0
G90
M82
M106 S0
M140 S70
M190 S70
M104 S225 T0
M109 S225 T0
G28 ; home all axes
G92 E0
G1 E-4.0000 F3600
G1 Z0.300 F1002
; layer 1, Z = 0.3
T0
; tool H0.300 W0.480
; skirt
G1 X49.050 Y58.002 F4200
G1 E0.0000 F1080
G92 E0
G1 X49.138 Y57.965 E0.0061 F1800
G1 X100.603 Y57.965 E3.2711
G1 X100.603 Y39.501 E4.4425
G1 X100.639 Y39.413 E4.4485
G1 X103.050 Y37.002 E4.6648
G1 X103.138 Y36.965 E4.6709
G1 X250.862 Y36.965 E14.0427
G1 X250.950 Y37.002 E14.0488
G1 X253.361 Y39.413 E14.2651
G1 X253.397 Y39.501 E14.2711
G1 X253.397 Y160.499 E21.9475
G1 X253.361 Y160.587 E21.9535
G1 X250.950 Y162.998 E22.1698
G1 X250.862 Y163.034 E22.1759
G1 X49.138 Y163.034 E34.9736
G1 X49.050 Y162.998 E34.9796
G1 X46.639 Y160.587 E35.1959
G1 X46.603 Y160.499 E35.2020
G1 X46.603 Y149.501 E35.8997
G1 X46.639 Y149.413 E35.9058
G1 X49.050 Y147.002 E36.1220
G1 X49.138 Y146.965 E36.1281
G1 X100.603 Y146.965 E39.3931
G1 X100.603 Y135.446 E40.1239
G1 X49.138 Y135.446 E43.3889
G1 X49.050 Y135.409 E43.3950
G1 X46.639 Y132.998 E43.6113
G1 X46.603 Y132.910 E43.6173
G1 X46.603 Y60.501 E48.2111
G1 X46.639 Y60.413 E48.2172
G1 X49.050 Y58.002 E48.4334
G92 E0
G1 E-4.0000 F3600
; inner perimeter
G1 X52.043 Y63.405 F4200
G1 E0.0000 F3600
G92 E0
G1 X106.043 Y63.405 E3.4259 F1500
G1 X106.043 Y42.405 E4.7581
G1 X247.957 Y42.405 E13.7614
G1 X247.957 Y157.594 E21.0692
G1 X52.043 Y157.594 E33.4984
G1 X52.043 Y152.405 E33.8276
G1 X106.043 Y152.405 E37.2534
G1 X106.043 Y130.006 E38.6745
G1 X52.043 Y130.006 E42.1004
G1 X52.043 Y63.405 E46.3256
; inner perimeter
G1 X51.563 Y62.925 F4200
G92 E0
G1 X105.563 Y62.925 E3.4259 F1200
G1 X105.563 Y41.925 E4.7581
G1 X248.437 Y41.925 E13.8223
G1 X248.437 Y158.074 E21.1910
G1 X51.563 Y158.074 E33.6811
G1 X51.563 Y151.925 E34.0712
G1 X105.563 Y151.925 E37.4970
G1 X105.563 Y130.486 E38.8572
G1 X51.563 Y130.486 E42.2831
G1 X51.563 Y62.925 E46.5692
; outer perimeter
G1 X51.083 Y62.445 F4200
G92 E0
G1 X105.083 Y62.445 E3.4259 F900
G1 X105.083 Y41.445 E4.7581
G1 X248.917 Y41.445 E13.8832
G1 X248.917 Y158.554 E21.3128
G1 X51.083 Y158.554 E33.8638
G1 X51.083 Y151.446 E34.3148
G1 X105.083 Y151.446 E37.7406
G1 X105.083 Y130.965 E39.0399
G1 X51.083 Y130.965 E42.4658
G1 X51.083 Y62.445 E46.8128
G1 X53.083 Y62.445 F3600
; inner perimeter
G1 X74.738 Y91.327 F4200
G92 E0
G1 X73.451 Y92.314 E0.1029 F1500
G1 X72.464 Y93.600 E0.2057
G1 X71.844 Y95.098 E0.3086
G1 X71.632 Y96.705 E0.4114
G1 X71.844 Y98.313 E0.5143
G1 X72.464 Y99.811 E0.6171
G1 X73.451 Y101.097 E0.7200
G1 X74.738 Y102.084 E0.8228
G1 X76.235 Y102.704 E0.9257
G1 X77.843 Y102.916 E1.0285
G1 X79.450 Y102.704 E1.1314
G1 X80.948 Y102.084 E1.2342
G1 X82.234 Y101.097 E1.3371
G1 X83.221 Y99.811 E1.4399
G1 X83.841 Y98.313 E1.5428
G1 X84.053 Y96.705 E1.6457
G1 X83.841 Y95.098 E1.7485
G1 X83.221 Y93.600 E1.8514
G1 X82.234 Y92.314 E1.9542
G1 X80.948 Y91.327 E2.0571
G1 X79.450 Y90.707 E2.1599
G1 X77.843 Y90.495 E2.2628
G1 X76.235 Y90.707 E2.3656
G1 X74.738 Y91.327 E2.4685
; inner perimeter
G1 X74.980 Y91.746 F4200
G92 E0
G1 X73.794 Y92.656 E0.0948 F1200
G1 X72.884 Y93.842 E0.1897
G1 X72.312 Y95.223 E0.2845
G1 X72.117 Y96.705 E0.3793
G1 X72.312 Y98.188 E0.4742
G1 X72.884 Y99.569 E0.5690
G1 X73.794 Y100.755 E0.6638
G1 X74.980 Y101.665 E0.7587
G1 X76.361 Y102.237 E0.8535
G1 X77.843 Y102.432 E0.9484
G1 X79.325 Y102.237 E1.0432
G1 X80.706 Y101.665 E1.1380
G1 X81.892 Y100.755 E1.2329
G1 X82.802 Y99.569 E1.3277
G1 X83.374 Y98.188 E1.4225
G1 X83.569 Y96.705 E1.5174
G1 X83.374 Y95.223 E1.6122
G1 X82.802 Y93.842 E1.7070
G1 X81.892 Y92.656 E1.8019
G1 X80.706 Y91.746 E1.8967
G1 X79.325 Y91.174 E1.9915
G1 X77.843 Y90.979 E2.0864
G1 X76.361 Y91.174 E2.1812
G1 X74.980 Y91.746 E2.2760
; outer perimeter
G1 X75.222 Y92.166 F4200
G92 E0
G1 X74.136 Y92.999 E0.0868 F900
G1 X73.303 Y94.084 E0.1736
G1 X72.779 Y95.349 E0.2605
G1 X72.601 Y96.705 E0.3473
G1 X72.779 Y98.062 E0.4341
G1 X73.303 Y99.327 E0.5209
G1 X74.136 Y100.412 E0.6077
G1 X75.222 Y101.245 E0.6945
G1 X76.486 Y101.769 E0.7814
G1 X77.843 Y101.948 E0.8682
G1 X79.199 Y101.769 E0.9550
G1 X80.464 Y101.245 E1.0418
G1 X81.549 Y100.412 E1.1286
G1 X82.382 Y99.327 E1.2154
G1 X82.906 Y98.062 E1.3023
G1 X83.085 Y96.705 E1.3891
G1 X82.906 Y95.349 E1.4759
G1 X82.382 Y94.084 E1.5627
G1 X81.549 Y92.999 E1.6495
G1 X80.464 Y92.166 E1.7363
G1 X79.199 Y91.642 E1.8232
G1 X77.843 Y91.463 E1.9100
G1 X76.486 Y91.642 E1.9968
G1 X75.222 Y92.166 E2.0836
G92 E0
G1 E-4.0000 F3600
G1 X74.136 Y92.999 F3600
G1 X73.752 Y93.500 F3600
; inner perimeter
G1 X111.928 Y120.094 F4200
G1 E0.0000 F3600
G92 E0
G1 X111.928 Y148.994 E1.8335 F1500
G1 X186.328 Y148.994 E6.5535
G1 X186.328 Y120.094 E8.3870
G1 X111.928 Y120.094 E13.1071
; inner perimeter
G1 X112.408 Y120.575 F4200
G92 E0
G1 X112.408 Y148.514 E1.7726 F1200
G1 X185.848 Y148.514 E6.4317
G1 X185.848 Y120.575 E8.2043
G1 X112.408 Y120.575 E12.8634
; outer perimeter
G1 X112.888 Y121.054 F4200
G92 E0
G1 X112.888 Y148.034 E1.7117 F900
G1 X185.368 Y148.034 E6.3099
G1 X185.368 Y121.055 E8.0216
G1 X112.888 Y121.055 E12.6198
G92 E0
G1 E-4.0000 F3600
G1 X112.888 Y123.054 F3600
; inner perimeter
G1 X124.598 Y93.100 F4200
G1 E0.0000 F3600
G92 E0
G1 X123.878 Y94.839 E0.1194 F1500
G1 X123.632 Y96.705 E0.2388
G1 X123.878 Y98.572 E0.3582
G1 X124.598 Y100.311 E0.4777
G1 X125.744 Y101.804 E0.5971
G1 X127.238 Y102.950 E0.7165
G1 X128.977 Y103.670 E0.8359
G1 X130.843 Y103.916 E0.9553
G1 X132.709 Y103.670 E1.0747
G1 X134.448 Y102.950 E1.1942
G1 X135.941 Y101.804 E1.3136
G1 X137.087 Y100.311 E1.4330
G1 X137.807 Y98.572 E1.5524
G1 X138.053 Y96.705 E1.6718
G1 X137.807 Y94.839 E1.7912
G1 X137.087 Y93.100 E1.9106
G1 X135.941 Y91.607 E2.0301
G1 X134.448 Y90.461 E2.1495
G1 X132.709 Y89.741 E2.2689
G1 X130.843 Y89.495 E2.3883
G1 X128.977 Y89.741 E2.5077
G1 X127.238 Y90.461 E2.6271
G1 X125.744 Y91.607 E2.7465
G1 X124.598 Y93.100 E2.8660
; inner perimeter
G1 X125.018 Y93.342 F4200
G92 E0
G1 X124.346 Y94.965 E0.1114 F1200
G1 X124.117 Y96.705 E0.2228
G1 X124.346 Y98.446 E0.3342
G1 X125.018 Y100.069 E0.4456
G1 X126.087 Y101.462 E0.5570
G1 X127.480 Y102.531 E0.6684
G1 X129.102 Y103.203 E0.7798
G1 X130.843 Y103.432 E0.8912
G1 X132.584 Y103.203 E1.0026
G1 X134.206 Y102.531 E1.1140
G1 X135.599 Y101.462 E1.2254
G1 X136.668 Y100.069 E1.3368
G1 X137.340 Y98.446 E1.4482
G1 X137.569 Y96.705 E1.5596
G1 X137.340 Y94.965 E1.6710
G1 X136.668 Y93.342 E1.7824
G1 X135.599 Y91.949 E1.8937
G1 X134.206 Y90.880 E2.0051
G1 X132.584 Y90.208 E2.1165
G1 X130.843 Y89.979 E2.2279
G1 X129.102 Y90.208 E2.3393
G1 X127.480 Y90.880 E2.4507
G1 X126.087 Y91.949 E2.5621
G1 X125.018 Y93.342 E2.6735
; outer perimeter
G1 X125.437 Y93.584 F4200
G92 E0
G1 X124.813 Y95.090 E0.1034 F900
G1 X124.601 Y96.705 E0.2068
G1 X124.813 Y98.321 E0.3101
G1 X125.437 Y99.827 E0.4135
G1 X126.429 Y101.119 E0.5169
G1 X127.722 Y102.111 E0.6203
G1 X129.227 Y102.735 E0.7237
G1 X130.843 Y102.948 E0.8270
G1 X132.458 Y102.735 E0.9304
G1 X133.964 Y102.111 E1.0338
G1 X135.257 Y101.119 E1.1372
G1 X136.249 Y99.827 E1.2405
G1 X136.872 Y98.321 E1.3439
G1 X137.085 Y96.705 E1.4473
G1 X136.872 Y95.090 E1.5507
G1 X136.249 Y93.584 E1.6541
G1 X135.257 Y92.292 E1.7574
G1 X133.964 Y91.300 E1.8608
G1 X132.458 Y90.676 E1.9642
G1 X130.843 Y90.463 E2.0676
G1 X129.227 Y90.676 E2.1710
G1 X127.722 Y91.300 E2.2743
G1 X126.429 Y92.292 E2.3777
G1 X125.437 Y93.584 E2.4811
G92 E0
G1 E-4.0000 F3600
G1 X124.813 Y95.090 F3600
G1 X124.765 Y95.457 F3600
; inner perimeter
G1 X163.096 Y90.803 F4200
G1 E0.0000 F3600
G92 E0
G1 X162.695 Y92.817 E0.1303 F1500
G1 X162.560 Y94.867 E0.2606
G1 X162.695 Y96.916 E0.3909
G1 X163.096 Y98.931 E0.5212
G1 X163.756 Y100.876 E0.6515
G1 X164.664 Y102.718 E0.7819
G1 X165.805 Y104.426 E0.9122
G1 X167.160 Y105.970 E1.0425
G1 X168.704 Y107.324 E1.1728
G1 X170.412 Y108.465 E1.3031
G1 X172.254 Y109.374 E1.4334
G1 X174.199 Y110.034 E1.5637
G1 X176.213 Y110.435 E1.6940
G1 X178.263 Y110.569 E1.8243
G1 X180.313 Y110.435 E1.9546
G1 X182.327 Y110.034 E2.0849
G1 X184.272 Y109.374 E2.2153
G1 X186.114 Y108.465 E2.3456
G1 X187.822 Y107.324 E2.4759
G1 X189.366 Y105.970 E2.6062
G1 X190.721 Y104.426 E2.7365
G1 X191.862 Y102.718 E2.8668
G1 X192.770 Y100.876 E2.9971
G1 X193.431 Y98.931 E3.1274
G1 X193.831 Y96.916 E3.2577
G1 X193.966 Y94.867 E3.3880
G1 X193.831 Y92.817 E3.5183
G1 X193.431 Y90.803 E3.6486
G1 X192.770 Y88.858 E3.7790
G1 X191.862 Y87.015 E3.9093
G1 X190.721 Y85.308 E4.0396
G1 X189.366 Y83.763 E4.1699
G1 X187.822 Y82.409 E4.3002
G1 X186.114 Y81.268 E4.4305
G1 X184.272 Y80.359 E4.5608
G1 X182.327 Y79.699 E4.6911
G1 X180.313 Y79.298 E4.8214
G1 X178.263 Y79.164 E4.9517
G1 X176.213 Y79.298 E5.0820
G1 X174.199 Y79.699 E5.2124
G1 X172.254 Y80.359 E5.3427
G1 X170.412 Y81.268 E5.4730
G1 X168.704 Y82.409 E5.6033
G1 X167.160 Y83.763 E5.7336
G1 X165.805 Y85.308 E5.8639
G1 X164.664 Y87.015 E5.9942
G1 X163.756 Y88.858 E6.1245
G1 X163.096 Y90.803 E6.2548
; inner perimeter
G1 X163.560 Y90.927 F4200
G92 E0
G1 X163.172 Y92.880 E0.1263 F1200
G1 X163.042 Y94.867 E0.2526
G1 X163.172 Y96.854 E0.3790
G1 X163.560 Y98.806 E0.5053
G1 X164.200 Y100.692 E0.6316
G1 X165.081 Y102.477 E0.7579
G1 X166.187 Y104.133 E0.8842
G1 X167.500 Y105.630 E1.0105
G1 X168.997 Y106.943 E1.1369
G1 X170.652 Y108.049 E1.2632
G1 X172.438 Y108.930 E1.3895
G1 X174.323 Y109.570 E1.5158
G1 X176.276 Y109.958 E1.6421
G1 X178.263 Y110.088 E1.7684
G1 X180.250 Y109.958 E1.8948
G1 X182.203 Y109.570 E2.0211
G1 X184.088 Y108.930 E2.1474
G1 X185.874 Y108.049 E2.2737
G1 X187.529 Y106.943 E2.4000
G1 X189.026 Y105.630 E2.5263
G1 X190.339 Y104.133 E2.6527
G1 X191.445 Y102.477 E2.7790
G1 X192.326 Y100.692 E2.9053
G1 X192.966 Y98.806 E3.0316
G1 X193.354 Y96.854 E3.1579
G1 X193.485 Y94.867 E3.2842
G1 X193.354 Y92.880 E3.4106
G1 X192.966 Y90.927 E3.5369
G1 X192.326 Y89.042 E3.6632
G1 X191.445 Y87.256 E3.7895
G1 X190.339 Y85.600 E3.9158
G1 X189.026 Y84.103 E4.0421
G1 X187.529 Y82.791 E4.1685
G1 X185.874 Y81.684 E4.2948
G1 X184.088 Y80.804 E4.4211
G1 X182.203 Y80.164 E4.5474
G1 X180.250 Y79.775 E4.6737
G1 X178.263 Y79.645 E4.8000
G1 X176.276 Y79.775 E4.9264
G1 X174.323 Y80.164 E5.0527
G1 X172.438 Y80.804 E5.1790
G1 X170.652 Y81.684 E5.3053
G1 X168.997 Y82.791 E5.4316
G1 X167.500 Y84.103 E5.5580
G1 X166.187 Y85.600 E5.6843
G1 X165.081 Y87.256 E5.8106
G1 X164.200 Y89.042 E5.9369
G1 X163.560 Y90.927 E6.0632
; outer perimeter
G1 X164.025 Y91.052 F4200
G92 E0
G1 X163.649 Y92.943 E0.1223 F900
G1 X163.523 Y94.867 E0.2447
G1 X163.649 Y96.791 E0.3670
G1 X164.025 Y98.682 E0.4893
G1 X164.645 Y100.508 E0.6116
G1 X165.497 Y102.237 E0.7340
G1 X166.569 Y103.840 E0.8563
G1 X167.840 Y105.290 E0.9786
G1 X169.290 Y106.561 E1.1009
G1 X170.893 Y107.632 E1.2233
G1 X172.622 Y108.485 E1.3456
G1 X174.448 Y109.105 E1.4679
G1 X176.339 Y109.481 E1.5902
G1 X178.263 Y109.607 E1.7126
G1 X180.187 Y109.481 E1.8349
G1 X182.078 Y109.105 E1.9572
G1 X183.904 Y108.485 E2.0795
G1 X185.633 Y107.632 E2.2019
G1 X187.237 Y106.561 E2.3242
G1 X188.686 Y105.290 E2.4465
G1 X189.957 Y103.840 E2.5688
