; G-Code generated by Simplify3D(R) Version 3.1.1
; Mar 12, 2017 at 3:32:47 PM
; Settings Summary
;   processName,Process1
;   applyToModels,EncoderMount,EncoderGear
;   profileName,Belfry
;   profileVersion,2017-03-09 09:08:18
;   baseProfile,Default
;   printMaterial,PLA+
;   printQuality,Medium
;   printExtruders,
;   extruderName,Extruder 1
;   extruderToolheadNumber,0
;   extruderDiameter,0.4
;   extruderAutoWidth,1
;   extruderWidth,0.48
;   extrusionMultiplier,1
;   extruderUseRetract,1
;   extruderRetractionDistance,4
;   extruderExtraRestartDistance,0
;   extruderRetractionZLift,0
;   extruderRetractionSpeed,3600
;   extruderUseCoasting,0
;   extruderCoastingDistance,0.2
;   extruderUseWipe,1
;   extruderWipeDistance,2
;   primaryExtruder,0
;   layerHeight,0.2
;   topSolidLayers,3
;   bottomSolidLayers,3
;   perimeterOutlines,3
;   printPerimetersInsideOut,1
;   startPointOption,2
;   startPointOriginX,0
;   startPointOriginY,0
;   startPointOriginZ,300
;   sequentialIslands,0
;   spiralVaseMode,0
;   firstLayerHeightPercentage,100
;   firstLayerWidthPercentage,100
;   firstLayerUnderspeed,0.5
;   useRaft,0
;   raftExtruder,0
;   raftLayers,3
;   raftOffset,3
;   raftSeparationDistance,0.14
;   raftInfill,85
;   disableRaftBaseLayers,0
;   useSkirt,1
;   skirtExtruder,0
;   skirtLayers,1
;   skirtOutlines,1
;   skirtOffset,4
;   usePrimePillar,0
;   primePillarExtruder,999
;   primePillarWidth,12
;   primePillarLocation,7
;   primePillarSpeedMultiplier,1
;   useOozeShield,0
;   oozeShieldExtruder,999
;   oozeShieldOffset,2
;   oozeShieldOutlines,1
;   oozeShieldSidewallShape,1
;   oozeShieldSidewallAngle,30
;   oozeShieldSpeedMultiplier,1
;   infillExtruder,0
;   internalInfillPattern,Rectilinear
;   externalInfillPattern,Rectilinear
;   infillPercentage,40
;   outlineOverlapPercentage,15
;   infillExtrusionWidthPercentage,100
;   minInfillLength,5
;   infillLayerInterval,1
;   infillAngles,45,-45
;   overlapInfillAngles,0
;   generateSupport,0
;   supportExtruder,0
;   supportInfillPercentage,30
;   supportExtraInflation,0
;   denseSupportLayers,0
;   denseSupportInfillPercentage,70
;   supportLayerInterval,1
;   supportHorizontalPartOffset,0.3
;   supportUpperSeparationLayers,1
;   supportLowerSeparationLayers,1
;   supportType,0
;   supportGridSpacing,4
;   maxOverhangAngle,45
;   supportAngles,0
;   temperatureName,Extruder 1,Heated Bed
;   temperatureNumber,0,0
;   temperatureSetpointCount,1,3
;   temperatureSetpointLayers,1,1,2,3
;   temperatureSetpointTemperatures,225,70,65,60
;   temperatureStabilizeAtStartup,1,1
;   temperatureHeatedBed,0,1
;   temperatureRelayBetweenLayers,0,0
;   temperatureRelayBetweenLoops,0,0
;   fanLayers,1,2,3
;   fanSpeeds,0,50,100
;   blipFanToFullPower,0
;   adjustSpeedForCooling,1
;   minSpeedLayerTime,15
;   minCoolingSpeedSlowdown,20
;   increaseFanForCooling,0
;   minFanLayerTime,45
;   maxCoolingFanSpeed,100
;   increaseFanForBridging,0
;   bridgingFanSpeed,100
;   use5D,1
;   relativeEdistances,0
;   allowEaxisZeroing,1
;   independentExtruderAxes,0
;   includeM10123,0
;   stickySupport,1
;   applyToolheadOffsets,0
;   gcodeXoffset,0
;   gcodeYoffset,0
;   gcodeZoffset,0
;   overrideMachineDefinition,1
;   machineTypeOverride,0
;   strokeXoverride,300
;   strokeYoverride,200
;   strokeZoverride,350
;   originOffsetXoverride,0
;   originOffsetYoverride,0
;   originOffsetZoverride,0
;   homeXdirOverride,-1
;   homeYdirOverride,-1
;   homeZdirOverride,-1
;   flipXoverride,1
;   flipYoverride,-1
;   flipZoverride,1
;   toolheadOffsets,0,0|0,0|0,0|0,0|0,0|0,0
;   overrideFirmwareConfiguration,1
;   firmwareTypeOverride,RepRap (Marlin/Repetier/Sprinter)
;   GPXconfigOverride,r2
;   baudRateOverride,115200
;   overridePrinterModels,0
;   printerModelsOverride
;   startingGcode,G28 ; home all axes
;   layerChangeGcode,
;   retractionGcode,
;   toolChangeGcode,
;   endingGcode,G91 ;relative positioning,G1 Z+0.5 ;move Z up a bit,G28 X0 Y0 ;move X/Y to min endstops, so the head is out of the way,M104 S0 ; turn off extruder,M140 S0 ; turn off bed,M84 ; disable motors
;   exportFileFormat,gcode
;   celebration,0
;   celebrationSong,Random Song
;   postProcessing,
;   defaultSpeed,3600
;   outlineUnderspeed,0.5
;   solidInfillUnderspeed,0.8
;   supportUnderspeed,0.8
;   rapidXYspeed,4200
;   rapidZspeed,1002
;   minBridgingArea,50
;   bridgingExtraInflation,0
;   bridgingExtrusionMultiplier,1
;   bridgingSpeedMultiplier,1
;   filamentDiameter,1.7
;   filamentPricePerKg,30
;   filamentDensity,1.25
;   useMinPrintHeight,0
;   minPrintHeight,0
;   useMaxPrintHeight,0
;   maxPrintHeight,0
;   useDiaphragm,0
;   diaphragmLayerInterval,20
;   robustSlicing,1
;   mergeAllIntoSolid,0
;   onlyRetractWhenCrossingOutline,1
;   retractBetweenLayers,1
;   useRetractionMinTravel,0
;   retractionMinTravel,3
;   retractWhileWiping,0
;   onlyWipeOutlines,1
;   avoidCrossingOutline,0
;   maxMovementDetourFactor,3
;   toolChangeRetractionDistance,12
;   toolChangeExtraRestartDistance,-0.5
;   toolChangeRetractionSpeed,600
;   allowThinWallGapFill,1
;   thinWallAllowedOverlapPercentage,10
;   horizontalSizeCompensation,0
G90
M82
M106 S0
M140 S70
M190 S70
M104 S225 T0
M109 S225 T0
G28 ; home all axes
G92 E0
G1 E-4.0000 F3600
G1 Z0.200 F1002
; layer 1, Z = 0.2
T0
; tool H0.200 W0.480
; skirt
G1 X76.600 Y80.929 F4200
G1 E0.0000 F1080
G92 E0
G1 X97.759 Y59.771 E1.2656 F1800
G1 X97.798 Y59.744 E1.2676
G1 X99.312 Y59.117 E1.3369
G1 X99.358 Y59.108 E1.3389
G1 X131.293 Y59.108 E2.6895
G1 X131.355 Y59.125 E2.6922
G1 X133.281 Y60.251 E2.7866
G1 X133.325 Y60.296 E2.7893
G1 X164.133 Y115.035 E5.4459
G1 X164.144 Y115.064 E5.4472
G1 X164.414 Y116.091 E5.4921
G1 X164.418 Y116.121 E5.4934
G1 X164.418 Y138.357 E6.4339
G1 X164.381 Y138.445 E6.4379
G1 X161.970 Y140.855 E6.5821
G1 X161.882 Y140.892 E6.5861
G1 X78.473 Y140.892 E10.1139
G1 X78.385 Y140.855 E10.1179
G1 X75.974 Y138.445 E10.2621
G1 X75.937 Y138.357 E10.2662
G1 X75.937 Y82.529 E12.6274
G1 X75.947 Y82.482 E12.6294
G1 X76.574 Y80.968 E12.6987
G1 X76.600 Y80.929 E12.7007
G92 E0
G1 E-4.0000 F3600
G1 X160.789 Y86.737 F4200
G1 E0.0000 F3600
G92 E0
G1 X160.785 Y86.671 E0.0028 F1800
G1 X162.057 Y81.101 E0.2445
G1 X162.089 Y81.042 E0.2473
G1 X163.750 Y79.370 E0.3470
G1 X163.809 Y79.337 E0.3498
G1 X166.141 Y78.787 E0.4512
G1 X166.145 Y78.786 E0.4514
G1 X166.296 Y78.756 E0.4579
G1 X166.300 Y78.755 E0.4580
G1 X166.909 Y78.659 E0.4841
G1 X166.631 Y78.190 E0.5072
G1 X166.629 Y78.185 E0.5074
G1 X166.538 Y78.015 E0.5156
G1 X166.535 Y78.010 E0.5158
G1 X165.501 Y75.821 E0.6182
G1 X165.490 Y75.754 E0.6211
G1 X165.762 Y73.414 E0.7207
G1 X165.788 Y73.351 E0.7236
G1 X169.351 Y68.884 E0.9652
G1 X169.405 Y68.845 E0.9681
G1 X171.589 Y68.054 E1.0663
G1 X171.655 Y68.049 E1.0691
G1 X173.567 Y68.441 E1.1517
G1 X173.571 Y68.442 E1.1518
G1 X173.684 Y68.469 E1.1568
G1 X173.688 Y68.469 E1.1569
G1 X174.620 Y68.716 E1.1977
G1 X174.625 Y68.718 E1.1979
G1 X174.793 Y68.770 E1.2053
G1 X174.746 Y68.233 E1.2281
G1 X174.746 Y68.228 E1.2284
G1 X174.738 Y68.034 E1.2366
G1 X174.738 Y68.028 E1.2368
G1 X174.757 Y65.607 E1.3392
G1 X174.776 Y65.542 E1.3421
G1 X176.036 Y63.553 E1.4417
G1 X176.087 Y63.508 E1.4445
G1 X181.235 Y61.029 E1.6862
G1 X181.301 Y61.017 E1.6890
G1 X183.613 Y61.253 E1.7874
G1 X183.675 Y61.277 E1.7902
G1 X185.228 Y62.462 E1.8728
G1 X185.231 Y62.464 E1.8729
G1 X185.323 Y62.538 E1.8779
G1 X185.325 Y62.540 E1.8781
G1 X186.056 Y63.167 E1.9188
G1 X186.060 Y63.170 E1.9190
G1 X186.175 Y63.278 E1.9256
G1 X186.230 Y63.134 E1.9322
G1 X186.232 Y63.129 E1.9324
G1 X186.620 Y62.246 E1.9732
G1 X186.621 Y62.243 E1.9733
G1 X186.672 Y62.136 E1.9783
G1 X186.673 Y62.133 E1.9785
G1 X187.561 Y60.389 E2.0612
G1 X187.606 Y60.341 E2.0640
G1 X189.587 Y59.126 E2.1623
G1 X189.651 Y59.108 E2.1651
G1 X195.347 Y59.108 E2.4060
G1 X195.410 Y59.126 E2.4088
G1 X197.390 Y60.337 E2.5070
G1 X197.435 Y60.386 E2.5098
G1 X198.329 Y62.136 E2.5929
G1 X198.331 Y62.140 E2.5931
G1 X198.396 Y62.280 E2.5996
G1 X198.397 Y62.284 E2.5998
G1 X198.823 Y63.299 E2.6463
G1 X199.222 Y62.920 E2.6696
G1 X199.226 Y62.917 E2.6698
G1 X199.371 Y62.792 E2.6779
G1 X199.375 Y62.788 E2.6782
G1 X201.278 Y61.292 E2.7805
G1 X201.340 Y61.266 E2.7834
G1 X203.684 Y61.010 E2.8831
G1 X203.750 Y61.021 E2.8859
G1 X208.898 Y63.500 E3.1276
G1 X208.947 Y63.544 E3.1304
G1 X210.205 Y65.495 E3.2285
G1 X210.224 Y65.558 E3.2313
G1 X210.270 Y67.506 E3.3138
G1 X210.270 Y67.510 E3.3139
G1 X210.269 Y67.631 E3.3190
G1 X210.269 Y67.634 E3.3192
G1 X210.235 Y68.603 E3.3602
G1 X210.234 Y68.608 E3.3604
G1 X210.222 Y68.766 E3.3671
G1 X210.369 Y68.720 E3.3736
G1 X210.374 Y68.718 E3.3738
G1 X211.310 Y68.470 E3.4147
G1 X211.313 Y68.469 E3.4149
G1 X211.428 Y68.442 E3.4199
G1 X211.431 Y68.441 E3.4200
G1 X213.344 Y68.049 E3.5026
G1 X213.410 Y68.054 E3.5054
G1 X215.594 Y68.845 E3.6037
G1 X215.648 Y68.884 E3.6065
G1 X219.200 Y73.338 E3.8474
G1 X219.226 Y73.399 E3.8502
G1 X219.512 Y75.702 E3.9484
G1 X219.502 Y75.768 E3.9512
G1 X218.698 Y77.542 E4.0336
G1 X218.697 Y77.545 E4.0337
G1 X218.644 Y77.653 E4.0388
G1 X218.642 Y77.656 E4.0390
G1 X218.193 Y78.511 E4.0798
G1 X218.190 Y78.515 E4.0800
G1 X218.101 Y78.669 E4.0875
G1 X218.641 Y78.745 E4.1106
G1 X218.647 Y78.746 E4.1109
G1 X218.834 Y78.781 E4.1189
G1 X218.839 Y78.782 E4.1192
G1 X221.191 Y79.336 E4.2213
G1 X221.250 Y79.369 E4.2242
G1 X222.910 Y81.042 E4.3239
G1 X222.943 Y81.101 E4.3267
G1 X224.215 Y86.672 E4.5684
G1 X224.211 Y86.738 E4.5712
G1 X223.469 Y88.939 E4.6695
G1 X223.431 Y88.994 E4.6723
G1 X221.935 Y90.243 E4.7547
G1 X221.932 Y90.245 E4.7549
G1 X221.838 Y90.319 E4.7599
G1 X221.836 Y90.321 E4.7601
G1 X221.058 Y90.897 E4.8010
G1 X221.054 Y90.900 E4.8012
G1 X220.923 Y90.988 E4.8079
G1 X220.950 Y91.005 E4.8092
G1 X220.953 Y91.008 E4.8094
G1 X221.071 Y91.089 E4.8154
G1 X221.074 Y91.091 E4.8156
G1 X221.831 Y91.652 E4.8554
G1 X221.833 Y91.654 E4.8556
G1 X221.925 Y91.727 E4.8605
G1 X221.928 Y91.729 E4.8607
G1 X223.431 Y92.982 E4.9434
G1 X223.468 Y93.037 E4.9462
G1 X224.211 Y95.239 E5.0445
G1 X224.215 Y95.305 E5.0473
G1 X222.943 Y100.876 E5.2890
G1 X222.910 Y100.935 E5.2919
G1 X221.250 Y102.608 E5.3916
G1 X221.191 Y102.641 E5.3944
G1 X218.839 Y103.195 E5.4966
G1 X218.834 Y103.196 E5.4968
G1 X218.647 Y103.231 E5.5049
G1 X218.641 Y103.232 E5.5051
G1 X218.101 Y103.307 E5.5282
G1 X218.185 Y103.451 E5.5352
G1 X218.187 Y103.456 E5.5355
G1 X218.638 Y104.310 E5.5763
G1 X218.639 Y104.314 E5.5765
G1 X218.693 Y104.424 E5.5816
G1 X218.694 Y104.427 E5.5818
G1 X219.502 Y106.210 E5.6646
G1 X219.512 Y106.276 E5.6674
G1 X219.226 Y108.579 E5.7656
G1 X219.200 Y108.640 E5.7684
G1 X215.648 Y113.093 E6.0093
G1 X215.594 Y113.132 E6.0121
G1 X213.410 Y113.923 E6.1103
G1 X213.344 Y113.928 E6.1131
G1 X211.430 Y113.536 E6.1958
G1 X211.427 Y113.535 E6.1959
G1 X211.310 Y113.507 E6.2010
G1 X211.307 Y113.507 E6.2011
G1 X210.380 Y113.260 E6.2417
G1 X210.375 Y113.258 E6.2419
G1 X210.222 Y113.210 E6.2487
G1 X210.234 Y113.362 E6.2551
G1 X210.234 Y113.367 E6.2553
G1 X210.269 Y114.333 E6.2962
G1 X210.269 Y114.336 E6.2964
G1 X210.270 Y114.457 E6.3015
G1 X210.270 Y114.461 E6.3016
G1 X210.225 Y116.417 E6.3844
G1 X210.205 Y116.480 E6.3872
G1 X208.948 Y118.432 E6.4854
G1 X208.898 Y118.476 E6.4882
G1 X203.751 Y120.954 E6.7298
G1 X203.685 Y120.966 E6.7326
G1 X201.343 Y120.711 E6.8323
G1 X201.281 Y120.685 E6.8351
G1 X199.381 Y119.194 E6.9373
G1 X199.376 Y119.190 E6.9375
G1 X199.231 Y119.065 E6.9456
G1 X199.227 Y119.061 E6.9459
G1 X198.830 Y118.684 E6.9690
G1 X198.770 Y118.839 E6.9760
G1 X198.768 Y118.844 E6.9762
G1 X198.382 Y119.727 E7.0170
G1 X198.380 Y119.730 E7.0172
G1 X198.328 Y119.840 E7.0223
G1 X198.326 Y119.843 E7.0225
G1 X197.437 Y121.589 E7.1053
G1 X197.392 Y121.638 E7.1081
G1 X195.412 Y122.851 E7.2064
G1 X195.348 Y122.869 E7.2092
G1 X189.650 Y122.869 E7.4501
G1 X189.586 Y122.851 E7.4529
G1 X187.605 Y121.636 E7.5513
G1 X187.560 Y121.587 E7.5541
G1 X186.677 Y119.850 E7.6365
G1 X186.675 Y119.847 E7.6366
G1 X186.625 Y119.742 E7.6415
G1 X186.624 Y119.739 E7.6417
G1 X186.244 Y118.875 E7.6816
G1 X186.243 Y118.871 E7.6818
G1 X186.191 Y118.742 E7.6877
G1 X186.190 Y118.738 E7.6878
G1 X186.170 Y118.684 E7.6902
G1 X185.774 Y119.060 E7.7134
G1 X185.770 Y119.064 E7.7136
G1 X185.624 Y119.190 E7.7217
G1 X185.620 Y119.194 E7.7220
G1 X183.719 Y120.685 E7.8242
G1 X183.657 Y120.711 E7.8270
G1 X181.315 Y120.966 E7.9266
G1 X181.249 Y120.954 E7.9295
G1 X176.102 Y118.476 E8.1711
G1 X176.053 Y118.432 E8.1739
G1 X174.795 Y116.481 E8.2720
G1 X174.776 Y116.418 E8.2748
G1 X174.730 Y114.471 E8.3572
G1 X174.730 Y114.467 E8.3574
G1 X174.731 Y114.347 E8.3625
G1 X174.731 Y114.343 E8.3626
G1 X174.765 Y113.378 E8.4035
G1 X174.765 Y113.373 E8.4037
G1 X174.778 Y113.210 E8.4106
G1 X174.633 Y113.256 E8.4170
G1 X174.628 Y113.257 E8.4172
G1 X173.692 Y113.507 E8.4582
G1 X173.689 Y113.507 E8.4583
G1 X173.572 Y113.535 E8.4634
G1 X173.569 Y113.536 E8.4635
G1 X171.655 Y113.928 E8.5462
G1 X171.589 Y113.923 E8.5490
G1 X169.405 Y113.132 E8.6472
G1 X169.351 Y113.093 E8.6500
G1 X165.799 Y108.639 E8.8910
G1 X165.773 Y108.578 E8.8938
G1 X165.487 Y106.273 E8.9920
G1 X165.497 Y106.207 E8.9948
G1 X166.303 Y104.432 E9.0773
G1 X166.304 Y104.429 E9.0774
G1 X166.357 Y104.322 E9.0825
G1 X166.358 Y104.319 E9.0826
G1 X166.807 Y103.466 E9.1234
G1 X166.809 Y103.461 E9.1236
G1 X166.898 Y103.309 E9.1311
G1 X166.899 Y103.308 E9.1311
G1 X166.358 Y103.232 E9.1542
G1 X166.352 Y103.231 E9.1545
G1 X166.165 Y103.196 E9.1625
G1 X166.159 Y103.195 E9.1628
G1 X163.809 Y102.640 E9.2649
G1 X163.750 Y102.608 E9.2678
G1 X162.089 Y100.935 E9.3674
G1 X162.057 Y100.876 E9.3703
G1 X160.786 Y95.306 E9.6119
G1 X160.789 Y95.240 E9.6147
G1 X161.530 Y93.040 E9.7129
G1 X161.567 Y92.986 E9.7157
G1 X163.062 Y91.736 E9.7981
G1 X163.065 Y91.734 E9.7982
G1 X163.159 Y91.659 E9.8033
G1 X163.162 Y91.657 E9.8035
G1 X163.941 Y91.080 E9.8445
G1 X163.946 Y91.076 E9.8447
G1 X164.077 Y90.988 E9.8514
G1 X164.047 Y90.969 E9.8529
G1 X164.044 Y90.966 E9.8531
G1 X163.932 Y90.889 E9.8589
G1 X163.929 Y90.887 E9.8590
G1 X163.172 Y90.328 E9.8988
G1 X163.169 Y90.326 E9.8990
G1 X163.073 Y90.250 E9.9042
G1 X163.070 Y90.247 E9.9043
G1 X161.568 Y88.992 E9.9871
G1 X161.530 Y88.937 E9.9899
G1 X160.789 Y86.737 E10.0881
G92 E0
G1 E-4.0000 F3600
; inner perimeter
G1 X166.511 Y86.031 F4200
G1 E0.0000 F3600
G92 E0
G1 X166.935 Y84.178 E0.0804 F1500
G1 X167.255 Y84.112 E0.0942
G1 X167.989 Y83.995 E0.1257
G1 X168.326 Y83.961 E0.1400
G1 X168.650 Y83.940 E0.1537
G1 X169.331 Y83.939 E0.1825
G1 X169.616 Y83.961 E0.1946
G1 X169.901 Y84.001 E0.2068
G1 X170.478 Y84.120 E0.2317
G1 X171.014 Y84.158 E0.2545
G1 X171.383 Y84.132 E0.2701
G1 X171.812 Y84.040 E0.2887
G1 X172.547 Y83.689 E0.3231
G1 X173.474 Y81.845 E0.4104
G1 X174.332 Y79.984 E0.4971
G1 X174.240 Y79.395 E0.5223
G1 X174.148 Y79.105 E0.5351
G1 X173.974 Y78.754 E0.5517
G1 X173.766 Y78.453 E0.5672
G1 X173.403 Y78.056 E0.5899
G1 X172.950 Y77.679 E0.6149
G1 X172.742 Y77.482 E0.6270
G1 X172.535 Y77.260 E0.6398
G1 X172.339 Y77.026 E0.6527
G1 X171.929 Y76.463 E0.6822
G1 X171.752 Y76.188 E0.6960
G1 X171.385 Y75.543 E0.7274
G1 X171.235 Y75.246 E0.7415
G1 X172.420 Y73.761 E0.8218
G1 X173.110 Y73.944 E0.8520
G1 X173.430 Y74.047 E0.8662
G1 X174.085 Y74.296 E0.8958
G1 X174.684 Y74.585 E0.9240
G1 X174.933 Y74.728 E0.9361
G1 X175.172 Y74.889 E0.9483
G1 X175.621 Y75.232 E0.9722
G1 X175.891 Y75.400 E0.9857
G1 X176.419 Y75.642 E1.0102
G1 X176.823 Y75.739 E1.0278
G1 X177.127 Y75.767 E1.0407
G1 X177.728 Y75.725 E1.0662
G1 X179.339 Y74.485 E1.1522
G1 X180.942 Y73.161 E1.2401
G1 X181.122 Y72.368 E1.2745
G1 X181.116 Y71.928 E1.2931
G1 X181.061 Y71.567 E1.3086
G1 X180.904 Y71.051 E1.3314
G1 X180.663 Y70.518 E1.3561
G1 X180.558 Y70.245 E1.3685
G1 X180.469 Y69.958 E1.3812
G1 X180.394 Y69.661 E1.3942
G1 X180.269 Y68.977 E1.4236
G1 X180.229 Y68.652 E1.4374
G1 X180.178 Y67.911 E1.4688
G1 X180.171 Y67.579 E1.4829
G1 X181.883 Y66.755 E1.5632
G1 X182.425 Y67.220 E1.5934
G1 X182.671 Y67.452 E1.6077
G1 X183.148 Y67.956 E1.6371
G1 X183.563 Y68.476 E1.6652
G1 X183.727 Y68.717 E1.6776
G1 X183.875 Y68.968 E1.6899
G1 X184.129 Y69.469 E1.7137
