; G-Code generated by Simplify3D(R) Version 3.1.1
; Mar 9, 2017 at 5:31:57 PM
; Settings Summary
;   processName,Process1
;   applyToModels,ExhaustFanMount
;   profileName,Kossel Mini (modified)
;   profileVersion,2017-03-07 18:00:27
;   baseProfile,
;   printMaterial,PLA+
;   printQuality,Medium
;   printExtruders,
;   extruderName,Primary Extruder
;   extruderToolheadNumber,0
;   extruderDiameter,0.4
;   extruderAutoWidth,1
;   extruderWidth,0.48
;   extrusionMultiplier,1
;   extruderUseRetract,1
;   extruderRetractionDistance,4
;   extruderExtraRestartDistance,0
;   extruderRetractionZLift,0.1
;   extruderRetractionSpeed,3600
;   extruderUseCoasting,0
;   extruderCoastingDistance,5
;   extruderUseWipe,1
;   extruderWipeDistance,2
;   primaryExtruder,0
;   layerHeight,0.3
;   topSolidLayers,3
;   bottomSolidLayers,3
;   perimeterOutlines,3
;   printPerimetersInsideOut,1
;   startPointOption,2
;   startPointOriginX,0
;   startPointOriginY,0
;   startPointOriginZ,300
;   sequentialIslands,0
;   spiralVaseMode,0
;   firstLayerHeightPercentage,80
;   firstLayerWidthPercentage,120
;   firstLayerUnderspeed,0.5
;   useRaft,0
;   raftExtruder,0
;   raftLayers,3
;   raftOffset,3
;   raftSeparationDistance,0.14
;   raftInfill,85
;   disableRaftBaseLayers,0
;   useSkirt,1
;   skirtExtruder,0
;   skirtLayers,1
;   skirtOutlines,1
;   skirtOffset,4
;   usePrimePillar,0
;   primePillarExtruder,999
;   primePillarWidth,12
;   primePillarLocation,7
;   primePillarSpeedMultiplier,1
;   useOozeShield,0
;   oozeShieldExtruder,999
;   oozeShieldOffset,2
;   oozeShieldOutlines,1
;   oozeShieldSidewallShape,1
;   oozeShieldSidewallAngle,30
;   oozeShieldSpeedMultiplier,1
;   infillExtruder,0
;   internalInfillPattern,Rectilinear
;   externalInfillPattern,Rectilinear
;   infillPercentage,20
;   outlineOverlapPercentage,30
;   infillExtrusionWidthPercentage,110
;   minInfillLength,2
;   infillLayerInterval,1
;   infillAngles,45,-45
;   overlapInfillAngles,0
;   generateSupport,1
;   supportExtruder,0
;   supportInfillPercentage,30
;   supportExtraInflation,0
;   denseSupportLayers,0
;   denseSupportInfillPercentage,70
;   supportLayerInterval,1
;   supportHorizontalPartOffset,0.3
;   supportUpperSeparationLayers,1
;   supportLowerSeparationLayers,1
;   supportType,0
;   supportGridSpacing,4
;   maxOverhangAngle,45
;   supportAngles,0
;   temperatureName,Primary Extruder,Heated Bed
;   temperatureNumber,0,1
;   temperatureSetpointCount,2,3
;   temperatureSetpointLayers,1,2,1,2,3
;   temperatureSetpointTemperatures,230,225,70,65,60
;   temperatureStabilizeAtStartup,1,1
;   temperatureHeatedBed,0,1
;   temperatureRelayBetweenLayers,0,0
;   temperatureRelayBetweenLoops,0,0
;   fanLayers,1,2,3
;   fanSpeeds,0,50,100
;   blipFanToFullPower,1
;   adjustSpeedForCooling,1
;   minSpeedLayerTime,15
;   minCoolingSpeedSlowdown,20
;   increaseFanForCooling,0
;   minFanLayerTime,60
;   maxCoolingFanSpeed,100
;   increaseFanForBridging,1
;   bridgingFanSpeed,100
;   use5D,1
;   relativeEdistances,0
;   allowEaxisZeroing,1
;   independentExtruderAxes,0
;   includeM10123,0
;   stickySupport,1
;   applyToolheadOffsets,0
;   gcodeXoffset,0
;   gcodeYoffset,0
;   gcodeZoffset,0
;   overrideMachineDefinition,1
;   machineTypeOverride,1
;   strokeXoverride,190
;   strokeYoverride,190
;   strokeZoverride,204.4
;   originOffsetXoverride,95
;   originOffsetYoverride,95
;   originOffsetZoverride,0
;   homeXdirOverride,0
;   homeYdirOverride,0
;   homeZdirOverride,1
;   flipXoverride,1
;   flipYoverride,-1
;   flipZoverride,1
;   toolheadOffsets,0,0|0,0|0,0|0,0|0,0|0,0
;   overrideFirmwareConfiguration,1
;   firmwareTypeOverride,RepRap (Marlin/Repetier/Sprinter)
;   GPXconfigOverride,r2
;   baudRateOverride,115200
;   overridePrinterModels,1
;   printerModelsOverride
;   startingGcode,G28 ; home all axes
;   layerChangeGcode,
;   retractionGcode,
;   toolChangeGcode,
;   endingGcode,M104 S0 ; turn off extruder,M140 S0 ; turn off bed,M107 ; turn off cooling fan,G28 ; home axes,M84 ; disable motors
;   exportFileFormat,gcode
;   celebration,0
;   celebrationSong,Random Song
;   postProcessing,
;   defaultSpeed,3600
;   outlineUnderspeed,0.5
;   solidInfillUnderspeed,0.8
;   supportUnderspeed,0.8
;   rapidXYspeed,6000
;   rapidZspeed,1200
;   minBridgingArea,50
;   bridgingExtraInflation,0
;   bridgingExtrusionMultiplier,0.95
;   bridgingSpeedMultiplier,0.7
;   filamentDiameter,1.73
;   filamentPricePerKg,25
;   filamentDensity,1.25
;   useMinPrintHeight,0
;   minPrintHeight,0
;   useMaxPrintHeight,0
;   maxPrintHeight,10
;   useDiaphragm,0
;   diaphragmLayerInterval,20
;   robustSlicing,1
;   mergeAllIntoSolid,0
;   onlyRetractWhenCrossingOutline,1
;   retractBetweenLayers,1
;   useRetractionMinTravel,0
;   retractionMinTravel,3
;   retractWhileWiping,0
;   onlyWipeOutlines,1
;   avoidCrossingOutline,0
;   maxMovementDetourFactor,3
;   toolChangeRetractionDistance,12
;   toolChangeExtraRestartDistance,-0.5
;   toolChangeRetractionSpeed,600
;   allowThinWallGapFill,1
;   thinWallAllowedOverlapPercentage,10
;   horizontalSizeCompensation,0
G90
M82
M106 S0
M140 S70
M190 S70
M104 S230 T0
M109 S230 T0
G28 ; home all axes
G92 E0
G1 E-4.0000 F3600
G1 Z0.340 F1200
; layer 1, Z = 0.24
T0
; tool H0.300 W0.576
; skirt
G1 X21.899 Y37.456 F6000
G1 Z0.240 F1200
G1 E0.0000 F1080
G92 E0
G1 X21.899 Y37.490 E0.0024 F1800
G1 X21.817 Y42.728 E0.3875
G1 X21.780 Y42.815 E0.3944
G1 X19.377 Y45.181 E0.6423
G1 X19.290 Y45.217 E0.6492
G1 X-19.363 Y45.217 E3.4907
G1 X-19.452 Y45.180 E3.4978
G1 X-21.862 Y42.769 E3.7484
G1 X-21.899 Y42.681 E3.7554
G1 X-21.899 Y-42.681 E10.0306
G1 X-21.862 Y-42.769 E10.0376
G1 X-19.452 Y-45.180 E10.2882
G1 X-19.363 Y-45.217 E10.2952
G1 X19.345 Y-45.217 E13.1408
G1 X19.434 Y-45.180 E13.1478
G1 X21.844 Y-42.770 E13.3984
G1 X21.881 Y-42.682 E13.4054
G1 X21.899 Y37.456 E19.2966
G92 E0
G1 E-4.0000 F3600
G1 Z0.340 F1200
; inner perimeter
G1 X16.219 Y37.430 F6000
G1 Z0.240 F1200
G1 E0.0000 F3600
G92 E0
G1 X16.186 Y39.536 E0.1549 F1500
G1 X14.725 Y39.536 E0.2623
G1 X14.993 Y38.891 E0.3136
G1 X15.094 Y38.127 E0.3703
G1 X14.993 Y37.362 E0.4270
G1 X14.698 Y36.650 E0.4836
G1 X14.229 Y36.039 E0.5403
G1 X13.617 Y35.570 E0.5969
G1 X12.905 Y35.275 E0.6536
G1 X12.141 Y35.174 E0.7103
G1 X11.507 Y35.257 E0.7573
G1 X12.907 Y33.433 E0.9263
G1 X14.397 Y29.836 E1.2125
G1 X14.905 Y25.977 E1.4987
G1 X14.397 Y22.117 E1.7849
G1 X12.907 Y18.520 E2.0711
G1 X11.507 Y16.695 E2.2401
G1 X12.141 Y16.779 E2.2872
G1 X12.905 Y16.678 E2.3438
G1 X13.617 Y16.383 E2.4005
G1 X14.229 Y15.914 E2.4571
G1 X14.698 Y15.303 E2.5138
G1 X14.993 Y14.591 E2.5704
G1 X15.094 Y13.826 E2.6271
G1 X14.993 Y13.062 E2.6838
G1 X14.698 Y12.350 E2.7404
G1 X14.229 Y11.739 E2.7971
G1 X13.617 Y11.270 E2.8537
G1 X12.905 Y10.975 E2.9104
G1 X12.141 Y10.874 E2.9671
G1 X11.377 Y10.975 E3.0237
G1 X10.665 Y11.270 E3.0804
G1 X10.054 Y11.739 E3.1370
G1 X9.584 Y12.350 E3.1937
G1 X9.289 Y13.062 E3.2504
G1 X9.189 Y13.826 E3.3070
G1 X9.272 Y14.461 E3.3540
G1 X7.448 Y13.061 E3.5231
G1 X3.851 Y11.571 E3.8093
G1 X-0.009 Y11.063 E4.0955
G1 X-3.869 Y11.571 E4.3817
G1 X-7.466 Y13.061 E4.6679
G1 X-9.290 Y14.461 E4.8369
G1 X-9.206 Y13.826 E4.8839
G1 X-9.307 Y13.062 E4.9406
G1 X-9.602 Y12.350 E4.9972
G1 X-10.071 Y11.739 E5.0539
G1 X-10.683 Y11.270 E5.1105
G1 X-11.395 Y10.975 E5.1672
G1 X-12.159 Y10.874 E5.2239
G1 X-12.923 Y10.975 E5.2805
G1 X-13.635 Y11.270 E5.3372
G1 X-14.246 Y11.739 E5.3938
G1 X-14.716 Y12.350 E5.4505
G1 X-15.011 Y13.062 E5.5072
G1 X-15.111 Y13.826 E5.5638
G1 X-15.011 Y14.591 E5.6205
G1 X-14.716 Y15.303 E5.6771
G1 X-14.247 Y15.914 E5.7338
G1 X-13.635 Y16.383 E5.7905
G1 X-12.923 Y16.678 E5.8471
G1 X-12.159 Y16.779 E5.9038
G1 X-11.525 Y16.695 E5.9508
G1 X-12.925 Y18.520 E6.1198
G1 X-14.414 Y22.117 E6.4060
G1 X-14.923 Y25.977 E6.6922
G1 X-14.414 Y29.836 E6.9784
G1 X-12.925 Y33.433 E7.2646
G1 X-11.525 Y35.258 E7.4337
G1 X-12.159 Y35.174 E7.4807
G1 X-12.923 Y35.275 E7.5373
G1 X-13.635 Y35.570 E7.5940
G1 X-14.246 Y36.039 E7.6506
G1 X-14.716 Y36.650 E7.7073
G1 X-15.011 Y37.362 E7.7640
G1 X-15.111 Y38.127 E7.8206
G1 X-15.011 Y38.891 E7.8773
G1 X-14.743 Y39.536 E7.9287
G1 X-16.219 Y39.536 E8.0371
G1 X-16.219 Y-30.773 E13.2058
G1 X-15.788 Y-30.801 E13.2375
G1 X-15.704 Y-30.161 E13.2850
G1 X-15.389 Y-29.400 E13.3455
G1 X-14.888 Y-28.747 E13.4060
G1 X-14.235 Y-28.246 E13.4665
G1 X-13.475 Y-27.931 E13.5270
G1 X-12.659 Y-27.824 E13.5875
G1 X-11.843 Y-27.931 E13.6480
G1 X-11.083 Y-28.246 E13.7085
G1 X-10.430 Y-28.747 E13.7689
G1 X-9.929 Y-29.400 E13.8294
G1 X-9.614 Y-30.161 E13.8899
G1 X-9.506 Y-30.977 E13.9504
G1 X-9.614 Y-31.792 E14.0109
G1 X-9.929 Y-32.553 E14.0714
G1 X-10.430 Y-33.206 E14.1319
G1 X-11.083 Y-33.707 E14.1924
G1 X-11.843 Y-34.022 E14.2529
G1 X-12.659 Y-34.129 E14.3134
G1 X-13.475 Y-34.022 E14.3739
G1 X-14.235 Y-33.707 E14.4344
G1 X-14.888 Y-33.206 E14.4949
G1 X-15.389 Y-32.553 E14.5554
G1 X-15.704 Y-31.792 E14.6159
G1 X-15.788 Y-31.152 E14.6634
G1 X-16.219 Y-31.180 E14.6951
G1 X-16.219 Y-39.536 E15.3094
G1 X16.201 Y-39.536 E17.6927
G1 X16.203 Y-31.181 E18.3070
G1 X15.773 Y-31.153 E18.3387
G1 X15.688 Y-31.792 E18.3861
G1 X15.374 Y-32.553 E18.4466
G1 X14.872 Y-33.206 E18.5071
G1 X14.220 Y-33.707 E18.5676
G1 X13.459 Y-34.022 E18.6281
G1 X12.643 Y-34.129 E18.6886
G1 X11.828 Y-34.022 E18.7491
G1 X11.067 Y-33.707 E18.8096
G1 X10.414 Y-33.206 E18.8701
G1 X9.913 Y-32.553 E18.9306
G1 X9.598 Y-31.792 E18.9911
G1 X9.491 Y-30.977 E19.0516
G1 X9.598 Y-30.161 E19.1121
G1 X9.913 Y-29.400 E19.1726
G1 X10.414 Y-28.747 E19.2331
G1 X11.067 Y-28.246 E19.2936
G1 X11.828 Y-27.931 E19.3541
G1 X12.643 Y-27.824 E19.4146
G1 X13.459 Y-27.931 E19.4751
G1 X14.220 Y-28.246 E19.5356
G1 X14.873 Y-28.747 E19.5961
G1 X15.374 Y-29.400 E19.6566
G1 X15.688 Y-30.161 E19.7171
G1 X15.773 Y-30.802 E19.7646
G1 X16.203 Y-30.774 E19.7963
G1 X16.219 Y37.430 E24.8102
G92 E0
G1 E-4.0000 F3600
G1 Z0.340 F1200
G1 X9.272 Y37.492 F6000
G1 Z0.240 F1200
G1 E0.0000 F3600
G92 E0
G1 X9.189 Y38.127 E0.0470 F1500
G1 X9.289 Y38.891 E0.1037
G1 X9.557 Y39.536 E0.1551
G1 X6.862 Y39.536 E0.3532
G1 X6.788 Y39.166 E0.3810
G1 X7.448 Y38.892 E0.4335
G1 X9.272 Y37.492 E0.6025
G92 E0
G1 E-4.0000 F3600
G1 Z0.340 F1200
G1 X-6.806 Y39.166 F6000
G1 Z0.240 F1200
G1 E0.0000 F3600
G92 E0
G1 X-6.879 Y39.536 E0.0278 F1500
G1 X-9.575 Y39.536 E0.2259
G1 X-9.307 Y38.891 E0.2773
G1 X-9.206 Y38.126 E0.3340
G1 X-9.290 Y37.492 E0.3810
G1 X-7.466 Y38.892 E0.5500
G1 X-6.806 Y39.166 E0.6025
G92 E0
G1 E-4.0000 F3600
G1 Z0.340 F1200
; inner perimeter
G1 X16.795 Y37.434 F6000
G1 Z0.240 F1200
G1 E0.0000 F3600
G92 E0
G1 X16.753 Y40.112 E0.1969 F1200
G1 X13.581 Y40.112 E0.4301
G1 X14.195 Y39.312 E0.5043
G1 X14.432 Y38.740 E0.5498
G1 X14.513 Y38.127 E0.5953
G1 X14.432 Y37.513 E0.6408
G1 X14.195 Y36.941 E0.6863
G1 X13.818 Y36.450 E0.7318
G1 X13.327 Y36.073 E0.7773
G1 X12.755 Y35.836 E0.8228
G1 X12.141 Y35.755 E0.8684
G1 X11.527 Y35.836 E0.9139
G1 X10.955 Y36.073 E0.9594
G1 X10.464 Y36.450 E1.0049
G1 X10.087 Y36.941 E1.0504
G1 X9.851 Y37.513 E1.0959
G1 X9.770 Y38.127 E1.1414
G1 X9.851 Y38.740 E1.1869
G1 X10.087 Y39.312 E1.2324
G1 X10.701 Y40.112 E1.3066
G1 X3.966 Y40.112 E1.8017
G1 X3.892 Y39.742 E1.8295
G1 X7.158 Y38.389 E2.0893
G1 X10.126 Y36.111 E2.3644
G1 X12.404 Y33.143 E2.6395
G1 X13.836 Y29.686 E2.9145
G1 X14.324 Y25.977 E3.1896
G1 X13.836 Y22.267 E3.4646
G1 X12.404 Y18.810 E3.7397
G1 X10.126 Y15.842 E4.0147
G1 X7.158 Y13.564 E4.2898
G1 X3.701 Y12.132 E4.5648
G1 X-0.009 Y11.644 E4.8399
G1 X-3.718 Y12.132 E5.1150
G1 X-7.175 Y13.564 E5.3900
G1 X-10.144 Y15.842 E5.6651
G1 X-12.421 Y18.810 E5.9401
G1 X-13.853 Y22.267 E6.2152
G1 X-14.342 Y25.977 E6.4902
G1 X-13.853 Y29.686 E6.7653
G1 X-12.421 Y33.143 E7.0403
G1 X-10.144 Y36.111 E7.3154
G1 X-7.175 Y38.389 E7.5905
G1 X-3.910 Y39.742 E7.8503
G1 X-3.984 Y40.112 E7.8781
G1 X-10.719 Y40.112 E8.3732
G1 X-10.105 Y39.312 E8.4474
G1 X-9.868 Y38.740 E8.4929
G1 X-9.787 Y38.127 E8.5384
G1 X-9.868 Y37.513 E8.5839
G1 X-10.105 Y36.941 E8.6294
G1 X-10.482 Y36.450 E8.6749
G1 X-10.973 Y36.073 E8.7204
G1 X-11.545 Y35.836 E8.7659
G1 X-12.159 Y35.755 E8.8114
G1 X-12.773 Y35.836 E8.8570
G1 X-13.345 Y36.073 E8.9025
G1 X-13.836 Y36.450 E8.9480
G1 X-14.213 Y36.941 E8.9935
G1 X-14.449 Y37.513 E9.0390
G1 X-14.530 Y38.127 E9.0845
G1 X-14.449 Y38.740 E9.1300
G1 X-14.213 Y39.312 E9.1755
G1 X-13.599 Y40.112 E9.2497
G1 X-16.795 Y40.112 E9.4846
G1 X-16.795 Y-40.112 E15.3822
G1 X16.777 Y-40.112 E17.8502
G1 X16.795 Y37.434 E23.5508
; outer perimeter
G1 X17.371 Y37.438 F6000
G92 E0
G1 X17.320 Y40.688 E0.2389 F900
G1 X-17.371 Y40.688 E2.7892
G1 X-17.371 Y-40.688 E8.7714
G1 X17.353 Y-40.688 E11.3241
G1 X17.371 Y37.438 E17.0674
G1 X17.340 Y39.438 F3600
; inner perimeter
; inner perimeter
; outer perimeter
G1 X13.932 Y38.126 F6000
G92 E0
G1 X13.871 Y37.663 E0.0344 F900
G1 X13.692 Y37.231 E0.0687
G1 X13.407 Y36.860 E0.1031
G1 X13.036 Y36.576 E0.1374
G1 X12.605 Y36.397 E0.1718
G1 X12.141 Y36.336 E0.2062
G1 X11.678 Y36.397 E0.2405
G1 X11.246 Y36.576 E0.2749
G1 X10.875 Y36.860 E0.3092
G1 X10.591 Y37.231 E0.3436
G1 X10.412 Y37.663 E0.3780
G1 X10.351 Y38.127 E0.4123
G1 X10.412 Y38.590 E0.4467
G1 X10.591 Y39.022 E0.4810
G1 X10.875 Y39.393 E0.5154
G1 X11.246 Y39.677 E0.5498
G1 X11.678 Y39.856 E0.5841
G1 X12.141 Y39.917 E0.6185
G1 X12.605 Y39.856 E0.6529
G1 X13.036 Y39.677 E0.6872
G1 X13.407 Y39.393 E0.7216
G1 X13.692 Y39.022 E0.7559
G1 X13.871 Y38.590 E0.7903
G1 X13.932 Y38.127 E0.8247
G1 X13.871 Y37.663 F3600
G1 X13.692 Y37.231 F3600
G1 X13.407 Y36.860 F3600
G1 X13.036 Y36.576 F3600
G1 X12.916 Y36.526 F3600
; inner perimeter
; inner perimeter
; outer perimeter
G1 X11.901 Y32.852 F6000
G92 E0
G1 X13.274 Y29.536 E0.2639 F900
G1 X13.743 Y25.977 E0.5278
G1 X13.274 Y22.417 E0.7917
G1 X11.901 Y19.101 E1.0556
G1 X9.715 Y16.252 E1.3195
G1 X6.867 Y14.067 E1.5834
G1 X3.550 Y12.693 E1.8473
G1 X-0.009 Y12.225 E2.1112
G1 X-3.568 Y12.693 E2.3752
G1 X-6.885 Y14.067 E2.6391
G1 X-9.733 Y16.252 E2.9030
G1 X-11.918 Y19.101 E3.1669
G1 X-13.292 Y22.417 E3.4308
G1 X-13.761 Y25.977 E3.6947
G1 X-13.292 Y29.536 E3.9586
G1 X-11.918 Y32.852 E4.2225
G1 X-9.733 Y35.700 E4.4864
G1 X-6.885 Y37.886 E4.7503
G1 X-3.568 Y39.260 E5.0142
G1 X-0.009 Y39.728 E5.2781
G1 X3.550 Y39.260 E5.5420
G1 X6.867 Y37.886 E5.8059
G1 X9.715 Y35.700 E6.0698
G1 X11.901 Y32.852 E6.3337
G92 E0
G1 E-4.0000 F3600
G1 X12.666 Y31.005 F3600
G1 Z0.340 F1200
; inner perimeter
; inner perimeter
G1 X12.755 Y16.117 F6000
G1 Z0.240 F1200
G1 E0.0000 F3600
G92 E0
G1 X13.327 Y15.880 E0.0455 F1200
G1 X13.818 Y15.503 E0.0910
G1 X14.195 Y15.012 E0.1365
G1 X14.432 Y14.440 E0.1820
G1 X14.513 Y13.826 E0.2275
G1 X14.432 Y13.213 E0.2731
G1 X14.195 Y12.641 E0.3186
G1 X13.818 Y12.150 E0.3641
G1 X13.327 Y11.773 E0.4096
G1 X12.755 Y11.536 E0.4551
G1 X12.141 Y11.455 E0.5006
G1 X11.527 Y11.536 E0.5461
G1 X10.955 Y11.773 E0.5916
G1 X10.464 Y12.150 E0.6371
G1 X10.087 Y12.641 E0.6826
G1 X9.851 Y13.213 E0.7282
G1 X9.770 Y13.826 E0.7737
G1 X9.851 Y14.440 E0.8192
G1 X10.087 Y15.012 E0.8647
G1 X10.464 Y15.503 E0.9102
G1 X10.955 Y15.880 E0.9557
G1 X11.527 Y16.117 E1.0012
G1 X12.141 Y16.198 E1.0467
G1 X12.755 Y16.117 E1.0922
; outer perimeter
G1 X12.605 Y15.556 F6000
G92 E0
G1 X13.036 Y15.377 E0.0344 F900
G1 X13.407 Y15.093 E0.0687
G1 X13.692 Y14.722 E0.1031
G1 X13.871 Y14.290 E0.1374
G1 X13.932 Y13.826 E0.1718
G1 X13.871 Y13.363 E0.2062
G1 X13.692 Y12.931 E0.2405
G1 X13.407 Y12.560 E0.2749
G1 X13.036 Y12.276 E0.3092
G1 X12.605 Y12.097 E0.3436
G1 X12.141 Y12.036 E0.3780
G1 X11.678 Y12.097 E0.4123
G1 X11.246 Y12.276 E0.4467
G1 X10.875 Y12.560 E0.4810
G1 X10.591 Y12.931 E0.5154
G1 X10.412 Y13.363 E0.5498
G1 X10.351 Y13.826 E0.5841
G1 X10.412 Y14.290 E0.6185
G1 X10.591 Y14.722 E0.6529
G1 X10.875 Y15.093 E0.6872
G1 X11.246 Y15.377 E0.7216
G1 X11.678 Y15.556 E0.7559
G1 X12.141 Y15.617 E0.7903
G1 X12.605 Y15.556 E0.8247
G1 X13.036 Y15.377 F3600
G1 X13.407 Y15.093 F3600
G1 X13.692 Y14.722 F3600
G1 X13.871 Y14.290 F3600
G1 X13.888 Y14.161 F3600
; inner perimeter
; inner perimeter
G1 X12.755 Y9.417 F6000
G92 E0
G1 X13.327 Y9.180 E0.0455 F1200
G1 X13.818 Y8.803 E0.0910
G1 X14.195 Y8.312 E0.1365
