; G-Code generated by Simplify3D(R) Version 3.1.1
; Mar 11, 2017 at 6:30:48 PM
; Settings Summary
;   processName,Process1
;   applyToModels,MarkerGantryRodClamp,RollerSpacer,RollerSpacer(2)
;   profileName,Belfry (modified)
;   profileVersion,2017-03-09 09:08:18
;   baseProfile,Default
;   printMaterial,PLA+
;   printQuality,Medium
;   printExtruders,
;   extruderName,Extruder 1
;   extruderToolheadNumber,0
;   extruderDiameter,0.4
;   extruderAutoWidth,1
;   extruderWidth,0.48
;   extrusionMultiplier,1
;   extruderUseRetract,1
;   extruderRetractionDistance,4
;   extruderExtraRestartDistance,0
;   extruderRetractionZLift,0
;   extruderRetractionSpeed,3600
;   extruderUseCoasting,0
;   extruderCoastingDistance,0.2
;   extruderUseWipe,1
;   extruderWipeDistance,2
;   primaryExtruder,0
;   layerHeight,0.3
;   topSolidLayers,3
;   bottomSolidLayers,3
;   perimeterOutlines,3
;   printPerimetersInsideOut,1
;   startPointOption,2
;   startPointOriginX,0
;   startPointOriginY,0
;   startPointOriginZ,300
;   sequentialIslands,0
;   spiralVaseMode,0
;   firstLayerHeightPercentage,90
;   firstLayerWidthPercentage,100
;   firstLayerUnderspeed,0.5
;   useRaft,0
;   raftExtruder,0
;   raftLayers,3
;   raftOffset,3
;   raftSeparationDistance,0.14
;   raftInfill,85
;   disableRaftBaseLayers,0
;   useSkirt,1
;   skirtExtruder,0
;   skirtLayers,1
;   skirtOutlines,1
;   skirtOffset,4
;   usePrimePillar,0
;   primePillarExtruder,999
;   primePillarWidth,12
;   primePillarLocation,7
;   primePillarSpeedMultiplier,1
;   useOozeShield,0
;   oozeShieldExtruder,999
;   oozeShieldOffset,2
;   oozeShieldOutlines,1
;   oozeShieldSidewallShape,1
;   oozeShieldSidewallAngle,30
;   oozeShieldSpeedMultiplier,1
;   infillExtruder,0
;   internalInfillPattern,Rectilinear
;   externalInfillPattern,Rectilinear
;   infillPercentage,40
;   outlineOverlapPercentage,15
;   infillExtrusionWidthPercentage,100
;   minInfillLength,5
;   infillLayerInterval,1
;   infillAngles,45,-45
;   overlapInfillAngles,0
;   generateSupport,0
;   supportExtruder,0
;   supportInfillPercentage,30
;   supportExtraInflation,0
;   denseSupportLayers,0
;   denseSupportInfillPercentage,70
;   supportLayerInterval,1
;   supportHorizontalPartOffset,0.3
;   supportUpperSeparationLayers,1
;   supportLowerSeparationLayers,1
;   supportType,0
;   supportGridSpacing,4
;   maxOverhangAngle,45
;   supportAngles,0
;   temperatureName,Extruder 1,Heated Bed
;   temperatureNumber,0,0
;   temperatureSetpointCount,1,3
;   temperatureSetpointLayers,1,1,2,3
;   temperatureSetpointTemperatures,225,70,65,60
;   temperatureStabilizeAtStartup,1,1
;   temperatureHeatedBed,0,1
;   temperatureRelayBetweenLayers,0,0
;   temperatureRelayBetweenLoops,0,0
;   fanLayers,1,2,3
;   fanSpeeds,0,50,100
;   blipFanToFullPower,0
;   adjustSpeedForCooling,1
;   minSpeedLayerTime,15
;   minCoolingSpeedSlowdown,20
;   increaseFanForCooling,0
;   minFanLayerTime,45
;   maxCoolingFanSpeed,100
;   increaseFanForBridging,0
;   bridgingFanSpeed,100
;   use5D,1
;   relativeEdistances,0
;   allowEaxisZeroing,1
;   independentExtruderAxes,0
;   includeM10123,0
;   stickySupport,1
;   applyToolheadOffsets,0
;   gcodeXoffset,0
;   gcodeYoffset,0
;   gcodeZoffset,0
;   overrideMachineDefinition,1
;   machineTypeOverride,0
;   strokeXoverride,300
;   strokeYoverride,200
;   strokeZoverride,350
;   originOffsetXoverride,0
;   originOffsetYoverride,0
;   originOffsetZoverride,0
;   homeXdirOverride,-1
;   homeYdirOverride,-1
;   homeZdirOverride,-1
;   flipXoverride,1
;   flipYoverride,-1
;   flipZoverride,1
;   toolheadOffsets,0,0|0,0|0,0|0,0|0,0|0,0
;   overrideFirmwareConfiguration,1
;   firmwareTypeOverride,RepRap (Marlin/Repetier/Sprinter)
;   GPXconfigOverride,r2
;   baudRateOverride,115200
;   overridePrinterModels,0
;   printerModelsOverride
;   startingGcode,G28 ; home all axes
;   layerChangeGcode,
;   retractionGcode,
;   toolChangeGcode,
;   endingGcode,G91 ;relative positioning,G1 Z+0.5 ;move Z up a bit,G28 X0 Y0 ;move X/Y to min endstops, so the head is out of the way,M104 S0 ; turn off extruder,M140 S0 ; turn off bed,M84 ; disable motors
;   exportFileFormat,gcode
;   celebration,0
;   celebrationSong,Random Song
;   postProcessing,
;   defaultSpeed,3000
;   outlineUnderspeed,0.5
;   solidInfillUnderspeed,0.8
;   supportUnderspeed,0.8
;   rapidXYspeed,4200
;   rapidZspeed,1002
;   minBridgingArea,50
;   bridgingExtraInflation,0
;   bridgingExtrusionMultiplier,1
;   bridgingSpeedMultiplier,1
;   filamentDiameter,1.7
;   filamentPricePerKg,30
;   filamentDensity,1.25
;   useMinPrintHeight,0
;   minPrintHeight,0
;   useMaxPrintHeight,0
;   maxPrintHeight,0
;   useDiaphragm,0
;   diaphragmLayerInterval,20
;   robustSlicing,1
;   mergeAllIntoSolid,0
;   onlyRetractWhenCrossingOutline,1
;   retractBetweenLayers,1
;   useRetractionMinTravel,0
;   retractionMinTravel,3
;   retractWhileWiping,0
;   onlyWipeOutlines,1
;   avoidCrossingOutline,0
;   maxMovementDetourFactor,3
;   toolChangeRetractionDistance,12
;   toolChangeExtraRestartDistance,-0.5
;   toolChangeRetractionSpeed,600
;   allowThinWallGapFill,1
;   thinWallAllowedOverlapPercentage,10
;   horizontalSizeCompensation,0
G90
M82
M106 S0
M140 S70
M190 S70
M104 S225 T0
M109 S225 T0
G28 ; home all axes
G92 E0
G1 E-4.0000 F3600
G1 Z0.270 F1002
; layer 1, Z = 0.27
T0
; tool H0.300 W0.480
; skirt
G1 X110.615 Y73.763 F4200
G1 E0.0000 F1080
G92 E0
G1 X112.129 Y71.619 E0.1665 F1500
G1 X112.134 Y71.613 E0.1670
G1 X112.304 Y71.403 E0.1841
G1 X112.309 Y71.398 E0.1846
G1 X114.090 Y69.470 E0.3511
G1 X114.095 Y69.464 E0.3516
G1 X114.291 Y69.279 E0.3687
G1 X114.297 Y69.273 E0.3692
G1 X116.314 Y67.595 E0.5357
G1 X116.320 Y67.590 E0.5362
G1 X116.538 Y67.431 E0.5533
G1 X116.545 Y67.427 E0.5538
G1 X118.764 Y66.026 E0.7203
G1 X118.771 Y66.022 E0.7208
G1 X119.008 Y65.893 E0.7379
G1 X119.015 Y65.890 E0.7384
G1 X121.397 Y64.791 E0.9049
G1 X121.405 Y64.788 E0.9054
G1 X121.657 Y64.691 E0.9225
G1 X121.664 Y64.688 E0.9230
G1 X124.170 Y63.909 E1.0895
G1 X124.178 Y63.907 E1.0900
G1 X124.440 Y63.844 E1.1071
G1 X124.448 Y63.843 E1.1076
G1 X127.034 Y63.398 E1.2741
G1 X127.042 Y63.397 E1.2746
G1 X127.310 Y63.368 E1.2917
G1 X127.318 Y63.368 E1.2922
G1 X129.940 Y63.264 E1.4587
G1 X129.948 Y63.264 E1.4592
G1 X130.217 Y63.271 E1.4763
G1 X130.225 Y63.271 E1.4768
G1 X132.839 Y63.511 E1.6433
G1 X132.846 Y63.512 E1.6438
G1 X133.113 Y63.554 E1.6609
G1 X133.120 Y63.555 E1.6614
G1 X135.680 Y64.134 E1.8279
G1 X135.688 Y64.136 E1.8284
G1 X135.946 Y64.213 E1.8455
G1 X135.954 Y64.215 E1.8460
G1 X138.416 Y65.123 E2.0125
G1 X138.423 Y65.126 E2.0130
G1 X138.670 Y65.235 E2.0301
G1 X138.677 Y65.239 E2.0306
G1 X141.000 Y66.460 E2.1971
G1 X141.007 Y66.464 E2.1976
G1 X141.237 Y66.605 E2.2147
G1 X141.243 Y66.609 E2.2152
G1 X143.387 Y68.123 E2.3817
G1 X143.393 Y68.128 E2.3822
G1 X143.603 Y68.298 E2.3993
G1 X143.608 Y68.303 E2.3998
G1 X145.536 Y70.084 E2.5663
G1 X145.542 Y70.089 E2.5668
G1 X145.727 Y70.285 E2.5839
G1 X145.733 Y70.291 E2.5844
G1 X147.411 Y72.308 E2.7508
G1 X147.416 Y72.314 E2.7513
G1 X147.575 Y72.532 E2.7685
G1 X147.579 Y72.539 E2.7690
G1 X148.980 Y74.758 E2.9354
G1 X148.984 Y74.764 E2.9359
G1 X149.113 Y75.002 E2.9531
G1 X149.116 Y75.009 E2.9536
G1 X149.996 Y76.916 E3.0869
G1 X150.117 Y76.590 E3.1089
G1 X150.120 Y76.583 E3.1094
G1 X150.229 Y76.336 E3.1265
G1 X150.233 Y76.329 E3.1270
G1 X151.454 Y74.006 E3.2935
G1 X151.458 Y73.999 E3.2940
G1 X151.599 Y73.769 E3.3111
G1 X151.603 Y73.763 E3.3116
G1 X153.117 Y71.619 E3.4781
G1 X153.122 Y71.613 E3.4786
G1 X153.292 Y71.403 E3.4957
G1 X153.297 Y71.398 E3.4962
G1 X155.077 Y69.470 E3.6627
G1 X155.083 Y69.464 E3.6632
G1 X155.279 Y69.279 E3.6803
G1 X155.285 Y69.273 E3.6808
G1 X157.302 Y67.595 E3.8473
G1 X157.308 Y67.590 E3.8478
G1 X157.526 Y67.431 E3.8649
G1 X157.533 Y67.427 E3.8654
G1 X159.752 Y66.026 E4.0319
G1 X159.758 Y66.022 E4.0324
G1 X159.995 Y65.893 E4.0495
G1 X160.002 Y65.890 E4.0500
G1 X162.385 Y64.791 E4.2165
G1 X162.393 Y64.788 E4.2170
G1 X162.644 Y64.691 E4.2341
G1 X162.652 Y64.688 E4.2346
G1 X165.158 Y63.909 E4.4011
G1 X165.166 Y63.907 E4.4016
G1 X165.428 Y63.844 E4.4187
G1 X165.435 Y63.843 E4.4192
G1 X168.022 Y63.398 E4.5857
G1 X168.029 Y63.397 E4.5862
G1 X168.298 Y63.368 E4.6033
G1 X168.306 Y63.368 E4.6038
G1 X170.928 Y63.264 E4.7703
G1 X170.936 Y63.264 E4.7708
G1 X171.205 Y63.271 E4.7879
G1 X171.213 Y63.271 E4.7884
G1 X173.826 Y63.511 E4.9549
G1 X173.834 Y63.512 E4.9554
G1 X174.101 Y63.554 E4.9725
G1 X174.108 Y63.555 E4.9730
G1 X176.668 Y64.134 E5.1395
G1 X176.676 Y64.136 E5.1400
G1 X176.934 Y64.213 E5.1571
G1 X176.942 Y64.215 E5.1576
G1 X179.404 Y65.123 E5.3241
G1 X179.411 Y65.126 E5.3246
G1 X179.658 Y65.235 E5.3417
G1 X179.665 Y65.239 E5.3422
G1 X181.988 Y66.460 E5.5087
G1 X181.994 Y66.464 E5.5092
G1 X182.224 Y66.605 E5.5263
G1 X182.231 Y66.609 E5.5268
G1 X184.375 Y68.123 E5.6933
G1 X184.381 Y68.128 E5.6938
G1 X184.590 Y68.298 E5.7109
G1 X184.596 Y68.303 E5.7114
G1 X186.524 Y70.084 E5.8779
G1 X186.530 Y70.089 E5.8784
G1 X186.715 Y70.285 E5.8955
G1 X186.720 Y70.291 E5.8960
G1 X188.399 Y72.308 E6.0625
G1 X188.404 Y72.314 E6.0630
G1 X188.562 Y72.532 E6.0801
G1 X188.567 Y72.539 E6.0806
G1 X189.968 Y74.758 E6.2471
G1 X189.972 Y74.764 E6.2476
G1 X190.101 Y75.002 E6.2647
G1 X190.104 Y75.009 E6.2652
G1 X191.203 Y77.391 E6.4317
G1 X191.206 Y77.399 E6.4322
G1 X191.303 Y77.651 E6.4493
G1 X191.306 Y77.658 E6.4498
G1 X192.085 Y80.164 E6.6163
G1 X192.087 Y80.172 E6.6168
G1 X192.150 Y80.434 E6.6339
G1 X192.151 Y80.441 E6.6344
G1 X192.596 Y83.028 E6.8009
G1 X192.597 Y83.035 E6.8014
G1 X192.626 Y83.304 E6.8185
G1 X192.626 Y83.312 E6.8190
G1 X192.730 Y85.934 E6.9855
G1 X192.730 Y85.942 E6.9860
G1 X192.723 Y86.211 E7.0031
G1 X192.723 Y86.219 E7.0036
G1 X192.483 Y88.832 E7.1701
G1 X192.482 Y88.840 E7.1706
G1 X192.440 Y89.107 E7.1877
G1 X192.438 Y89.114 E7.1882
G1 X191.860 Y91.674 E7.3547
G1 X191.858 Y91.682 E7.3552
G1 X191.781 Y91.940 E7.3723
G1 X191.779 Y91.948 E7.3728
G1 X190.871 Y94.410 E7.5393
G1 X190.868 Y94.417 E7.5398
G1 X190.759 Y94.664 E7.5569
G1 X190.755 Y94.671 E7.5574
G1 X189.534 Y96.994 E7.7239
G1 X189.530 Y97.001 E7.7244
G1 X189.389 Y97.231 E7.7415
G1 X189.385 Y97.237 E7.7420
G1 X187.871 Y99.381 E7.9085
G1 X187.866 Y99.387 E7.9090
G1 X187.696 Y99.597 E7.9261
G1 X187.691 Y99.602 E7.9266
G1 X185.910 Y101.530 E8.0931
G1 X185.905 Y101.536 E8.0936
G1 X185.709 Y101.721 E8.1107
G1 X185.703 Y101.727 E8.1112
G1 X183.686 Y103.405 E8.2777
G1 X183.680 Y103.410 E8.2782
G1 X183.462 Y103.569 E8.2953
G1 X183.455 Y103.573 E8.2958
G1 X181.236 Y104.974 E8.4623
G1 X181.229 Y104.978 E8.4627
G1 X180.992 Y105.107 E8.4799
G1 X180.985 Y105.110 E8.4804
G1 X178.602 Y106.209 E8.6468
G1 X178.595 Y106.212 E8.6473
G1 X178.343 Y106.309 E8.6645
G1 X178.336 Y106.312 E8.6650
G1 X175.830 Y107.091 E8.8314
G1 X175.822 Y107.093 E8.8319
G1 X175.560 Y107.156 E8.8491
G1 X175.552 Y107.157 E8.8496
G1 X172.966 Y107.602 E9.0160
G1 X172.958 Y107.603 E9.0165
G1 X172.690 Y107.632 E9.0337
G1 X172.682 Y107.632 E9.0342
G1 X170.060 Y107.736 E9.2006
G1 X170.052 Y107.736 E9.2011
G1 X169.783 Y107.729 E9.2183
G1 X169.775 Y107.729 E9.2187
G1 X167.161 Y107.489 E9.3852
G1 X167.154 Y107.488 E9.3857
G1 X166.887 Y107.446 E9.4029
G1 X166.879 Y107.445 E9.4033
G1 X164.320 Y106.866 E9.5698
G1 X164.312 Y106.864 E9.5703
G1 X164.054 Y106.787 E9.5874
G1 X164.046 Y106.785 E9.5879
G1 X161.584 Y105.877 E9.7544
G1 X161.577 Y105.874 E9.7549
G1 X161.330 Y105.765 E9.7720
G1 X161.323 Y105.761 E9.7725
G1 X159.000 Y104.540 E9.9390
G1 X158.993 Y104.536 E9.9395
G1 X158.763 Y104.395 E9.9566
G1 X158.757 Y104.391 E9.9571
G1 X156.613 Y102.877 E10.1236
G1 X156.607 Y102.872 E10.1241
G1 X156.397 Y102.702 E10.1412
G1 X156.391 Y102.697 E10.1417
G1 X154.464 Y100.916 E10.3082
G1 X154.458 Y100.911 E10.3087
G1 X154.273 Y100.715 E10.3258
G1 X154.267 Y100.709 E10.3263
G1 X152.589 Y98.692 E10.4928
G1 X152.584 Y98.686 E10.4933
G1 X152.425 Y98.468 E10.5104
G1 X152.421 Y98.461 E10.5109
G1 X151.020 Y96.242 E10.6774
G1 X151.016 Y96.236 E10.6779
G1 X150.887 Y95.998 E10.6950
G1 X150.884 Y95.991 E10.6955
G1 X150.004 Y94.084 E10.8288
G1 X149.883 Y94.410 E10.8509
G1 X149.880 Y94.417 E10.8514
G1 X149.771 Y94.664 E10.8685
G1 X149.767 Y94.671 E10.8690
G1 X148.546 Y96.994 E11.0355
G1 X148.542 Y97.001 E11.0360
G1 X148.401 Y97.231 E11.0531
G1 X148.397 Y97.237 E11.0536
G1 X146.883 Y99.381 E11.2201
G1 X146.878 Y99.387 E11.2206
G1 X146.708 Y99.597 E11.2377
G1 X146.703 Y99.602 E11.2382
G1 X144.922 Y101.530 E11.4047
G1 X144.917 Y101.536 E11.4052
G1 X144.721 Y101.721 E11.4223
G1 X144.715 Y101.727 E11.4228
G1 X142.698 Y103.405 E11.5893
G1 X142.692 Y103.410 E11.5898
G1 X142.474 Y103.569 E11.6069
G1 X142.467 Y103.573 E11.6074
G1 X141.389 Y104.254 E11.6883
G1 X148.217 Y104.254 E12.1215
G1 X148.305 Y104.290 E12.1276
G1 X150.716 Y106.701 E12.3439
G1 X150.752 Y106.789 E12.3499
G1 X150.752 Y134.199 E14.0888
G1 X150.716 Y134.287 E14.0949
G1 X148.305 Y136.697 E14.3111
G1 X148.217 Y136.734 E14.3172
G1 X109.808 Y136.734 E16.7539
G1 X109.719 Y136.697 E16.7600
G1 X107.309 Y134.287 E16.9763
G1 X107.272 Y134.199 E16.9823
G1 X107.272 Y106.789 E18.7212
G1 X107.309 Y106.701 E18.7273
G1 X109.719 Y104.290 E18.9436
G1 X109.808 Y104.254 E18.9496
G1 X117.575 Y104.254 E19.4424
G1 X115.625 Y102.877 E19.5938
G1 X115.619 Y102.872 E19.5943
G1 X115.410 Y102.702 E19.6115
G1 X115.404 Y102.697 E19.6119
G1 X113.476 Y100.916 E19.7784
G1 X113.470 Y100.911 E19.7789
G1 X113.285 Y100.715 E19.7960
G1 X113.280 Y100.709 E19.7965
G1 X111.601 Y98.692 E19.9630
G1 X111.596 Y98.686 E19.9635
G1 X111.438 Y98.468 E19.9806
G1 X111.433 Y98.461 E19.9811
G1 X110.032 Y96.242 E20.1476
G1 X110.028 Y96.236 E20.1481
G1 X109.899 Y95.998 E20.1652
G1 X109.896 Y95.991 E20.1657
G1 X108.797 Y93.609 E20.3322
G1 X108.794 Y93.601 E20.3327
G1 X108.697 Y93.350 E20.3498
G1 X108.694 Y93.342 E20.3503
G1 X107.915 Y90.836 E20.5168
G1 X107.913 Y90.828 E20.5173
G1 X107.850 Y90.566 E20.5344
G1 X107.849 Y90.558 E20.5349
G1 X107.404 Y87.972 E20.7014
G1 X107.403 Y87.964 E20.7019
G1 X107.374 Y87.696 E20.7190
G1 X107.374 Y87.688 E20.7195
G1 X107.270 Y85.066 E20.8860
G1 X107.270 Y85.058 E20.8865
G1 X107.277 Y84.789 E20.9036
G1 X107.277 Y84.781 E20.9041
G1 X107.517 Y82.168 E21.0706
G1 X107.518 Y82.160 E21.0711
G1 X107.560 Y81.893 E21.0882
G1 X107.562 Y81.886 E21.0887
G1 X108.140 Y79.326 E21.2552
G1 X108.142 Y79.318 E21.2557
G1 X108.219 Y79.060 E21.2728
G1 X108.221 Y79.052 E21.2733
G1 X109.129 Y76.590 E21.4398
G1 X109.132 Y76.583 E21.4403
G1 X109.241 Y76.336 E21.4574
G1 X109.245 Y76.329 E21.4579
G1 X110.466 Y74.006 E21.6244
G1 X110.470 Y73.999 E21.6249
G1 X110.611 Y73.769 E21.6420
G1 X110.615 Y73.763 E21.6425
G92 E0
G1 E-4.0000 F3600
; inner perimeter
G1 X115.182 Y76.727 F4200
G1 E0.0000 F3600
G92 E0
G1 X116.449 Y74.932 E0.1394 F1250
G1 X117.940 Y73.318 E0.2788
G1 X119.629 Y71.913 E0.4182
G1 X121.487 Y70.740 E0.5576
G1 X123.482 Y69.820 E0.6970
G1 X125.581 Y69.168 E0.8364
G1 X127.746 Y68.795 E0.9758
G1 X129.941 Y68.708 E1.1152
G1 X132.129 Y68.909 E1.2546
G1 X134.273 Y69.393 E1.3939
G1 X136.334 Y70.153 E1.5333
G1 X138.279 Y71.176 E1.6727
G1 X140.074 Y72.443 E1.8121
G1 X141.688 Y73.934 E1.9515
G1 X143.093 Y75.623 E2.0909
G1 X144.266 Y77.481 E2.2303
G1 X145.186 Y79.476 E2.3697
G1 X145.838 Y81.575 E2.5091
G1 X146.211 Y83.740 E2.6485
G1 X146.298 Y85.935 E2.7879
G1 X146.097 Y88.123 E2.9273
G1 X145.613 Y90.267 E3.0667
G1 X144.853 Y92.328 E3.2061
G1 X143.830 Y94.273 E3.3455
G1 X142.563 Y96.068 E3.4849
G1 X141.072 Y97.681 E3.6243
G1 X139.383 Y99.087 E3.7637
G1 X137.525 Y100.260 E3.9031
G1 X135.530 Y101.180 E4.0424
G1 X133.431 Y101.832 E4.1818
G1 X131.266 Y102.205 E4.3212
G1 X129.071 Y102.292 E4.4606
G1 X126.883 Y102.091 E4.6000
G1 X124.739 Y101.607 E4.7394
G1 X122.678 Y100.847 E4.8788
G1 X120.733 Y99.824 E5.0182
G1 X118.938 Y98.557 E5.1576
G1 X117.325 Y97.066 E5.2970
G1 X115.919 Y95.377 E5.4364
G1 X114.746 Y93.519 E5.5758
G1 X113.826 Y91.524 E5.7152
G1 X113.174 Y89.425 E5.8546
G1 X112.801 Y87.260 E5.9940
G1 X112.714 Y85.065 E6.1334
G1 X112.915 Y82.877 E6.2728
G1 X113.399 Y80.733 E6.4122
G1 X114.159 Y78.672 E6.5515
G1 X115.182 Y76.727 E6.6909
