; G-Code generated by Simplify3D(R) Version 3.1.1
; Mar 9, 2017 at 9:52:18 AM
; Settings Summary
;   processName,Process1
;   applyToModels,MarkerRackAndClamp
;   profileName,Kossel Mini (modified)
;   profileVersion,2017-03-07 18:00:27
;   baseProfile,
;   printMaterial,PLA+
;   printQuality,Medium
;   printExtruders,
;   extruderName,Primary Extruder
;   extruderToolheadNumber,0
;   extruderDiameter,0.4
;   extruderAutoWidth,1
;   extruderWidth,0.48
;   extrusionMultiplier,1
;   extruderUseRetract,1
;   extruderRetractionDistance,4
;   extruderExtraRestartDistance,0
;   extruderRetractionZLift,0.1
;   extruderRetractionSpeed,3600
;   extruderUseCoasting,0
;   extruderCoastingDistance,5
;   extruderUseWipe,1
;   extruderWipeDistance,2
;   primaryExtruder,0
;   layerHeight,0.2
;   topSolidLayers,3
;   bottomSolidLayers,3
;   perimeterOutlines,3
;   printPerimetersInsideOut,1
;   startPointOption,2
;   startPointOriginX,0
;   startPointOriginY,0
;   startPointOriginZ,300
;   sequentialIslands,0
;   spiralVaseMode,0
;   firstLayerHeightPercentage,80
;   firstLayerWidthPercentage,120
;   firstLayerUnderspeed,0.5
;   useRaft,0
;   raftExtruder,0
;   raftLayers,3
;   raftOffset,3
;   raftSeparationDistance,0.14
;   raftInfill,85
;   disableRaftBaseLayers,0
;   useSkirt,1
;   skirtExtruder,0
;   skirtLayers,1
;   skirtOutlines,1
;   skirtOffset,4
;   usePrimePillar,0
;   primePillarExtruder,999
;   primePillarWidth,12
;   primePillarLocation,7
;   primePillarSpeedMultiplier,1
;   useOozeShield,0
;   oozeShieldExtruder,999
;   oozeShieldOffset,2
;   oozeShieldOutlines,1
;   oozeShieldSidewallShape,1
;   oozeShieldSidewallAngle,30
;   oozeShieldSpeedMultiplier,1
;   infillExtruder,0
;   internalInfillPattern,Rectilinear
;   externalInfillPattern,Rectilinear
;   infillPercentage,50
;   outlineOverlapPercentage,30
;   infillExtrusionWidthPercentage,110
;   minInfillLength,2
;   infillLayerInterval,1
;   infillAngles,45,-45
;   overlapInfillAngles,0
;   generateSupport,1
;   supportExtruder,0
;   supportInfillPercentage,30
;   supportExtraInflation,0
;   denseSupportLayers,0
;   denseSupportInfillPercentage,70
;   supportLayerInterval,1
;   supportHorizontalPartOffset,0.3
;   supportUpperSeparationLayers,1
;   supportLowerSeparationLayers,1
;   supportType,0
;   supportGridSpacing,4
;   maxOverhangAngle,45
;   supportAngles,0
;   temperatureName,Primary Extruder,Heated Bed
;   temperatureNumber,0,1
;   temperatureSetpointCount,2,3
;   temperatureSetpointLayers,1,2,1,2,3
;   temperatureSetpointTemperatures,230,225,70,65,60
;   temperatureStabilizeAtStartup,1,1
;   temperatureHeatedBed,0,1
;   temperatureRelayBetweenLayers,0,0
;   temperatureRelayBetweenLoops,0,0
;   fanLayers,1,2,3
;   fanSpeeds,0,50,100
;   blipFanToFullPower,1
;   adjustSpeedForCooling,1
;   minSpeedLayerTime,15
;   minCoolingSpeedSlowdown,20
;   increaseFanForCooling,0
;   minFanLayerTime,60
;   maxCoolingFanSpeed,100
;   increaseFanForBridging,1
;   bridgingFanSpeed,100
;   use5D,1
;   relativeEdistances,0
;   allowEaxisZeroing,1
;   independentExtruderAxes,0
;   includeM10123,0
;   stickySupport,1
;   applyToolheadOffsets,0
;   gcodeXoffset,0
;   gcodeYoffset,0
;   gcodeZoffset,0
;   overrideMachineDefinition,1
;   machineTypeOverride,1
;   strokeXoverride,190
;   strokeYoverride,190
;   strokeZoverride,204.4
;   originOffsetXoverride,95
;   originOffsetYoverride,95
;   originOffsetZoverride,0
;   homeXdirOverride,0
;   homeYdirOverride,0
;   homeZdirOverride,1
;   flipXoverride,1
;   flipYoverride,-1
;   flipZoverride,1
;   toolheadOffsets,0,0|0,0|0,0|0,0|0,0|0,0
;   overrideFirmwareConfiguration,1
;   firmwareTypeOverride,RepRap (Marlin/Repetier/Sprinter)
;   GPXconfigOverride,r2
;   baudRateOverride,115200
;   overridePrinterModels,1
;   printerModelsOverride
;   startingGcode,G28 ; home all axes
;   layerChangeGcode,
;   retractionGcode,
;   toolChangeGcode,
;   endingGcode,M104 S0 ; turn off extruder,M140 S0 ; turn off bed,M107 ; turn off cooling fan,G28 ; home axes,M84 ; disable motors
;   exportFileFormat,gcode
;   celebration,0
;   celebrationSong,Random Song
;   postProcessing,
;   defaultSpeed,3600
;   outlineUnderspeed,0.5
;   solidInfillUnderspeed,0.8
;   supportUnderspeed,0.8
;   rapidXYspeed,6000
;   rapidZspeed,1200
;   minBridgingArea,50
;   bridgingExtraInflation,0
;   bridgingExtrusionMultiplier,0.95
;   bridgingSpeedMultiplier,0.7
;   filamentDiameter,1.73
;   filamentPricePerKg,25
;   filamentDensity,1.25
;   useMinPrintHeight,0
;   minPrintHeight,0
;   useMaxPrintHeight,0
;   maxPrintHeight,10
;   useDiaphragm,0
;   diaphragmLayerInterval,20
;   robustSlicing,1
;   mergeAllIntoSolid,0
;   onlyRetractWhenCrossingOutline,1
;   retractBetweenLayers,1
;   useRetractionMinTravel,0
;   retractionMinTravel,3
;   retractWhileWiping,0
;   onlyWipeOutlines,1
;   avoidCrossingOutline,0
;   maxMovementDetourFactor,3
;   toolChangeRetractionDistance,12
;   toolChangeExtraRestartDistance,-0.5
;   toolChangeRetractionSpeed,600
;   allowThinWallGapFill,1
;   thinWallAllowedOverlapPercentage,10
;   horizontalSizeCompensation,0
G90
M82
M106 S0
M140 S70
M190 S70
M104 S230 T0
M109 S230 T0
G28 ; home all axes
G92 E0
G1 E-4.0000 F3600
G1 Z0.260 F1200
; layer 1, Z = 0.16
T0
; tool H0.200 W0.576
; skirt
G1 X24.497 Y-3.785 F6000
G1 Z0.160 F1200
G1 E0.0000 F1080
G92 E0
G1 X25.283 Y-3.499 E0.0410 F1800
G1 X25.341 Y-3.454 E0.0446
G1 X26.830 Y-1.327 E0.1718
G1 X26.852 Y-1.257 E0.1754
G1 X26.852 Y4.907 E0.4775
G1 X26.830 Y4.977 E0.4811
G1 X25.341 Y7.104 E0.6084
G1 X25.283 Y7.149 E0.6120
G1 X24.497 Y7.435 E0.6529
G1 X25.283 Y7.721 E0.6939
G1 X25.341 Y7.766 E0.6975
G1 X26.830 Y9.893 E0.8247
G1 X26.852 Y9.963 E0.8284
G1 X26.852 Y16.127 E1.1305
G1 X26.830 Y16.197 E1.1341
G1 X25.341 Y18.324 E1.2613
G1 X25.283 Y18.369 E1.2649
G1 X24.497 Y18.655 E1.3059
G1 X25.283 Y18.941 E1.3468
G1 X25.341 Y18.986 E1.3505
G1 X26.830 Y21.113 E1.4777
G1 X26.852 Y21.183 E1.4813
G1 X26.852 Y27.347 E1.7834
G1 X26.830 Y27.417 E1.7870
G1 X25.341 Y29.544 E1.9143
G1 X25.283 Y29.589 E1.9179
G1 X24.497 Y29.875 E1.9588
G1 X25.283 Y30.161 E1.9998
G1 X25.341 Y30.206 E2.0034
G1 X26.830 Y32.333 E2.1306
G1 X26.852 Y32.403 E2.1343
G1 X26.852 Y38.567 E2.4363
G1 X26.830 Y38.637 E2.4400
G1 X25.341 Y40.764 E2.5672
G1 X25.283 Y40.809 E2.5708
G1 X24.497 Y41.095 E2.6118
G1 X25.283 Y41.381 E2.6527
G1 X25.341 Y41.426 E2.6563
G1 X26.830 Y43.553 E2.7836
G1 X26.852 Y43.623 E2.7872
G1 X26.852 Y49.787 E3.0893
G1 X26.830 Y49.857 E3.0929
G1 X25.341 Y51.984 E3.2201
G1 X25.283 Y52.029 E3.2238
G1 X18.228 Y54.597 E3.5917
G1 X18.208 Y54.603 E3.5927
G1 X17.498 Y54.728 E3.6280
G1 X17.477 Y54.730 E3.6291
G1 X0.683 Y54.730 E4.4521
G1 X0.595 Y54.693 E4.4568
G1 X-1.816 Y52.283 E4.6239
G1 X-1.852 Y52.195 E4.6286
G1 X-1.852 Y-52.195 E9.7445
G1 X-1.816 Y-52.283 E9.7492
G1 X0.595 Y-54.693 E9.9163
G1 X0.683 Y-54.730 E9.9209
G1 X18.821 Y-54.730 E10.8099
G1 X18.909 Y-54.693 E10.8146
G1 X21.320 Y-52.283 E10.9816
G1 X21.357 Y-52.195 E10.9863
G1 X21.357 Y-49.808 E11.1033
G1 X25.282 Y-48.379 E11.3080
G1 X25.341 Y-48.334 E11.3116
G1 X26.830 Y-46.208 E11.4389
G1 X26.852 Y-46.137 E11.4425
G1 X26.852 Y-39.973 E11.7446
G1 X26.830 Y-39.903 E11.7482
G1 X25.341 Y-37.776 E11.8754
G1 X25.283 Y-37.731 E11.8791
G1 X24.498 Y-37.445 E11.9200
G1 X25.282 Y-37.159 E11.9610
G1 X25.341 Y-37.114 E11.9646
G1 X26.830 Y-34.988 E12.0918
G1 X26.852 Y-34.917 E12.0954
G1 X26.852 Y-28.753 E12.3975
G1 X26.830 Y-28.683 E12.4012
G1 X25.341 Y-26.556 E12.5284
G1 X25.283 Y-26.511 E12.5320
G1 X24.498 Y-26.225 E12.5730
G1 X25.282 Y-25.939 E12.6139
G1 X25.341 Y-25.894 E12.6175
G1 X26.830 Y-23.768 E12.7448
G1 X26.852 Y-23.697 E12.7484
G1 X26.852 Y-17.533 E13.0505
G1 X26.830 Y-17.463 E13.0541
G1 X25.341 Y-15.336 E13.1813
G1 X25.283 Y-15.291 E13.1849
G1 X24.497 Y-15.005 E13.2259
G1 X25.283 Y-14.719 E13.2669
G1 X25.341 Y-14.674 E13.2705
G1 X26.830 Y-12.547 E13.3977
G1 X26.852 Y-12.477 E13.4013
G1 X26.852 Y-6.313 E13.7034
G1 X26.830 Y-6.243 E13.7070
G1 X25.341 Y-4.116 E13.8343
G1 X25.283 Y-4.071 E13.8379
G1 X24.497 Y-3.785 E13.8788
G92 E0
G1 E-4.0000 F3600
G1 Z0.260 F1200
; inner perimeter
G1 X21.172 Y1.049 F6000
G1 Z0.160 F1200
G1 E0.0000 F3600
G92 E0
G1 X21.172 Y2.601 E0.0760 F1500
G1 X15.677 Y4.602 E0.3627
G1 X15.677 Y10.268 E0.6404
G1 X21.172 Y12.269 E0.9270
G1 X21.172 Y13.821 E1.0031
G1 X15.677 Y15.822 E1.2897
G1 X15.677 Y21.488 E1.5674
G1 X21.172 Y23.489 E1.8541
G1 X21.172 Y25.041 E1.9301
G1 X15.677 Y27.042 E2.2168
G1 X15.677 Y32.708 E2.4945
G1 X21.172 Y34.709 E2.7811
G1 X21.172 Y36.261 E2.8571
G1 X15.677 Y38.262 E3.1438
G1 X15.677 Y43.928 E3.4215
G1 X21.172 Y45.929 E3.7081
G1 X21.172 Y47.481 E3.7842
G1 X16.863 Y49.050 E4.0090
G1 X3.828 Y49.050 E4.6478
G1 X3.828 Y-31.286 E8.5849
G1 X4.258 Y-31.315 E8.6061
G1 X4.342 Y-30.674 E8.6378
G1 X4.657 Y-29.914 E8.6781
G1 X5.159 Y-29.260 E8.7185
G1 X5.816 Y-28.758 E8.7590
G1 X6.573 Y-28.444 E8.7992
G1 X7.393 Y-28.338 E8.8397
G1 X8.205 Y-28.445 E8.8798
G1 X8.969 Y-28.764 E8.9204
G1 X9.621 Y-29.266 E8.9607
G1 X10.120 Y-29.920 E9.0010
G1 X10.434 Y-30.680 E9.0414
G1 X10.539 Y-31.497 E9.0817
G1 X10.430 Y-32.312 E9.1220
G1 X10.114 Y-33.070 E9.1623
G1 X9.616 Y-33.720 E9.2024
G1 X8.959 Y-34.222 E9.2429
G1 X8.202 Y-34.536 E9.2831
G1 X7.383 Y-34.642 E9.3236
G1 X6.572 Y-34.535 E9.3637
G1 X5.811 Y-34.220 E9.4040
G1 X5.162 Y-33.722 E9.4441
G1 X4.658 Y-33.068 E9.4846
G1 X4.342 Y-32.306 E9.5250
G1 X4.258 Y-31.665 E9.5566
G1 X3.828 Y-31.694 E9.5778
G1 X3.828 Y-45.290 E10.2441
G1 X4.259 Y-45.318 E10.2653
G1 X4.341 Y-44.681 E10.2968
G1 X4.655 Y-43.920 E10.3372
G1 X5.154 Y-43.266 E10.3775
G1 X5.810 Y-42.760 E10.4181
G1 X6.572 Y-42.445 E10.4585
G1 X7.388 Y-42.338 E10.4988
G1 X8.203 Y-42.445 E10.5391
G1 X8.964 Y-42.760 E10.5795
G1 X9.617 Y-43.261 E10.6198
G1 X10.114 Y-43.910 E10.6599
G1 X10.430 Y-44.668 E10.7001
G1 X10.539 Y-45.483 E10.7404
G1 X10.434 Y-46.300 E10.7808
G1 X10.120 Y-47.060 E10.8211
G1 X9.621 Y-47.714 E10.8614
G1 X8.969 Y-48.216 E10.9017
G1 X8.205 Y-48.535 E10.9423
G1 X7.563 Y-48.619 E10.9741
G1 X7.591 Y-49.050 E10.9952
G1 X15.677 Y-49.050 E11.3915
G1 X15.677 Y-45.831 E11.5492
G1 X21.172 Y-43.831 E11.8359
G1 X21.172 Y-42.279 E11.9119
G1 X15.677 Y-40.278 E12.1985
G1 X15.677 Y-34.611 E12.4763
G1 X21.172 Y-32.611 E12.7629
G1 X21.172 Y-31.059 E12.8390
G1 X15.677 Y-29.058 E13.1256
G1 X15.677 Y-23.391 E13.4034
G1 X21.172 Y-21.391 E13.6900
G1 X21.172 Y-19.839 E13.7660
G1 X15.677 Y-17.838 E14.0527
G1 X15.677 Y-12.172 E14.3304
G1 X21.172 Y-10.171 E14.6170
G1 X21.172 Y-8.619 E14.6931
G1 X15.677 Y-6.618 E14.9797
G1 X15.677 Y-0.952 E15.2574
G1 X21.172 Y1.049 E15.5440
G92 E0
G1 E-4.0000 F3600
G1 Z0.260 F1200
G1 X4.258 Y-45.662 F6000
G1 Z0.160 F1200
G1 E0.0000 F3600
G92 E0
G1 X3.828 Y-45.691 E0.0211 F1500
G1 X3.828 Y-49.050 E0.1858
G1 X7.188 Y-49.050 E0.3504
G1 X7.216 Y-48.619 E0.3716
G1 X6.578 Y-48.536 E0.4031
G1 X5.812 Y-48.221 E0.4437
G1 X5.158 Y-47.719 E0.4841
G1 X4.660 Y-47.070 E0.5242
G1 X4.345 Y-46.312 E0.5644
G1 X4.258 Y-45.662 E0.5966
G92 E0
G1 E-4.0000 F3600
G1 Z0.260 F1200
; inner perimeter
G1 X21.748 Y-8.216 F6000
G1 Z0.160 F1200
G1 E0.0000 F3600
G92 E0
G1 X16.253 Y-6.215 E0.2866 F1200
G1 X16.253 Y-1.355 E0.5248
G1 X21.748 Y0.646 E0.8115
G1 X21.748 Y3.004 E0.9270
G1 X16.253 Y5.005 E1.2137
G1 X16.253 Y9.865 E1.4519
G1 X21.748 Y11.866 E1.7385
G1 X21.748 Y14.224 E1.8541
G1 X16.253 Y16.225 E2.1407
G1 X16.253 Y21.085 E2.3789
G1 X21.748 Y23.086 E2.6655
G1 X21.748 Y25.444 E2.7811
G1 X16.253 Y27.445 E3.0677
G1 X16.253 Y32.305 E3.3059
G1 X21.748 Y34.306 E3.5926
G1 X21.748 Y36.664 E3.7081
G1 X16.253 Y38.665 E3.9948
G1 X16.253 Y43.525 E4.2330
G1 X21.748 Y45.526 E4.5196
G1 X21.748 Y47.884 E4.6352
G1 X16.964 Y49.626 E4.8847
G1 X3.252 Y49.626 E5.5567
G1 X3.252 Y-49.626 E10.4209
G1 X16.253 Y-49.626 E11.0581
G1 X16.253 Y-46.234 E11.2243
G1 X21.748 Y-44.234 E11.5109
G1 X21.748 Y-41.876 E11.6265
G1 X16.253 Y-39.875 E11.9131
G1 X16.253 Y-35.014 E12.1514
G1 X21.748 Y-33.014 E12.4380
G1 X21.748 Y-30.656 E12.5536
G1 X16.253 Y-28.655 E12.8402
G1 X16.253 Y-23.794 E13.0784
G1 X21.748 Y-21.794 E13.3651
G1 X21.748 Y-19.436 E13.4806
G1 X16.253 Y-17.435 E13.7673
G1 X16.253 Y-12.575 E14.0055
G1 X21.748 Y-10.574 E14.2921
G1 X21.748 Y-8.216 E14.4077
G92 E0
G1 E-4.0000 F3600
G1 Z0.260 F1200
; outer perimeter
G1 X22.324 Y0.243 F6000
G1 Z0.160 F1200
G1 E0.0000 F3600
G92 E0
G1 X22.324 Y3.407 E0.1551 F900
G1 X16.829 Y5.408 E0.4417
G1 X16.829 Y9.462 E0.6404
G1 X22.324 Y11.463 E0.9270
G1 X22.324 Y14.627 E1.0821
G1 X16.829 Y16.628 E1.3688
G1 X16.829 Y20.682 E1.5674
G1 X22.324 Y22.683 E1.8541
G1 X22.324 Y25.847 E2.0092
G1 X16.829 Y27.848 E2.2958
G1 X16.829 Y31.902 E2.4945
G1 X22.324 Y33.903 E2.7811
G1 X22.324 Y37.067 E2.9362
G1 X16.829 Y39.068 E3.2228
G1 X16.829 Y43.122 E3.4215
G1 X22.324 Y45.123 E3.7081
G1 X22.324 Y48.287 E3.8632
G1 X17.066 Y50.202 E4.1375
G1 X2.676 Y50.202 E4.8427
G1 X2.676 Y-50.202 E9.7634
G1 X16.829 Y-50.202 E10.4570
G1 X16.829 Y-46.637 E10.6317
G1 X22.324 Y-44.637 E10.9183
G1 X22.324 Y-41.473 E11.0734
G1 X16.829 Y-39.472 E11.3601
G1 X16.829 Y-35.417 E11.5588
G1 X22.324 Y-33.417 E11.8454
G1 X22.324 Y-30.253 E12.0005
G1 X16.829 Y-28.252 E12.2871
G1 X16.829 Y-24.197 E12.4858
G1 X22.324 Y-22.197 E12.7725
G1 X22.324 Y-19.033 E12.9276
G1 X16.829 Y-17.032 E13.2142
G1 X16.829 Y-12.978 E13.4128
G1 X22.324 Y-10.977 E13.6995
G1 X22.324 Y-7.813 E13.8546
G1 X16.829 Y-5.812 E14.1412
G1 X16.829 Y-1.758 E14.3399
G1 X22.324 Y0.243 E14.6265
G92 E0
G1 E-4.0000 F3600
G1 X22.324 Y2.243 F3600
G1 Z0.260 F1200
; inner perimeter
; inner perimeter
G1 X8.678 Y-29.266 F6000
G1 Z0.160 F1200
G1 E0.0000 F3600
G92 E0
G1 X9.209 Y-29.676 E0.0329 F1200
G1 X9.617 Y-30.209 E0.0658
G1 X9.872 Y-30.830 E0.0987
G1 X9.958 Y-31.495 E0.1316
G1 X9.870 Y-32.161 E0.1645
G1 X9.612 Y-32.779 E0.1973
G1 X9.205 Y-33.309 E0.2300
G1 X8.669 Y-33.719 E0.2631
G1 X8.052 Y-33.974 E0.2958
G1 X7.383 Y-34.061 E0.3289
G1 X6.722 Y-33.974 E0.3616
G1 X6.102 Y-33.717 E0.3945
G1 X5.573 Y-33.311 E0.4272
G1 X5.161 Y-32.777 E0.4602
G1 X4.904 Y-32.156 E0.4932
G1 X4.816 Y-31.490 E0.5261
G1 X4.904 Y-30.824 E0.5590
G1 X5.161 Y-30.204 E0.5919
G1 X5.570 Y-29.671 E0.6248
G1 X6.106 Y-29.261 E0.6579
G1 X6.723 Y-29.006 E0.6906
G1 X7.392 Y-28.919 E0.7237
G1 X8.054 Y-29.006 E0.7564
G1 X8.678 Y-29.266 E0.7895
; outer perimeter
G1 X8.386 Y-29.769 F6000
G92 E0
G1 X8.798 Y-30.086 E0.0255 F900
G1 X9.113 Y-30.499 E0.0509
G1 X9.311 Y-30.979 E0.0764
G1 X9.378 Y-31.494 E0.1018
G1 X9.309 Y-32.009 E0.1273
G1 X9.109 Y-32.488 E0.1527
G1 X8.795 Y-32.898 E0.1780
G1 X8.379 Y-33.215 E0.2037
G1 X7.902 Y-33.413 E0.2290
G1 X7.384 Y-33.480 E0.2546
G1 X6.872 Y-33.413 E0.2799
G1 X6.392 Y-33.214 E0.3053
G1 X5.983 Y-32.900 E0.3306
G1 X5.664 Y-32.486 E0.3562
G1 X5.465 Y-32.005 E0.3817
G1 X5.397 Y-31.490 E0.4072
G1 X5.465 Y-30.975 E0.4327
G1 X5.664 Y-30.495 E0.4581
G1 X5.980 Y-30.082 E0.4836
G1 X6.396 Y-29.765 E0.5092
G1 X6.873 Y-29.567 E0.5345
G1 X7.391 Y-29.500 E0.5602
G1 X7.903 Y-29.567 E0.5855
G1 X8.386 Y-29.769 E0.6111
G1 X8.798 Y-30.086 F3600
G1 X9.113 Y-30.499 F3600
G1 X9.311 Y-30.979 F3600
G1 X9.367 Y-31.417 F3600
; inner perimeter
; inner perimeter
G1 X8.053 Y-43.006 F6000
G92 E0
G1 X8.673 Y-43.263 E0.0329 F1200
G1 X9.206 Y-43.672 E0.0658
G1 X9.612 Y-44.201 E0.0985
G1 X9.870 Y-44.819 E0.1313
G1 X9.958 Y-45.485 E0.1642
G1 X9.872 Y-46.150 E0.1971
G1 X9.617 Y-46.771 E0.2300
G1 X9.209 Y-47.304 E0.2629
G1 X8.678 Y-47.714 E0.2958
G1 X8.054 Y-47.974 E0.3289
G1 X7.392 Y-48.061 E0.3616
G1 X6.727 Y-47.975 E0.3945
G1 X6.103 Y-47.718 E0.4276
G1 X5.569 Y-47.308 E0.4605
G1 X5.163 Y-46.779 E0.4932
G1 X4.905 Y-46.161 E0.5261
G1 X4.817 Y-45.495 E0.5589
G1 X4.903 Y-44.830 E0.5918
G1 X5.158 Y-44.209 E0.6247
G1 X5.566 Y-43.676 E0.6576
G1 X6.101 Y-43.263 E0.6907
G1 X6.722 Y-43.006 E0.7237
G1 X7.388 Y-42.919 E0.7566
G1 X8.053 Y-43.006 E0.7895
; outer perimeter
G1 X7.903 Y-43.567 F6000
G92 E0
G1 X8.383 Y-43.766 E0.0255 F900
G1 X8.795 Y-44.083 E0.0509
G1 X9.109 Y-44.492 E0.0762
G1 X9.309 Y-44.971 E0.1017
G1 X9.378 Y-45.486 E0.1271
G1 X9.311 Y-46.001 E0.1526
G1 X9.113 Y-46.481 E0.1780
G1 X8.798 Y-46.894 E0.2035
G1 X8.386 Y-47.211 E0.2290
