; G-Code generated by Simplify3D(R) Version 3.1.1
; Mar 10, 2017 at 1:29:43 PM
; Settings Summary
;   processName,Process1
;   applyToModels,MarkerRodMount(2),MarkerRodMountClamp,MarkerRodMount(2)(2),MarkerRodMountClamp(2)
;   profileName,Kossel Mini (modified)
;   profileVersion,2017-03-09 09:09:04
;   baseProfile,
;   printMaterial,PLA+
;   printQuality,Medium
;   printExtruders,
;   extruderName,Primary Extruder
;   extruderToolheadNumber,0
;   extruderDiameter,0.4
;   extruderAutoWidth,1
;   extruderWidth,0.48
;   extrusionMultiplier,1
;   extruderUseRetract,1
;   extruderRetractionDistance,4
;   extruderExtraRestartDistance,0
;   extruderRetractionZLift,0.1
;   extruderRetractionSpeed,3600
;   extruderUseCoasting,0
;   extruderCoastingDistance,5
;   extruderUseWipe,1
;   extruderWipeDistance,2
;   primaryExtruder,0
;   layerHeight,0.3
;   topSolidLayers,3
;   bottomSolidLayers,3
;   perimeterOutlines,3
;   printPerimetersInsideOut,1
;   startPointOption,2
;   startPointOriginX,0
;   startPointOriginY,0
;   startPointOriginZ,300
;   sequentialIslands,0
;   spiralVaseMode,0
;   firstLayerHeightPercentage,80
;   firstLayerWidthPercentage,120
;   firstLayerUnderspeed,0.5
;   useRaft,0
;   raftExtruder,0
;   raftLayers,3
;   raftOffset,3
;   raftSeparationDistance,0.14
;   raftInfill,85
;   disableRaftBaseLayers,0
;   useSkirt,1
;   skirtExtruder,0
;   skirtLayers,1
;   skirtOutlines,1
;   skirtOffset,4
;   usePrimePillar,0
;   primePillarExtruder,999
;   primePillarWidth,12
;   primePillarLocation,7
;   primePillarSpeedMultiplier,1
;   useOozeShield,0
;   oozeShieldExtruder,999
;   oozeShieldOffset,2
;   oozeShieldOutlines,1
;   oozeShieldSidewallShape,1
;   oozeShieldSidewallAngle,30
;   oozeShieldSpeedMultiplier,1
;   infillExtruder,0
;   internalInfillPattern,Rectilinear
;   externalInfillPattern,Rectilinear
;   infillPercentage,40
;   outlineOverlapPercentage,30
;   infillExtrusionWidthPercentage,110
;   minInfillLength,2
;   infillLayerInterval,1
;   infillAngles,45,-45
;   overlapInfillAngles,0
;   generateSupport,0
;   supportExtruder,0
;   supportInfillPercentage,30
;   supportExtraInflation,0
;   denseSupportLayers,0
;   denseSupportInfillPercentage,70
;   supportLayerInterval,1
;   supportHorizontalPartOffset,0.3
;   supportUpperSeparationLayers,1
;   supportLowerSeparationLayers,1
;   supportType,0
;   supportGridSpacing,4
;   maxOverhangAngle,45
;   supportAngles,0
;   temperatureName,Primary Extruder,Heated Bed
;   temperatureNumber,0,1
;   temperatureSetpointCount,2,3
;   temperatureSetpointLayers,1,2,1,2,3
;   temperatureSetpointTemperatures,230,225,70,65,60
;   temperatureStabilizeAtStartup,1,1
;   temperatureHeatedBed,0,1
;   temperatureRelayBetweenLayers,0,0
;   temperatureRelayBetweenLoops,0,0
;   fanLayers,1,2,3
;   fanSpeeds,0,50,100
;   blipFanToFullPower,1
;   adjustSpeedForCooling,1
;   minSpeedLayerTime,15
;   minCoolingSpeedSlowdown,20
;   increaseFanForCooling,0
;   minFanLayerTime,60
;   maxCoolingFanSpeed,100
;   increaseFanForBridging,1
;   bridgingFanSpeed,100
;   use5D,1
;   relativeEdistances,0
;   allowEaxisZeroing,1
;   independentExtruderAxes,0
;   includeM10123,0
;   stickySupport,1
;   applyToolheadOffsets,0
;   gcodeXoffset,0
;   gcodeYoffset,0
;   gcodeZoffset,0
;   overrideMachineDefinition,1
;   machineTypeOverride,1
;   strokeXoverride,190
;   strokeYoverride,190
;   strokeZoverride,204.4
;   originOffsetXoverride,95
;   originOffsetYoverride,95
;   originOffsetZoverride,0
;   homeXdirOverride,0
;   homeYdirOverride,0
;   homeZdirOverride,1
;   flipXoverride,1
;   flipYoverride,-1
;   flipZoverride,1
;   toolheadOffsets,0,0|0,0|0,0|0,0|0,0|0,0
;   overrideFirmwareConfiguration,1
;   firmwareTypeOverride,RepRap (Marlin/Repetier/Sprinter)
;   GPXconfigOverride,r2
;   baudRateOverride,115200
;   overridePrinterModels,1
;   printerModelsOverride
;   startingGcode,G28 ; home all axes
;   layerChangeGcode,
;   retractionGcode,
;   toolChangeGcode,
;   endingGcode,M104 S0 ; turn off extruder,M140 S0 ; turn off bed,M107 ; turn off cooling fan,G28 ; home axes,M84 ; disable motors
;   exportFileFormat,gcode
;   celebration,0
;   celebrationSong,Random Song
;   postProcessing,
;   defaultSpeed,3600
;   outlineUnderspeed,0.5
;   solidInfillUnderspeed,0.8
;   supportUnderspeed,0.8
;   rapidXYspeed,6000
;   rapidZspeed,1200
;   minBridgingArea,50
;   bridgingExtraInflation,0
;   bridgingExtrusionMultiplier,0.95
;   bridgingSpeedMultiplier,0.7
;   filamentDiameter,1.73
;   filamentPricePerKg,25
;   filamentDensity,1.25
;   useMinPrintHeight,0
;   minPrintHeight,0
;   useMaxPrintHeight,0
;   maxPrintHeight,10
;   useDiaphragm,0
;   diaphragmLayerInterval,20
;   robustSlicing,1
;   mergeAllIntoSolid,0
;   onlyRetractWhenCrossingOutline,1
;   retractBetweenLayers,1
;   useRetractionMinTravel,0
;   retractionMinTravel,3
;   retractWhileWiping,0
;   onlyWipeOutlines,1
;   avoidCrossingOutline,0
;   maxMovementDetourFactor,3
;   toolChangeRetractionDistance,12
;   toolChangeExtraRestartDistance,-0.5
;   toolChangeRetractionSpeed,600
;   allowThinWallGapFill,1
;   thinWallAllowedOverlapPercentage,10
;   horizontalSizeCompensation,0
G90
M82
M106 S0
M140 S70
M190 S70
M104 S230 T0
M109 S230 T0
G28 ; home all axes
G92 E0
G1 E-4.0000 F3600
G1 Z0.340 F1200
; layer 1, Z = 0.24
T0
; tool H0.300 W0.576
; skirt
G1 X0.000 Y-35.491 F6000
G1 Z0.240 F1200
G1 E0.0000 F1080
G92 E0
G1 X0.707 Y-36.198 E0.0735 F1800
G1 X0.795 Y-36.235 E0.0805
G1 X39.205 Y-36.235 E2.9041
G1 X39.293 Y-36.198 E2.9111
G1 X41.703 Y-33.788 E3.1617
G1 X41.740 Y-33.700 E3.1688
G1 X41.740 Y-0.290 E5.6247
G1 X41.703 Y-0.202 E5.6318
G1 X40.996 Y0.505 E5.7053
G1 X41.703 Y1.212 E5.7788
G1 X41.740 Y1.300 E5.7858
G1 X41.740 Y33.700 E8.1676
G1 X41.703 Y33.788 E8.1746
G1 X39.293 Y36.198 E8.4252
G1 X39.205 Y36.235 E8.4322
G1 X0.795 Y36.235 E11.2558
G1 X0.707 Y36.198 E11.2628
G1 X0.000 Y35.491 E11.3363
G1 X-0.707 Y36.198 E11.4099
G1 X-0.795 Y36.235 E11.4169
G1 X-39.205 Y36.235 E14.2404
G1 X-39.293 Y36.198 E14.2474
G1 X-41.703 Y33.788 E14.4981
G1 X-41.740 Y33.700 E14.5051
G1 X-41.740 Y1.300 E16.8868
G1 X-41.703 Y1.212 E16.8939
G1 X-40.996 Y0.505 E16.9674
G1 X-41.703 Y-0.202 E17.0409
G1 X-41.740 Y-0.290 E17.0479
G1 X-41.740 Y-33.700 E19.5039
G1 X-41.703 Y-33.788 E19.5109
G1 X-39.293 Y-36.198 E19.7615
G1 X-39.205 Y-36.235 E19.7686
G1 X-0.795 Y-36.235 E22.5921
G1 X-0.707 Y-36.198 E22.5991
G1 X0.000 Y-35.491 E22.6727
G92 E0
G1 E-4.0000 F3600
G1 Z0.340 F1200
; inner perimeter
G1 X3.940 Y-30.555 F6000
G1 Z0.240 F1200
G1 E0.0000 F3600
G92 E0
G1 X36.060 Y-30.555 E2.3612 F1500
G1 X36.060 Y-22.198 E2.9755
G1 X35.629 Y-22.170 E3.0073
G1 X35.545 Y-22.811 E3.0548
G1 X35.230 Y-23.571 E3.1153
G1 X34.729 Y-24.224 E3.1758
G1 X34.076 Y-24.725 E3.2363
G1 X33.316 Y-25.040 E3.2968
G1 X32.500 Y-25.147 E3.3573
G1 X31.684 Y-25.040 E3.4178
G1 X30.924 Y-24.725 E3.4783
G1 X30.271 Y-24.224 E3.5388
G1 X29.770 Y-23.571 E3.5993
G1 X29.455 Y-22.811 E3.6597
G1 X29.348 Y-21.995 E3.7202
G1 X29.455 Y-21.179 E3.7807
G1 X29.770 Y-20.419 E3.8412
G1 X30.271 Y-19.766 E3.9017
G1 X30.924 Y-19.265 E3.9622
G1 X31.684 Y-18.950 E4.0227
G1 X32.500 Y-18.843 E4.0832
G1 X33.316 Y-18.950 E4.1437
G1 X34.076 Y-19.265 E4.2042
G1 X34.729 Y-19.766 E4.2647
G1 X35.230 Y-20.419 E4.3252
G1 X35.545 Y-21.179 E4.3857
G1 X35.629 Y-21.820 E4.4332
G1 X36.060 Y-21.792 E4.4650
G1 X36.060 Y-7.198 E5.5377
G1 X35.629 Y-7.170 E5.5695
G1 X35.545 Y-7.811 E5.6170
G1 X35.230 Y-8.571 E5.6775
G1 X34.729 Y-9.224 E5.7380
G1 X34.076 Y-9.725 E5.7985
G1 X33.316 Y-10.040 E5.8590
G1 X32.500 Y-10.147 E5.9195
G1 X31.684 Y-10.040 E5.9800
G1 X30.924 Y-9.725 E6.0405
G1 X30.271 Y-9.224 E6.1010
G1 X29.770 Y-8.571 E6.1614
G1 X29.455 Y-7.811 E6.2219
G1 X29.348 Y-6.995 E6.2824
G1 X29.455 Y-6.179 E6.3429
G1 X29.770 Y-5.419 E6.4034
G1 X30.271 Y-4.766 E6.4639
G1 X30.924 Y-4.265 E6.5244
G1 X31.684 Y-3.950 E6.5849
G1 X32.325 Y-3.866 E6.6324
G1 X32.296 Y-3.435 E6.6641
G1 X7.704 Y-3.435 E8.4720
G1 X7.675 Y-3.866 E8.5037
G1 X8.316 Y-3.950 E8.5512
G1 X9.076 Y-4.265 E8.6117
G1 X9.729 Y-4.766 E8.6722
G1 X10.230 Y-5.419 E8.7327
G1 X10.545 Y-6.179 E8.7932
G1 X10.652 Y-6.995 E8.8537
G1 X10.545 Y-7.811 E8.9142
G1 X10.230 Y-8.571 E8.9747
G1 X9.729 Y-9.224 E9.0352
G1 X9.076 Y-9.725 E9.0957
G1 X8.316 Y-10.040 E9.1562
G1 X7.500 Y-10.147 E9.2167
G1 X6.684 Y-10.040 E9.2772
G1 X5.924 Y-9.725 E9.3377
G1 X5.271 Y-9.224 E9.3982
G1 X4.770 Y-8.571 E9.4587
G1 X4.455 Y-7.811 E9.5192
G1 X4.371 Y-7.171 E9.5667
G1 X3.940 Y-7.199 E9.5984
G1 X3.940 Y-21.791 E10.6711
G1 X4.371 Y-21.819 E10.7028
G1 X4.455 Y-21.179 E10.7503
G1 X4.770 Y-20.419 E10.8108
G1 X5.271 Y-19.766 E10.8713
G1 X5.924 Y-19.265 E10.9318
G1 X6.684 Y-18.950 E10.9923
G1 X7.500 Y-18.843 E11.0528
G1 X8.316 Y-18.950 E11.1133
G1 X9.076 Y-19.265 E11.1738
G1 X9.729 Y-19.766 E11.2343
G1 X10.230 Y-20.419 E11.2948
G1 X10.545 Y-21.179 E11.3553
G1 X10.652 Y-21.995 E11.4158
G1 X10.545 Y-22.811 E11.4763
G1 X10.230 Y-23.571 E11.5368
G1 X9.729 Y-24.224 E11.5973
G1 X9.076 Y-24.725 E11.6578
G1 X8.316 Y-25.040 E11.7183
G1 X7.500 Y-25.147 E11.7788
G1 X6.684 Y-25.040 E11.8393
G1 X5.924 Y-24.725 E11.8998
G1 X5.271 Y-24.224 E11.9603
G1 X4.770 Y-23.571 E12.0208
G1 X4.455 Y-22.811 E12.0813
G1 X4.371 Y-22.171 E12.1287
G1 X3.940 Y-22.199 E12.1605
G1 X3.940 Y-30.555 E12.7748
G1 X4.371 Y-6.819 F6000
G92 E0
G1 X4.455 Y-6.179 E0.0475 F1500
G1 X4.770 Y-5.419 E0.1080
G1 X5.271 Y-4.766 E0.1685
G1 X5.924 Y-4.265 E0.2290
G1 X6.684 Y-3.950 E0.2895
G1 X7.325 Y-3.866 E0.3370
G1 X7.296 Y-3.435 E0.3687
G1 X3.940 Y-3.435 E0.6154
G1 X3.940 Y-6.791 E0.8621
G1 X4.371 Y-6.819 E0.8939
G92 E0
G1 E-4.0000 F3600
G1 Z0.340 F1200
G1 X32.675 Y-3.866 F6000
G1 Z0.240 F1200
G1 E0.0000 F3600
G92 E0
G1 X33.316 Y-3.950 E0.0475 F1500
G1 X34.076 Y-4.265 E0.1080
G1 X34.729 Y-4.766 E0.1685
G1 X35.230 Y-5.419 E0.2290
G1 X35.545 Y-6.179 E0.2895
G1 X35.629 Y-6.820 E0.3370
G1 X36.060 Y-6.792 E0.3687
G1 X36.060 Y-3.435 E0.6155
G1 X32.704 Y-3.435 E0.8622
G1 X32.675 Y-3.866 E0.8939
; inner perimeter
G1 X3.364 Y-31.131 F6000
G92 E0
G1 X36.636 Y-31.131 E2.4459 F1200
G1 X36.636 Y-2.859 E4.5243
G1 X3.364 Y-2.859 E6.9702
G1 X3.364 Y-31.131 E9.0485
; outer perimeter
G1 X2.788 Y-31.707 F6000
G92 E0
G1 X37.212 Y-31.707 E2.5306 F900
G1 X37.212 Y-2.283 E4.6936
G1 X2.788 Y-2.283 E7.2242
G1 X2.788 Y-31.707 E9.3873
G1 X4.788 Y-31.707 F3600
; inner perimeter
; inner perimeter
G1 X6.214 Y-24.222 F6000
G92 E0
G1 X5.682 Y-23.813 E0.0493 F1200
G1 X5.273 Y-23.281 E0.0987
G1 X5.016 Y-22.661 E0.1480
G1 X4.929 Y-21.995 E0.1974
G1 X5.016 Y-21.329 E0.2467
G1 X5.273 Y-20.709 E0.2961
G1 X5.682 Y-20.177 E0.3454
G1 X6.214 Y-19.768 E0.3948
G1 X6.834 Y-19.511 E0.4441
G1 X7.500 Y-19.424 E0.4935
G1 X8.166 Y-19.511 E0.5428
G1 X8.786 Y-19.768 E0.5922
G1 X9.318 Y-20.177 E0.6415
G1 X9.727 Y-20.709 E0.6909
G1 X9.984 Y-21.329 E0.7402
G1 X10.071 Y-21.995 E0.7896
G1 X9.984 Y-22.661 E0.8389
G1 X9.727 Y-23.281 E0.8883
G1 X9.318 Y-23.813 E0.9376
G1 X8.786 Y-24.222 E0.9870
G1 X8.166 Y-24.479 E1.0363
G1 X7.500 Y-24.566 E1.0856
G1 X6.834 Y-24.479 E1.1350
G1 X6.214 Y-24.222 E1.1843
; outer perimeter
G1 X6.505 Y-23.719 F6000
G92 E0
G1 X6.093 Y-23.402 E0.0382 F900
G1 X5.776 Y-22.990 E0.0764
G1 X5.577 Y-22.510 E0.1146
G1 X5.509 Y-21.995 E0.1528
G1 X5.577 Y-21.480 E0.1910
G1 X5.776 Y-21.000 E0.2292
G1 X6.093 Y-20.588 E0.2674
G1 X6.505 Y-20.271 E0.3056
G1 X6.985 Y-20.072 E0.3438
G1 X7.500 Y-20.004 E0.3820
G1 X8.015 Y-20.072 E0.4202
G1 X8.495 Y-20.271 E0.4584
G1 X8.907 Y-20.588 E0.4966
G1 X9.224 Y-21.000 E0.5348
G1 X9.423 Y-21.480 E0.5730
G1 X9.490 Y-21.995 E0.6112
G1 X9.423 Y-22.510 E0.6494
G1 X9.224 Y-22.990 E0.6876
G1 X8.907 Y-23.402 E0.7258
G1 X8.495 Y-23.719 E0.7640
G1 X8.015 Y-23.918 E0.8022
G1 X7.500 Y-23.985 E0.8404
G1 X6.985 Y-23.918 E0.8786
G1 X6.505 Y-23.719 E0.9168
G1 X6.093 Y-23.402 F3600
G1 X5.776 Y-22.990 F3600
G1 X5.577 Y-22.510 F3600
G1 X5.520 Y-22.073 F3600
; inner perimeter
; inner perimeter
G1 X6.834 Y-9.479 F6000
G92 E0
G1 X6.214 Y-9.222 E0.0493 F1200
G1 X5.682 Y-8.813 E0.0987
G1 X5.273 Y-8.281 E0.1480
G1 X5.016 Y-7.661 E0.1974
G1 X4.929 Y-6.995 E0.2467
G1 X5.016 Y-6.329 E0.2961
G1 X5.273 Y-5.709 E0.3454
G1 X5.682 Y-5.177 E0.3948
G1 X6.214 Y-4.768 E0.4441
G1 X6.834 Y-4.511 E0.4935
G1 X7.500 Y-4.424 E0.5428
G1 X8.166 Y-4.511 E0.5922
G1 X8.786 Y-4.768 E0.6415
G1 X9.318 Y-5.177 E0.6909
G1 X9.727 Y-5.709 E0.7402
G1 X9.984 Y-6.329 E0.7896
G1 X10.071 Y-6.995 E0.8389
G1 X9.984 Y-7.661 E0.8883
G1 X9.727 Y-8.281 E0.9376
G1 X9.318 Y-8.813 E0.9870
G1 X8.786 Y-9.222 E1.0363
G1 X8.166 Y-9.479 E1.0857
G1 X7.500 Y-9.566 E1.1350
G1 X6.834 Y-9.479 E1.1843
; outer perimeter
G1 X6.985 Y-8.918 F6000
G92 E0
G1 X6.505 Y-8.719 E0.0382 F900
G1 X6.093 Y-8.402 E0.0764
G1 X5.776 Y-7.990 E0.1146
G1 X5.577 Y-7.510 E0.1528
G1 X5.509 Y-6.995 E0.1910
G1 X5.577 Y-6.480 E0.2292
G1 X5.776 Y-6.000 E0.2674
G1 X6.093 Y-5.588 E0.3056
G1 X6.505 Y-5.271 E0.3438
G1 X6.985 Y-5.072 E0.3820
G1 X7.500 Y-5.005 E0.4202
G1 X8.015 Y-5.072 E0.4584
G1 X8.495 Y-5.271 E0.4966
G1 X8.907 Y-5.588 E0.5348
G1 X9.224 Y-6.000 E0.5730
G1 X9.423 Y-6.480 E0.6112
G1 X9.490 Y-6.995 E0.6494
G1 X9.423 Y-7.510 E0.6876
G1 X9.224 Y-7.990 E0.7258
G1 X8.907 Y-8.402 E0.7640
G1 X8.495 Y-8.719 E0.8022
G1 X8.015 Y-8.918 E0.8404
G1 X7.500 Y-8.985 E0.8786
G1 X6.985 Y-8.918 E0.9168
G92 E0
G1 E-4.0000 F3600
G1 X6.505 Y-8.719 F3600
G1 X6.093 Y-8.402 F3600
G1 X5.776 Y-7.990 F3600
G1 X5.607 Y-7.583 F3600
G1 Z0.340 F1200
; inner perimeter
; inner perimeter
G1 X30.682 Y-8.813 F6000
G1 Z0.240 F1200
G1 E0.0000 F3600
G92 E0
G1 X30.273 Y-8.281 E0.0493 F1200
G1 X30.016 Y-7.661 E0.0987
G1 X29.929 Y-6.995 E0.1480
G1 X30.016 Y-6.329 E0.1974
G1 X30.273 Y-5.709 E0.2467
G1 X30.682 Y-5.177 E0.2961
G1 X31.214 Y-4.768 E0.3454
G1 X31.834 Y-4.511 E0.3948
G1 X32.500 Y-4.424 E0.4441
G1 X33.166 Y-4.511 E0.4935
G1 X33.786 Y-4.768 E0.5428
G1 X34.318 Y-5.177 E0.5922
G1 X34.727 Y-5.709 E0.6415
G1 X34.984 Y-6.329 E0.6909
G1 X35.071 Y-6.995 E0.7402
G1 X34.984 Y-7.661 E0.7896
G1 X34.727 Y-8.281 E0.8389
G1 X34.318 Y-8.813 E0.8883
G1 X33.786 Y-9.222 E0.9376
G1 X33.166 Y-9.479 E0.9870
G1 X32.500 Y-9.566 E1.0363
G1 X31.834 Y-9.479 E1.0856
G1 X31.214 Y-9.222 E1.1350
G1 X30.682 Y-8.813 E1.1843
; outer perimeter
G1 X31.093 Y-8.402 F6000
G92 E0
G1 X30.776 Y-7.990 E0.0382 F900
G1 X30.577 Y-7.510 E0.0764
G1 X30.509 Y-6.995 E0.1146
G1 X30.577 Y-6.480 E0.1528
G1 X30.776 Y-6.000 E0.1910
G1 X31.093 Y-5.588 E0.2292
G1 X31.505 Y-5.271 E0.2674
G1 X31.985 Y-5.072 E0.3056
G1 X32.500 Y-5.005 E0.3438
G1 X33.015 Y-5.072 E0.3820
G1 X33.495 Y-5.271 E0.4202
G1 X33.907 Y-5.588 E0.4584
G1 X34.224 Y-6.000 E0.4966
G1 X34.423 Y-6.480 E0.5348
G1 X34.490 Y-6.995 E0.5730
G1 X34.423 Y-7.510 E0.6112
G1 X34.224 Y-7.990 E0.6494
G1 X33.907 Y-8.402 E0.6876
G1 X33.495 Y-8.719 E0.7258
G1 X33.015 Y-8.918 E0.7640
G1 X32.500 Y-8.985 E0.8022
G1 X31.985 Y-8.918 E0.8404
G1 X31.505 Y-8.719 E0.8786
G1 X31.093 Y-8.402 E0.9168
G1 X30.776 Y-7.990 F3600
G1 X30.577 Y-7.510 F3600
G1 X30.509 Y-6.995 F3600
G1 X30.567 Y-6.558 F3600
; inner perimeter
; inner perimeter
G1 X30.273 Y-23.281 F6000
G92 E0
G1 X30.016 Y-22.661 E0.0493 F1200
G1 X29.929 Y-21.995 E0.0987
G1 X30.016 Y-21.329 E0.1480
G1 X30.273 Y-20.709 E0.1974
G1 X30.682 Y-20.177 E0.2467
G1 X31.214 Y-19.768 E0.2961
G1 X31.834 Y-19.511 E0.3454
G1 X32.500 Y-19.424 E0.3948
G1 X33.166 Y-19.511 E0.4441
G1 X33.786 Y-19.768 E0.4935
G1 X34.318 Y-20.177 E0.5428
G1 X34.727 Y-20.709 E0.5922
G1 X34.984 Y-21.329 E0.6415
G1 X35.071 Y-21.995 E0.6909
G1 X34.984 Y-22.661 E0.7402
G1 X34.727 Y-23.281 E0.7896
G1 X34.318 Y-23.813 E0.8389
G1 X33.786 Y-24.222 E0.8883
G1 X33.166 Y-24.479 E0.9376
G1 X32.500 Y-24.566 E0.9870
G1 X31.834 Y-24.479 E1.0363
G1 X31.214 Y-24.222 E1.0856
G1 X30.682 Y-23.813 E1.1350
G1 X30.273 Y-23.281 E1.1843
; outer perimeter
G1 X30.776 Y-22.990 F6000
G92 E0
G1 X30.577 Y-22.510 E0.0382 F900
G1 X30.509 Y-21.995 E0.0764
G1 X30.577 Y-21.480 E0.1146
G1 X30.776 Y-21.000 E0.1528
G1 X31.093 Y-20.588 E0.1910
G1 X31.505 Y-20.271 E0.2292
G1 X31.985 Y-20.072 E0.2674
G1 X32.500 Y-20.004 E0.3056
G1 X33.015 Y-20.072 E0.3438
G1 X33.495 Y-20.271 E0.3820
G1 X33.907 Y-20.588 E0.4202
G1 X34.224 Y-21.000 E0.4584
