; G-Code generated by Simplify3D(R) Version 3.1.1
; Mar 11, 2017 at 11:44:38 AM
; Settings Summary
;   processName,Process1
;   applyToModels,MarkerGantry
;   profileName,Belfry (modified)
;   profileVersion,2017-03-09 09:08:18
;   baseProfile,Default
;   printMaterial,PLA+
;   printQuality,Medium
;   printExtruders,
;   extruderName,Extruder 1
;   extruderToolheadNumber,0
;   extruderDiameter,0.4
;   extruderAutoWidth,1
;   extruderWidth,0.48
;   extrusionMultiplier,1
;   extruderUseRetract,1
;   extruderRetractionDistance,4
;   extruderExtraRestartDistance,0
;   extruderRetractionZLift,0
;   extruderRetractionSpeed,3600
;   extruderUseCoasting,0
;   extruderCoastingDistance,0.2
;   extruderUseWipe,1
;   extruderWipeDistance,2
;   primaryExtruder,0
;   layerHeight,0.3
;   topSolidLayers,3
;   bottomSolidLayers,3
;   perimeterOutlines,3
;   printPerimetersInsideOut,1
;   startPointOption,2
;   startPointOriginX,0
;   startPointOriginY,0
;   startPointOriginZ,300
;   sequentialIslands,0
;   spiralVaseMode,0
;   firstLayerHeightPercentage,90
;   firstLayerWidthPercentage,100
;   firstLayerUnderspeed,0.5
;   useRaft,0
;   raftExtruder,0
;   raftLayers,3
;   raftOffset,3
;   raftSeparationDistance,0.14
;   raftInfill,85
;   disableRaftBaseLayers,0
;   useSkirt,1
;   skirtExtruder,0
;   skirtLayers,1
;   skirtOutlines,1
;   skirtOffset,4
;   usePrimePillar,0
;   primePillarExtruder,999
;   primePillarWidth,12
;   primePillarLocation,7
;   primePillarSpeedMultiplier,1
;   useOozeShield,0
;   oozeShieldExtruder,999
;   oozeShieldOffset,2
;   oozeShieldOutlines,1
;   oozeShieldSidewallShape,1
;   oozeShieldSidewallAngle,30
;   oozeShieldSpeedMultiplier,1
;   infillExtruder,0
;   internalInfillPattern,Rectilinear
;   externalInfillPattern,Rectilinear
;   infillPercentage,40
;   outlineOverlapPercentage,15
;   infillExtrusionWidthPercentage,100
;   minInfillLength,5
;   infillLayerInterval,1
;   infillAngles,45,-45
;   overlapInfillAngles,0
;   generateSupport,0
;   supportExtruder,0
;   supportInfillPercentage,30
;   supportExtraInflation,0
;   denseSupportLayers,0
;   denseSupportInfillPercentage,70
;   supportLayerInterval,1
;   supportHorizontalPartOffset,0.3
;   supportUpperSeparationLayers,1
;   supportLowerSeparationLayers,1
;   supportType,0
;   supportGridSpacing,4
;   maxOverhangAngle,45
;   supportAngles,0
;   temperatureName,Extruder 1,Heated Bed
;   temperatureNumber,0,0
;   temperatureSetpointCount,1,3
;   temperatureSetpointLayers,1,1,2,3
;   temperatureSetpointTemperatures,225,70,65,60
;   temperatureStabilizeAtStartup,1,1
;   temperatureHeatedBed,0,1
;   temperatureRelayBetweenLayers,0,0
;   temperatureRelayBetweenLoops,0,0
;   fanLayers,1,2,3
;   fanSpeeds,0,50,100
;   blipFanToFullPower,0
;   adjustSpeedForCooling,1
;   minSpeedLayerTime,15
;   minCoolingSpeedSlowdown,20
;   increaseFanForCooling,0
;   minFanLayerTime,45
;   maxCoolingFanSpeed,100
;   increaseFanForBridging,0
;   bridgingFanSpeed,100
;   use5D,1
;   relativeEdistances,0
;   allowEaxisZeroing,1
;   independentExtruderAxes,0
;   includeM10123,0
;   stickySupport,1
;   applyToolheadOffsets,0
;   gcodeXoffset,0
;   gcodeYoffset,0
;   gcodeZoffset,0
;   overrideMachineDefinition,1
;   machineTypeOverride,0
;   strokeXoverride,300
;   strokeYoverride,200
;   strokeZoverride,350
;   originOffsetXoverride,0
;   originOffsetYoverride,0
;   originOffsetZoverride,0
;   homeXdirOverride,-1
;   homeYdirOverride,-1
;   homeZdirOverride,-1
;   flipXoverride,1
;   flipYoverride,-1
;   flipZoverride,1
;   toolheadOffsets,0,0|0,0|0,0|0,0|0,0|0,0
;   overrideFirmwareConfiguration,1
;   firmwareTypeOverride,RepRap (Marlin/Repetier/Sprinter)
;   GPXconfigOverride,r2
;   baudRateOverride,115200
;   overridePrinterModels,0
;   printerModelsOverride
;   startingGcode,G28 ; home all axes
;   layerChangeGcode,
;   retractionGcode,
;   toolChangeGcode,
;   endingGcode,G91 ;relative positioning,G1 Z+0.5 ;move Z up a bit,G28 X0 Y0 ;move X/Y to min endstops, so the head is out of the way,M104 S0 ; turn off extruder,M140 S0 ; turn off bed,M84 ; disable motors
;   exportFileFormat,gcode
;   celebration,0
;   celebrationSong,Random Song
;   postProcessing,
;   defaultSpeed,3000
;   outlineUnderspeed,0.5
;   solidInfillUnderspeed,0.8
;   supportUnderspeed,0.8
;   rapidXYspeed,4200
;   rapidZspeed,1002
;   minBridgingArea,50
;   bridgingExtraInflation,0
;   bridgingExtrusionMultiplier,1
;   bridgingSpeedMultiplier,1
;   filamentDiameter,1.7
;   filamentPricePerKg,30
;   filamentDensity,1.25
;   useMinPrintHeight,0
;   minPrintHeight,0
;   useMaxPrintHeight,0
;   maxPrintHeight,0
;   useDiaphragm,0
;   diaphragmLayerInterval,20
;   robustSlicing,1
;   mergeAllIntoSolid,0
;   onlyRetractWhenCrossingOutline,1
;   retractBetweenLayers,1
;   useRetractionMinTravel,0
;   retractionMinTravel,3
;   retractWhileWiping,0
;   onlyWipeOutlines,1
;   avoidCrossingOutline,0
;   maxMovementDetourFactor,3
;   toolChangeRetractionDistance,12
;   toolChangeExtraRestartDistance,-0.5
;   toolChangeRetractionSpeed,600
;   allowThinWallGapFill,1
;   thinWallAllowedOverlapPercentage,10
;   horizontalSizeCompensation,0
G90
M82
M106 S0
M140 S70
M190 S70
M104 S225 T0
M109 S225 T0
G28 ; home all axes
G92 E0
G1 E-4.0000 F3600
G1 Z0.270 F1002
; layer 1, Z = 0.27
T0
; tool H0.300 W0.480
; skirt
G1 X49.282 Y78.297 F4200
G1 E0.0000 F1080
G92 E0
G1 X49.370 Y78.260 E0.0061 F1500
G1 X245.630 Y78.260 E12.4571
G1 X245.718 Y78.297 E12.4631
G1 X248.128 Y80.707 E12.6794
G1 X248.165 Y80.795 E12.6855
G1 X248.165 Y88.260 E13.1590
G1 X251.247 Y88.260 E13.3546
G1 X251.386 Y88.390 E13.3666
G1 X251.888 Y96.056 E13.8540
G1 X251.768 Y96.202 E13.8660
G1 X248.039 Y96.693 E14.1046
G1 X247.213 Y97.035 E14.1613
G1 X246.504 Y97.579 E14.2180
G1 X245.960 Y98.288 E14.2747
G1 X245.618 Y99.114 E14.3314
G1 X245.502 Y100.000 E14.3881
G1 X245.618 Y100.886 E14.4448
G1 X245.960 Y101.712 E14.5015
G1 X246.504 Y102.421 E14.5582
G1 X247.213 Y102.965 E14.6149
G1 X248.039 Y103.307 E14.6716
G1 X251.014 Y103.698 E14.8620
G1 X251.091 Y103.740 E14.8675
G1 X253.134 Y106.069 E15.0641
G1 X253.165 Y106.151 E15.0696
G1 X253.165 Y119.205 E15.8978
G1 X253.128 Y119.293 E15.9038
G1 X250.718 Y121.703 E16.1201
G1 X250.630 Y121.740 E16.1262
G1 X49.370 Y121.740 E28.8944
G1 X49.282 Y121.703 E28.9005
G1 X46.872 Y119.293 E29.1168
G1 X46.835 Y119.205 E29.1228
G1 X46.835 Y106.151 E29.9510
G1 X46.866 Y106.069 E29.9565
G1 X48.909 Y103.740 E30.1531
G1 X48.986 Y103.698 E30.1586
G1 X51.961 Y103.307 E30.3490
G1 X52.787 Y102.965 E30.4057
G1 X53.496 Y102.421 E30.4624
G1 X54.040 Y101.712 E30.5191
G1 X54.382 Y100.886 E30.5758
G1 X54.498 Y100.000 E30.6325
G1 X54.382 Y99.114 E30.6892
G1 X54.040 Y98.288 E30.7459
G1 X53.496 Y97.579 E30.8026
G1 X52.787 Y97.035 E30.8593
G1 X51.961 Y96.693 E30.9160
G1 X48.986 Y96.302 E31.1064
G1 X48.909 Y96.260 E31.1119
G1 X46.866 Y93.931 E31.3085
G1 X46.835 Y93.849 E31.3140
G1 X46.835 Y80.795 E32.1422
G1 X46.872 Y80.707 E32.1482
G1 X49.282 Y78.297 E32.3645
G92 E0
G1 E-4.0000 F3600
; inner perimeter
G1 X52.275 Y83.700 F4200
G1 E0.0000 F3600
G92 E0
G1 X242.725 Y83.700 E12.0825 F1250
G1 X242.725 Y93.622 E12.7120
G1 X242.624 Y93.699 E12.7200
G1 X241.208 Y95.545 E12.8676
G1 X240.318 Y97.694 E13.0151
G1 X240.015 Y100.000 E13.1627
G1 X240.318 Y102.306 E13.3103
G1 X241.208 Y104.455 E13.4578
G1 X242.624 Y106.301 E13.6054
G1 X244.470 Y107.717 E13.7530
G1 X246.619 Y108.607 E13.9006
G1 X247.725 Y108.752 E13.9713
G1 X247.725 Y116.300 E14.4502
G1 X52.275 Y116.300 E26.8498
G1 X52.275 Y108.752 E27.3287
G1 X53.381 Y108.607 E27.3995
G1 X55.530 Y107.717 E27.5470
G1 X57.376 Y106.301 E27.6946
G1 X58.792 Y104.455 E27.8422
G1 X59.682 Y102.306 E27.9897
G1 X59.985 Y100.000 E28.1373
G1 X59.682 Y97.694 E28.2849
G1 X58.792 Y95.545 E28.4325
G1 X57.376 Y93.699 E28.5800
G1 X55.530 Y92.283 E28.7276
G1 X53.381 Y91.393 E28.8752
G1 X52.275 Y91.248 E28.9459
G1 X52.275 Y83.700 E29.4248
; inner perimeter
G1 X51.795 Y83.220 F4200
G92 E0
G1 X243.205 Y83.220 E12.1434 F1000
G1 X243.205 Y93.220 E12.7778
G1 X244.038 Y93.220 E12.8306
G1 X242.967 Y94.042 E12.9163
G1 X241.628 Y95.787 E13.0558
G1 X240.786 Y97.819 E13.1954
G1 X240.499 Y100.000 E13.3349
G1 X240.786 Y102.181 E13.4745
G1 X241.628 Y104.213 E13.6140
G1 X242.967 Y105.958 E13.7536
G1 X244.712 Y107.297 E13.8931
G1 X246.744 Y108.139 E14.0327
G1 X248.205 Y108.331 E14.1262
G1 X248.205 Y116.780 E14.6621
G1 X51.795 Y116.780 E27.1227
G1 X51.795 Y108.331 E27.6587
G1 X53.256 Y108.139 E27.7522
G1 X55.288 Y107.297 E27.8917
G1 X57.033 Y105.958 E28.0313
G1 X58.372 Y104.213 E28.1709
G1 X59.214 Y102.181 E28.3104
G1 X59.501 Y100.000 E28.4500
G1 X59.214 Y97.819 E28.5895
G1 X58.372 Y95.787 E28.7291
G1 X57.033 Y94.042 E28.8686
G1 X55.288 Y92.703 E29.0082
G1 X53.256 Y91.861 E29.1477
G1 X51.795 Y91.669 E29.2412
G1 X51.795 Y83.220 E29.7772
; outer perimeter
G1 X51.315 Y82.740 F4200
G92 E0
G1 X243.685 Y82.740 E12.2043 F750
G1 X243.685 Y92.740 E12.8387
G1 X245.876 Y92.740 E12.9777
G1 X244.954 Y93.122 E13.0410
G1 X243.309 Y94.384 E13.1726
G1 X242.047 Y96.029 E13.3041
G1 X241.254 Y97.944 E13.4356
G1 X240.983 Y100.000 E13.5672
G1 X241.254 Y102.056 E13.6987
G1 X242.047 Y103.971 E13.8302
G1 X243.309 Y105.616 E13.9618
G1 X244.954 Y106.878 E14.0933
G1 X246.869 Y107.671 E14.2248
G1 X248.685 Y107.910 E14.3410
G1 X248.685 Y117.260 E14.9342
G1 X51.315 Y117.260 E27.4556
G1 X51.315 Y107.910 E28.0488
G1 X53.131 Y107.671 E28.1650
G1 X55.046 Y106.878 E28.2965
G1 X56.691 Y105.616 E28.4280
G1 X57.953 Y103.971 E28.5596
G1 X58.746 Y102.056 E28.6911
G1 X59.017 Y100.000 E28.8226
G1 X58.746 Y97.944 E28.9542
G1 X57.953 Y96.029 E29.0857
G1 X56.691 Y94.384 E29.2172
G1 X55.046 Y93.122 E29.3488
G1 X53.131 Y92.329 E29.4803
G1 X51.315 Y92.090 E29.5965
G1 X51.315 Y82.740 E30.1896
G1 X53.315 Y82.740 F3000
; inner perimeter
G1 X86.013 Y98.645 F4200
G92 E0
G1 X85.742 Y99.299 E0.0449 F1250
G1 X85.650 Y100.003 E0.0900
G1 X85.742 Y100.702 E0.1347
G1 X86.013 Y101.355 E0.1795
G1 X86.443 Y101.917 E0.2244
G1 X87.002 Y102.345 E0.2691
G1 X87.655 Y102.617 E0.3140
G1 X88.356 Y102.710 E0.3588
G1 X89.058 Y102.619 E0.4037
G1 X89.712 Y102.349 E0.4486
G1 X90.274 Y101.919 E0.4935
G1 X90.705 Y101.358 E0.5384
G1 X90.977 Y100.705 E0.5833
G1 X91.070 Y100.004 E0.6281
G1 X90.979 Y99.302 E0.6730
G1 X90.709 Y98.648 E0.7179
G1 X90.279 Y98.087 E0.7628
G1 X89.716 Y97.653 E0.8079
G1 X89.061 Y97.382 E0.8528
G1 X88.360 Y97.290 E0.8977
G1 X87.659 Y97.382 E0.9426
G1 X87.005 Y97.653 E0.9875
G1 X86.443 Y98.084 E1.0324
G1 X86.013 Y98.645 E1.0772
; inner perimeter
G1 X86.432 Y98.887 F4200
G92 E0
G1 X86.209 Y99.424 E0.0369 F1000
G1 X86.134 Y100.003 E0.0739
G1 X86.210 Y100.576 E0.1106
G1 X86.432 Y101.113 E0.1475
G1 X86.786 Y101.574 E0.1843
G1 X87.245 Y101.926 E0.2210
G1 X87.781 Y102.149 E0.2579
G1 X88.357 Y102.226 E0.2947
G1 X88.933 Y102.151 E0.3316
G1 X89.470 Y101.929 E0.3685
G1 X89.932 Y101.576 E0.4053
G1 X90.286 Y101.116 E0.4422
G1 X90.509 Y100.579 E0.4791
G1 X90.586 Y100.003 E0.5159
G1 X90.511 Y99.427 E0.5528
G1 X90.289 Y98.890 E0.5897
G1 X89.936 Y98.428 E0.6265
G1 X89.474 Y98.072 E0.6636
G1 X88.936 Y97.850 E0.7005
G1 X88.360 Y97.774 E0.7373
G1 X87.784 Y97.850 E0.7742
G1 X87.247 Y98.072 E0.8111
G1 X86.786 Y98.426 E0.8479
G1 X86.432 Y98.887 E0.8848
; outer perimeter
G1 X86.851 Y99.129 F4200
G92 E0
G1 X86.677 Y99.549 E0.0289 F750
G1 X86.618 Y100.002 E0.0578
G1 X86.677 Y100.451 E0.0866
G1 X86.851 Y100.871 E0.1154
G1 X87.128 Y101.232 E0.1443
G1 X87.487 Y101.507 E0.1730
G1 X87.907 Y101.682 E0.2018
G1 X88.357 Y101.742 E0.2306
G1 X88.808 Y101.683 E0.2595
G1 X89.229 Y101.510 E0.2883
G1 X89.590 Y101.233 E0.3172
G1 X89.867 Y100.873 E0.3460
G1 X90.042 Y100.453 E0.3749
G1 X90.102 Y100.003 E0.4037
G1 X90.043 Y99.552 E0.4326
G1 X89.870 Y99.131 E0.4614
G1 X89.593 Y98.770 E0.4903
G1 X89.231 Y98.491 E0.5193
G1 X88.811 Y98.317 E0.5481
G1 X88.360 Y98.258 E0.5770
G1 X87.909 Y98.317 E0.6058
G1 X87.489 Y98.491 E0.6347
G1 X87.128 Y98.768 E0.6635
G1 X86.851 Y99.129 E0.6924
G92 E0
G1 E-4.0000 F3600
G1 X86.677 Y99.549 F3000
G1 X86.618 Y100.002 F3000
G1 X86.677 Y100.451 F3000
G1 X86.851 Y100.871 F3000
G1 X86.961 Y101.015 F3000
; inner perimeter
G1 X92.160 Y86.300 F4200
G1 E0.0000 F3600
G92 E0
G1 X92.160 Y113.700 E1.7383 F1250
G1 X200.990 Y113.700 E8.6427
G1 X200.990 Y86.300 E10.3810
G1 X92.160 Y86.300 E17.2853
; inner perimeter
G1 X92.640 Y86.780 F4200
G92 E0
G1 X92.640 Y113.220 E1.6774 F1000
G1 X200.510 Y113.220 E8.5209
G1 X200.510 Y86.780 E10.1983
G1 X92.640 Y86.780 E17.0417
; outer perimeter
G1 X93.120 Y87.260 F4200
G92 E0
G1 X93.120 Y112.740 E1.6165 F750
G1 X200.030 Y112.740 E8.3990
G1 X200.030 Y87.260 E10.0155
G1 X93.120 Y87.260 E16.7981
G92 E0
G1 E-4.0000 F3600
G1 X93.120 Y89.260 F3000
; inner perimeter
G1 X202.172 Y99.299 F4200
G1 E0.0000 F3600
G92 E0
G1 X202.080 Y100.001 E0.0449 F1250
G1 X202.173 Y100.704 E0.0900
G1 X202.443 Y101.355 E0.1347
G1 X202.873 Y101.917 E0.1795
G1 X203.432 Y102.345 E0.2242
G1 X204.085 Y102.617 E0.2691
G1 X204.786 Y102.710 E0.3139
G1 X205.488 Y102.619 E0.3588
G1 X206.142 Y102.349 E0.4037
G1 X206.703 Y101.919 E0.4486
G1 X207.135 Y101.358 E0.4935
G1 X207.407 Y100.705 E0.5384
G1 X207.500 Y100.004 E0.5832
G1 X207.409 Y99.302 E0.6281
G1 X207.139 Y98.648 E0.6730
G1 X206.709 Y98.087 E0.7179
G1 X206.146 Y97.653 E0.7630
G1 X205.491 Y97.382 E0.8079
G1 X204.790 Y97.290 E0.8528
G1 X204.089 Y97.382 E0.8977
G1 X203.435 Y97.653 E0.9426
G1 X202.873 Y98.084 E0.9875
G1 X202.443 Y98.645 E1.0324
G1 X202.172 Y99.299 E1.0772
; inner perimeter
G1 X202.640 Y99.424 F4200
G92 E0
G1 X202.564 Y100.001 E0.0369 F1000
G1 X202.641 Y100.579 E0.0739
G1 X202.862 Y101.113 E0.1106
G1 X203.216 Y101.574 E0.1475
G1 X203.675 Y101.926 E0.1842
G1 X204.211 Y102.149 E0.2210
G1 X204.787 Y102.226 E0.2579
G1 X205.363 Y102.151 E0.2947
G1 X205.900 Y101.929 E0.3316
G1 X206.362 Y101.576 E0.3685
G1 X206.716 Y101.116 E0.4053
G1 X206.939 Y100.579 E0.4422
G1 X207.016 Y100.003 E0.4791
G1 X206.941 Y99.427 E0.5159
G1 X206.719 Y98.890 E0.5528
G1 X206.366 Y98.428 E0.5897
G1 X205.904 Y98.072 E0.6267
G1 X205.366 Y97.850 E0.6636
G1 X204.790 Y97.774 E0.7005
G1 X204.214 Y97.850 E0.7373
G1 X203.677 Y98.072 E0.7742
G1 X203.216 Y98.426 E0.8111
G1 X202.862 Y98.887 E0.8479
G1 X202.640 Y99.424 E0.8848
; outer perimeter
G1 X203.107 Y99.549 F4200
G92 E0
G1 X203.048 Y100.000 E0.0289 F750
G1 X203.108 Y100.453 E0.0578
G1 X203.281 Y100.871 E0.0865
G1 X203.558 Y101.232 E0.1154
G1 X203.917 Y101.507 E0.1441
G1 X204.337 Y101.682 E0.1729
G1 X204.787 Y101.742 E0.2018
G1 X205.238 Y101.683 E0.2306
G1 X205.659 Y101.510 E0.2595
G1 X206.020 Y101.233 E0.2883
G1 X206.297 Y100.873 E0.3172
G1 X206.472 Y100.453 E0.3460
G1 X206.532 Y100.003 E0.3749
G1 X206.473 Y99.552 E0.4037
G1 X206.300 Y99.131 E0.4326
G1 X206.023 Y98.770 E0.4614
G1 X205.661 Y98.491 E0.4904
G1 X205.241 Y98.317 E0.5193
G1 X204.790 Y98.258 E0.5481
G1 X204.339 Y98.317 E0.5770
G1 X203.919 Y98.491 E0.6058
G1 X203.558 Y98.768 E0.6347
G1 X203.281 Y99.129 E0.6635
G1 X203.107 Y99.549 E0.6924
G1 X203.048 Y100.000 F3000
G1 X203.108 Y100.453 F3000
G1 X203.281 Y100.871 F3000
G1 X203.558 Y101.232 F3000
G1 X203.702 Y101.342 F3000
; solid layer
G1 X204.701 Y103.110 F4200
G92 E0
G1 X217.483 Y115.892 E1.1468 F1200
G1 X218.161 Y115.892 E1.1898
G1 X205.321 Y103.052 E2.3419
G1 X205.594 Y103.016 E2.3593
G1 X205.856 Y102.908 E2.3773
G1 X218.840 Y115.892 E3.5422
G1 X219.519 Y115.892 E3.5853
G1 X206.337 Y102.710 E4.7680
G1 X206.347 Y102.706 E4.7687
G1 X206.723 Y102.418 E4.7988
G1 X220.198 Y115.892 E6.0077
G1 X220.877 Y115.892 E6.0508
G1 X207.082 Y102.097 E7.2885
G1 X207.377 Y101.713 E7.3192
G1 X221.555 Y115.892 E8.5913
G1 X222.234 Y115.892 E8.6344
G1 X207.613 Y101.271 E9.9462
G1 X207.804 Y100.812 E9.9777
G1 X207.807 Y100.786 E9.9793
G1 X222.913 Y115.892 E11.3346
G1 X223.592 Y115.892 E11.3777
G1 X207.887 Y100.187 E12.7867
G1 X207.912 Y100.005 E12.7984
G1 X207.841 Y99.462 E12.8331
G1 X224.271 Y115.892 E14.3072
G1 X224.950 Y115.892 E14.3502
G1 X207.479 Y98.422 E15.9177
G1 X201.398 Y86.910 F4200
G92 E0
G1 X230.380 Y115.892 E2.6003 F1200
G1 X229.701 Y115.892 E2.6433
G1 X201.398 Y87.589 E5.1827
G1 X201.398 Y88.267 E5.2258
G1 X229.023 Y115.892 E7.7043
