; G-Code generated by Simplify3D(R) Version 3.1.1
; Mar 9, 2017 at 1:26:47 PM
; Settings Summary
;   processName,Process1
;   applyToModels,MotorMount
;   profileName,Kossel Mini (modified)
;   profileVersion,2017-03-07 18:00:27
;   baseProfile,
;   printMaterial,PLA+
;   printQuality,Medium
;   printExtruders,
;   extruderName,Primary Extruder
;   extruderToolheadNumber,0
;   extruderDiameter,0.4
;   extruderAutoWidth,1
;   extruderWidth,0.48
;   extrusionMultiplier,1
;   extruderUseRetract,1
;   extruderRetractionDistance,4
;   extruderExtraRestartDistance,0
;   extruderRetractionZLift,0.1
;   extruderRetractionSpeed,3600
;   extruderUseCoasting,0
;   extruderCoastingDistance,5
;   extruderUseWipe,1
;   extruderWipeDistance,2
;   primaryExtruder,0
;   layerHeight,0.3
;   topSolidLayers,3
;   bottomSolidLayers,3
;   perimeterOutlines,3
;   printPerimetersInsideOut,1
;   startPointOption,2
;   startPointOriginX,0
;   startPointOriginY,0
;   startPointOriginZ,300
;   sequentialIslands,0
;   spiralVaseMode,0
;   firstLayerHeightPercentage,80
;   firstLayerWidthPercentage,120
;   firstLayerUnderspeed,0.5
;   useRaft,0
;   raftExtruder,0
;   raftLayers,3
;   raftOffset,3
;   raftSeparationDistance,0.14
;   raftInfill,85
;   disableRaftBaseLayers,0
;   useSkirt,1
;   skirtExtruder,0
;   skirtLayers,1
;   skirtOutlines,1
;   skirtOffset,4
;   usePrimePillar,0
;   primePillarExtruder,999
;   primePillarWidth,12
;   primePillarLocation,7
;   primePillarSpeedMultiplier,1
;   useOozeShield,0
;   oozeShieldExtruder,999
;   oozeShieldOffset,2
;   oozeShieldOutlines,1
;   oozeShieldSidewallShape,1
;   oozeShieldSidewallAngle,30
;   oozeShieldSpeedMultiplier,1
;   infillExtruder,0
;   internalInfillPattern,Rectilinear
;   externalInfillPattern,Rectilinear
;   infillPercentage,40
;   outlineOverlapPercentage,30
;   infillExtrusionWidthPercentage,110
;   minInfillLength,2
;   infillLayerInterval,1
;   infillAngles,45,-45
;   overlapInfillAngles,0
;   generateSupport,1
;   supportExtruder,0
;   supportInfillPercentage,30
;   supportExtraInflation,0
;   denseSupportLayers,0
;   denseSupportInfillPercentage,70
;   supportLayerInterval,1
;   supportHorizontalPartOffset,0.3
;   supportUpperSeparationLayers,1
;   supportLowerSeparationLayers,1
;   supportType,0
;   supportGridSpacing,4
;   maxOverhangAngle,45
;   supportAngles,0
;   temperatureName,Primary Extruder,Heated Bed
;   temperatureNumber,0,1
;   temperatureSetpointCount,2,3
;   temperatureSetpointLayers,1,2,1,2,3
;   temperatureSetpointTemperatures,230,225,70,65,60
;   temperatureStabilizeAtStartup,1,1
;   temperatureHeatedBed,0,1
;   temperatureRelayBetweenLayers,0,0
;   temperatureRelayBetweenLoops,0,0
;   fanLayers,1,2,3
;   fanSpeeds,0,50,100
;   blipFanToFullPower,1
;   adjustSpeedForCooling,1
;   minSpeedLayerTime,15
;   minCoolingSpeedSlowdown,20
;   increaseFanForCooling,0
;   minFanLayerTime,60
;   maxCoolingFanSpeed,100
;   increaseFanForBridging,1
;   bridgingFanSpeed,100
;   use5D,1
;   relativeEdistances,0
;   allowEaxisZeroing,1
;   independentExtruderAxes,0
;   includeM10123,0
;   stickySupport,1
;   applyToolheadOffsets,0
;   gcodeXoffset,0
;   gcodeYoffset,0
;   gcodeZoffset,0
;   overrideMachineDefinition,1
;   machineTypeOverride,1
;   strokeXoverride,190
;   strokeYoverride,190
;   strokeZoverride,204.4
;   originOffsetXoverride,95
;   originOffsetYoverride,95
;   originOffsetZoverride,0
;   homeXdirOverride,0
;   homeYdirOverride,0
;   homeZdirOverride,1
;   flipXoverride,1
;   flipYoverride,-1
;   flipZoverride,1
;   toolheadOffsets,0,0|0,0|0,0|0,0|0,0|0,0
;   overrideFirmwareConfiguration,1
;   firmwareTypeOverride,RepRap (Marlin/Repetier/Sprinter)
;   GPXconfigOverride,r2
;   baudRateOverride,115200
;   overridePrinterModels,1
;   printerModelsOverride
;   startingGcode,G28 ; home all axes
;   layerChangeGcode,
;   retractionGcode,
;   toolChangeGcode,
;   endingGcode,M104 S0 ; turn off extruder,M140 S0 ; turn off bed,M107 ; turn off cooling fan,G28 ; home axes,M84 ; disable motors
;   exportFileFormat,gcode
;   celebration,0
;   celebrationSong,Random Song
;   postProcessing,
;   defaultSpeed,3600
;   outlineUnderspeed,0.5
;   solidInfillUnderspeed,0.8
;   supportUnderspeed,0.8
;   rapidXYspeed,6000
;   rapidZspeed,1200
;   minBridgingArea,50
;   bridgingExtraInflation,0
;   bridgingExtrusionMultiplier,0.95
;   bridgingSpeedMultiplier,0.7
;   filamentDiameter,1.73
;   filamentPricePerKg,25
;   filamentDensity,1.25
;   useMinPrintHeight,0
;   minPrintHeight,0
;   useMaxPrintHeight,0
;   maxPrintHeight,10
;   useDiaphragm,0
;   diaphragmLayerInterval,20
;   robustSlicing,1
;   mergeAllIntoSolid,0
;   onlyRetractWhenCrossingOutline,1
;   retractBetweenLayers,1
;   useRetractionMinTravel,0
;   retractionMinTravel,3
;   retractWhileWiping,0
;   onlyWipeOutlines,1
;   avoidCrossingOutline,0
;   maxMovementDetourFactor,3
;   toolChangeRetractionDistance,12
;   toolChangeExtraRestartDistance,-0.5
;   toolChangeRetractionSpeed,600
;   allowThinWallGapFill,1
;   thinWallAllowedOverlapPercentage,10
;   horizontalSizeCompensation,0
G90
M82
M106 S0
M140 S70
M190 S70
M104 S230 T0
M109 S230 T0
G28 ; home all axes
G92 E0
G1 E-4.0000 F3600
G1 Z0.340 F1200
; layer 1, Z = 0.24
T0
; tool H0.300 W0.576
; skirt
G1 X-24.825 Y-13.152 F6000
G1 Z0.240 F1200
G1 E0.0000 F1080
G92 E0
G1 X-24.825 Y-46.672 E2.4641 F1800
G1 X-43.100 Y-46.672 E3.8076
G1 X-43.188 Y-46.708 E3.8146
G1 X-45.599 Y-49.119 E4.0652
G1 X-45.635 Y-49.207 E4.0722
G1 X-45.635 Y-59.117 E4.8007
G1 X-45.599 Y-59.205 E4.8077
G1 X-43.188 Y-61.615 E5.0583
G1 X-43.100 Y-61.652 E5.0653
G1 X-8.880 Y-61.652 E7.5809
G1 X-8.792 Y-61.615 E7.5879
G1 X-6.381 Y-59.205 E7.8385
G1 X-6.345 Y-59.117 E7.8455
G1 X-6.345 Y-43.535 E8.9910
G1 X10.550 Y-43.535 E10.2330
G1 X10.632 Y-43.504 E10.2395
G1 X12.962 Y-41.461 E10.4672
G1 X13.003 Y-41.384 E10.4736
G1 X13.201 Y-39.876 E10.5854
G1 X13.400 Y-41.384 E10.6972
G1 X13.441 Y-41.461 E10.7036
G1 X15.770 Y-43.504 E10.9314
G1 X15.852 Y-43.535 E10.9378
G1 X27.155 Y-43.535 E11.7687
G1 X27.155 Y-64.999 E13.3466
G1 X27.192 Y-65.087 E13.3537
G1 X29.602 Y-67.498 E13.6043
G1 X29.691 Y-67.534 E13.6113
G1 X43.100 Y-67.534 E14.5970
G1 X43.188 Y-67.498 E14.6041
G1 X45.599 Y-65.087 E14.8547
G1 X45.635 Y-64.999 E14.8617
G1 X45.635 Y44.799 E22.9332
G1 X45.599 Y44.887 E22.9403
G1 X43.188 Y47.298 E23.1909
G1 X43.100 Y47.334 E23.1979
G1 X-43.090 Y47.334 E29.5339
G1 X-43.178 Y47.298 E29.5409
G1 X-45.588 Y44.887 E29.7915
G1 X-45.625 Y44.799 E29.7986
G1 X-45.625 Y-10.617 E33.8723
G1 X-45.588 Y-10.705 E33.8793
G1 X-43.178 Y-13.115 E34.1299
G1 X-43.090 Y-13.152 E34.1370
G1 X-24.825 Y-13.152 E35.4796
G92 E0
G1 E-4.0000 F3600
G1 Z0.340 F1200
; inner perimeter
G1 X-24.106 Y-7.472 F6000
G1 Z0.240 F1200
G1 E0.0000 F3600
G92 E0
G1 X-19.145 Y-7.472 E0.3647 F1500
G1 X-19.145 Y-52.352 E3.6639
G1 X-24.726 Y-52.352 E4.0742
G1 X-24.278 Y-52.936 E4.1283
G1 X-23.983 Y-53.648 E4.1850
G1 X-23.883 Y-54.412 E4.2416
G1 X-23.983 Y-55.176 E4.2983
G1 X-24.313 Y-55.972 E4.3616
G1 X-12.025 Y-55.972 E5.2649
G1 X-12.025 Y-37.855 E6.5968
G1 X7.732 Y-37.855 E8.0491
G1 X8.306 Y-36.468 E8.1594
G1 X9.204 Y-35.298 E8.2679
G1 X10.375 Y-34.399 E8.3764
G1 X11.738 Y-33.835 E8.4849
G1 X13.201 Y-33.642 E8.5933
G1 X14.664 Y-33.835 E8.7018
G1 X16.027 Y-34.399 E8.8103
G1 X17.198 Y-35.298 E8.9188
G1 X18.096 Y-36.468 E9.0272
G1 X18.671 Y-37.855 E9.1375
G1 X32.835 Y-37.855 E10.1788
G1 X32.835 Y-61.855 E11.9431
G1 X39.955 Y-61.855 E12.4665
G1 X39.955 Y-24.510 E15.2118
G1 X39.584 Y-24.436 E15.2396
G1 X39.329 Y-25.052 E15.2886
G1 X38.860 Y-25.663 E15.3453
G1 X38.249 Y-26.133 E15.4019
G1 X37.536 Y-26.428 E15.4586
G1 X36.772 Y-26.528 E15.5152
G1 X36.008 Y-26.428 E15.5719
G1 X35.296 Y-26.133 E15.6285
G1 X34.685 Y-25.663 E15.6852
G1 X34.215 Y-25.052 E15.7419
G1 X33.921 Y-24.340 E15.7985
G1 X33.820 Y-23.576 E15.8552
G1 X33.921 Y-22.812 E15.9118
G1 X34.215 Y-22.099 E15.9685
G1 X34.685 Y-21.488 E16.0252
G1 X35.296 Y-21.019 E16.0818
G1 X36.008 Y-20.724 E16.1385
G1 X36.772 Y-20.623 E16.1951
G1 X37.537 Y-20.724 E16.2518
G1 X38.249 Y-21.019 E16.3085
G1 X38.860 Y-21.488 E16.3651
G1 X39.329 Y-22.099 E16.4218
G1 X39.584 Y-22.715 E16.4708
G1 X39.955 Y-22.641 E16.4986
G1 X39.955 Y22.632 E19.8267
G1 X39.584 Y22.706 E19.8545
G1 X39.329 Y22.090 E19.9035
G1 X38.860 Y21.479 E19.9602
G1 X38.249 Y21.010 E20.0169
G1 X37.537 Y20.715 E20.0735
G1 X36.772 Y20.614 E20.1302
G1 X36.008 Y20.715 E20.1868
G1 X35.296 Y21.010 E20.2435
G1 X34.685 Y21.479 E20.3001
G1 X34.215 Y22.091 E20.3568
G1 X33.921 Y22.803 E20.4135
G1 X33.820 Y23.567 E20.4701
G1 X33.921 Y24.331 E20.5268
G1 X34.215 Y25.043 E20.5834
G1 X34.685 Y25.654 E20.6401
G1 X35.296 Y26.124 E20.6968
G1 X36.008 Y26.419 E20.7534
G1 X36.772 Y26.519 E20.8101
G1 X37.536 Y26.419 E20.8667
G1 X38.249 Y26.124 E20.9234
G1 X38.860 Y25.654 E20.9801
G1 X39.329 Y25.043 E21.0367
G1 X39.584 Y24.427 E21.0857
G1 X39.955 Y24.501 E21.1135
G1 X39.955 Y41.654 E22.3745
G1 X-39.945 Y41.654 E28.2482
G1 X-39.945 Y-7.472 E31.8596
G1 X-39.064 Y-7.472 E31.9243
G1 X-39.187 Y-7.176 E31.9479
G1 X-39.287 Y-6.412 E32.0045
G1 X-39.187 Y-5.648 E32.0612
G1 X-38.892 Y-4.936 E32.1178
G1 X-38.423 Y-4.324 E32.1745
G1 X-37.811 Y-3.855 E32.2312
G1 X-37.099 Y-3.560 E32.2878
G1 X-36.335 Y-3.460 E32.3445
G1 X-35.571 Y-3.560 E32.4011
G1 X-34.859 Y-3.855 E32.4578
G1 X-34.247 Y-4.324 E32.5144
G1 X-33.778 Y-4.936 E32.5711
G1 X-33.483 Y-5.648 E32.6278
G1 X-33.383 Y-6.412 E32.6844
G1 X-33.483 Y-7.176 E32.7411
G1 X-33.606 Y-7.472 E32.7646
G1 X-29.564 Y-7.472 E33.0618
G1 X-29.687 Y-7.176 E33.0853
G1 X-29.787 Y-6.412 E33.1420
G1 X-29.687 Y-5.648 E33.1986
G1 X-29.392 Y-4.936 E33.2553
G1 X-28.923 Y-4.324 E33.3120
G1 X-28.311 Y-3.855 E33.3686
G1 X-27.599 Y-3.560 E33.4253
G1 X-26.835 Y-3.460 E33.4819
G1 X-26.071 Y-3.560 E33.5386
G1 X-25.359 Y-3.855 E33.5953
G1 X-24.747 Y-4.324 E33.6519
G1 X-24.278 Y-4.936 E33.7086
G1 X-23.983 Y-5.648 E33.7652
G1 X-23.883 Y-6.412 E33.8219
G1 X-23.983 Y-7.176 E33.8786
G1 X-24.106 Y-7.472 E33.9021
G92 E0
G1 E-4.0000 F3600
G1 Z0.340 F1200
G1 X-28.944 Y-52.352 F6000
G1 Z0.240 F1200
G1 E0.0000 F3600
G92 E0
G1 X-34.226 Y-52.352 E0.3883 F1500
G1 X-33.778 Y-52.936 E0.4424
G1 X-33.483 Y-53.648 E0.4991
G1 X-33.383 Y-54.412 E0.5557
G1 X-33.483 Y-55.176 E0.6124
G1 X-33.813 Y-55.972 E0.6757
G1 X-29.357 Y-55.972 E1.0032
G1 X-29.687 Y-55.176 E1.0666
G1 X-29.787 Y-54.412 E1.1232
G1 X-29.687 Y-53.648 E1.1799
G1 X-29.392 Y-52.936 E1.2365
G1 X-28.944 Y-52.352 E1.2906
G1 X-38.444 Y-52.352 F6000
G92 E0
G1 X-39.955 Y-52.352 E0.1111 F1500
G1 X-39.955 Y-55.972 E0.3772
G1 X-38.857 Y-55.972 E0.4579
G1 X-39.187 Y-55.176 E0.5213
G1 X-39.287 Y-54.412 E0.5779
G1 X-39.187 Y-53.648 E0.6346
G1 X-38.892 Y-52.936 E0.6912
G1 X-38.444 Y-52.352 E0.7453
G92 E0
G1 E-4.0000 F3600
G1 Z0.340 F1200
; inner perimeter
G1 X-25.127 Y-8.048 F6000
G1 Z0.240 F1200
G1 E0.0000 F3600
G92 E0
G1 X-19.721 Y-8.048 E0.3974 F1200
G1 X-19.721 Y-51.776 E3.6120
G1 X-26.086 Y-51.776 E4.0798
G1 X-26.159 Y-52.147 E4.1076
G1 X-25.649 Y-52.358 E4.1482
G1 X-25.158 Y-52.735 E4.1938
G1 X-24.781 Y-53.226 E4.2393
G1 X-24.544 Y-53.798 E4.2848
G1 X-24.463 Y-54.412 E4.3303
G1 X-24.544 Y-55.026 E4.3758
G1 X-24.781 Y-55.598 E4.4213
G1 X-25.158 Y-56.089 E4.4668
G1 X-25.756 Y-56.548 E4.5222
G1 X-11.449 Y-56.548 E5.5740
G1 X-11.449 Y-38.431 E6.9059
G1 X8.243 Y-38.431 E8.3535
G1 X8.303 Y-37.982 E8.3868
G1 X8.809 Y-36.759 E8.4841
G1 X9.615 Y-35.708 E8.5814
G1 X10.665 Y-34.902 E8.6788
G1 X11.889 Y-34.396 E8.7761
G1 X13.201 Y-34.223 E8.8734
G1 X14.514 Y-34.396 E8.9707
G1 X15.737 Y-34.902 E9.0681
G1 X16.787 Y-35.708 E9.1654
G1 X17.593 Y-36.759 E9.2627
G1 X18.100 Y-37.982 E9.3600
G1 X18.159 Y-38.431 E9.3933
G1 X32.259 Y-38.431 E10.4298
G1 X32.259 Y-62.431 E12.1941
G1 X40.531 Y-62.431 E12.8022
G1 X40.531 Y42.230 E20.4961
G1 X-40.521 Y42.230 E26.4545
G1 X-40.521 Y-8.048 E30.1506
G1 X-38.043 Y-8.048 E30.3327
G1 X-38.389 Y-7.598 E30.3745
G1 X-38.626 Y-7.026 E30.4200
G1 X-38.706 Y-6.412 E30.4655
G1 X-38.626 Y-5.798 E30.5110
G1 X-38.389 Y-5.226 E30.5565
G1 X-38.012 Y-4.735 E30.6020
G1 X-37.521 Y-4.358 E30.6475
G1 X-36.949 Y-4.121 E30.6930
G1 X-36.335 Y-4.040 E30.7385
G1 X-35.721 Y-4.121 E30.7840
G1 X-35.149 Y-4.358 E30.8295
G1 X-34.658 Y-4.735 E30.8751
G1 X-34.281 Y-5.226 E30.9206
G1 X-34.044 Y-5.798 E30.9661
G1 X-33.963 Y-6.412 E31.0116
G1 X-34.044 Y-7.026 E31.0571
G1 X-34.281 Y-7.598 E31.1026
G1 X-34.627 Y-8.048 E31.1443
G1 X-28.543 Y-8.048 E31.5915
G1 X-28.889 Y-7.598 E31.6333
G1 X-29.126 Y-7.026 E31.6788
G1 X-29.206 Y-6.412 E31.7243
G1 X-29.126 Y-5.798 E31.7698
G1 X-28.889 Y-5.226 E31.8153
G1 X-28.512 Y-4.735 E31.8608
G1 X-28.021 Y-4.358 E31.9063
G1 X-27.449 Y-4.121 E31.9518
G1 X-26.835 Y-4.040 E31.9973
G1 X-26.221 Y-4.121 E32.0429
G1 X-25.649 Y-4.358 E32.0884
G1 X-25.158 Y-4.735 E32.1339
G1 X-24.781 Y-5.226 E32.1794
G1 X-24.544 Y-5.798 E32.2249
G1 X-24.463 Y-6.412 E32.2704
G1 X-24.544 Y-7.026 E32.3159
G1 X-24.781 Y-7.598 E32.3614
G1 X-25.127 Y-8.048 E32.4031
G92 E0
G1 E-4.0000 F3600
G1 Z0.340 F1200
G1 X-27.584 Y-51.776 F6000
G1 Z0.240 F1200
G1 E0.0000 F3600
G92 E0
G1 X-35.586 Y-51.776 E0.5882 F1200
G1 X-35.659 Y-52.147 E0.6160
G1 X-35.149 Y-52.358 E0.6566
G1 X-34.658 Y-52.735 E0.7021
G1 X-34.281 Y-53.226 E0.7476
G1 X-34.044 Y-53.798 E0.7931
G1 X-33.963 Y-54.412 E0.8387
G1 X-34.044 Y-55.026 E0.8842
G1 X-34.281 Y-55.598 E0.9297
G1 X-34.658 Y-56.089 E0.9752
G1 X-35.256 Y-56.548 E1.0306
G1 X-27.913 Y-56.548 E1.5704
G1 X-28.512 Y-56.089 E1.6259
G1 X-28.889 Y-55.598 E1.6714
G1 X-29.126 Y-55.026 E1.7169
G1 X-29.206 Y-54.412 E1.7624
G1 X-29.126 Y-53.798 E1.8079
G1 X-28.889 Y-53.226 E1.8534
G1 X-28.512 Y-52.735 E1.8989
G1 X-28.021 Y-52.358 E1.9444
G1 X-27.510 Y-52.147 E1.9850
G1 X-27.584 Y-51.776 E2.0128
G1 X-37.010 Y-52.147 F6000
G92 E0
G1 X-37.084 Y-51.776 E0.0278 F1200
G1 X-40.531 Y-51.776 E0.2812
G1 X-40.531 Y-56.548 E0.6320
G1 X-37.413 Y-56.548 E0.8612
G1 X-38.012 Y-56.089 E0.9166
G1 X-38.389 Y-55.598 E0.9621
G1 X-38.626 Y-55.026 E1.0077
G1 X-38.706 Y-54.412 E1.0532
G1 X-38.626 Y-53.798 E1.0987
G1 X-38.389 Y-53.226 E1.1442
G1 X-38.012 Y-52.735 E1.1897
G1 X-37.521 Y-52.358 E1.2352
G1 X-37.010 Y-52.147 E1.2758
G92 E0
G1 E-4.0000 F3600
G1 Z0.340 F1200
; outer perimeter
G1 X-20.297 Y-8.624 F6000
G1 Z0.240 F1200
G1 E0.0000 F3600
G92 E0
G1 X-20.297 Y-51.200 E3.1299 F900
G1 X-41.107 Y-51.200 E4.6597
G1 X-41.107 Y-57.124 E5.0952
G1 X-10.873 Y-57.124 E7.3178
G1 X-10.873 Y-39.007 E8.6496
G1 X8.749 Y-39.007 E10.0921
G1 X8.864 Y-38.132 E10.1569
G1 X9.312 Y-37.049 E10.2431
G1 X10.026 Y-36.119 E10.3292
G1 X10.956 Y-35.406 E10.4154
G1 X12.039 Y-34.957 E10.5016
G1 X13.201 Y-34.804 E10.5878
G1 X14.363 Y-34.957 E10.6739
G1 X15.446 Y-35.406 E10.7601
G1 X16.376 Y-36.119 E10.8463
G1 X17.090 Y-37.049 E10.9325
G1 X17.539 Y-38.132 E11.0186
G1 X17.654 Y-39.007 E11.0835
G1 X31.683 Y-39.007 E12.1148
G1 X31.683 Y-63.007 E13.8791
G1 X41.107 Y-63.007 E14.5719
G1 X41.107 Y42.806 E22.3505
G1 X-41.097 Y42.806 E28.3935
G1 X-41.097 Y-8.624 E32.1743
G1 X-20.297 Y-8.624 E33.7033
G92 E0
G1 E-4.0000 F3600
G1 X-20.297 Y-10.624 F3600
G1 Z0.340 F1200
; inner perimeter
; inner perimeter
; outer perimeter
G1 X-26.372 Y-8.141 F6000
G1 Z0.240 F1200
G1 E0.0000 F3600
G92 E0
G1 X-26.835 Y-8.202 E0.0344 F900
G1 X-27.298 Y-8.141 E0.0687
G1 X-27.730 Y-7.963 E0.1031
G1 X-28.101 Y-7.678 E0.1374
G1 X-28.386 Y-7.307 E0.1718
G1 X-28.564 Y-6.875 E0.2062
G1 X-28.625 Y-6.412 E0.2405
G1 X-28.564 Y-5.949 E0.2749
G1 X-28.386 Y-5.517 E0.3092
G1 X-28.101 Y-5.146 E0.3436
G1 X-27.730 Y-4.861 E0.3780
G1 X-27.298 Y-4.682 E0.4123
G1 X-26.835 Y-4.621 E0.4467
G1 X-26.372 Y-4.682 E0.4810
G1 X-25.940 Y-4.861 E0.5154
G1 X-25.569 Y-5.146 E0.5498
G1 X-25.284 Y-5.517 E0.5841
G1 X-25.105 Y-5.949 E0.6185
G1 X-25.044 Y-6.412 E0.6529
G1 X-25.105 Y-6.875 E0.6872
G1 X-25.284 Y-7.307 E0.7216
G1 X-25.569 Y-7.678 E0.7559
G1 X-25.940 Y-7.963 E0.7903
G1 X-26.372 Y-8.141 E0.8247
G1 X-26.835 Y-8.202 F3600
G1 X-27.298 Y-8.141 F3600
G1 X-27.730 Y-7.963 F3600
G1 X-28.101 Y-7.678 F3600
G1 X-28.180 Y-7.575 F3600
; inner perimeter
; inner perimeter
; outer perimeter
G1 X-34.784 Y-7.307 F6000
G92 E0
