; G-Code generated by Simplify3D(R) Version 3.1.1
; Mar 13, 2017 at 2:48:31 PM
; Settings Summary
;   processName,Process1
;   applyToModels,PCBMount
;   profileName,Belfry
;   profileVersion,2017-03-09 09:08:18
;   baseProfile,Default
;   printMaterial,PLA+
;   printQuality,Medium
;   printExtruders,
;   extruderName,Extruder 1
;   extruderToolheadNumber,0
;   extruderDiameter,0.4
;   extruderAutoWidth,1
;   extruderWidth,0.48
;   extrusionMultiplier,1
;   extruderUseRetract,1
;   extruderRetractionDistance,4
;   extruderExtraRestartDistance,0
;   extruderRetractionZLift,0
;   extruderRetractionSpeed,3600
;   extruderUseCoasting,0
;   extruderCoastingDistance,0.2
;   extruderUseWipe,1
;   extruderWipeDistance,2
;   primaryExtruder,0
;   layerHeight,0.3
;   topSolidLayers,3
;   bottomSolidLayers,3
;   perimeterOutlines,3
;   printPerimetersInsideOut,1
;   startPointOption,2
;   startPointOriginX,0
;   startPointOriginY,0
;   startPointOriginZ,300
;   sequentialIslands,0
;   spiralVaseMode,0
;   firstLayerHeightPercentage,100
;   firstLayerWidthPercentage,100
;   firstLayerUnderspeed,0.5
;   useRaft,0
;   raftExtruder,0
;   raftLayers,3
;   raftOffset,3
;   raftSeparationDistance,0.14
;   raftInfill,85
;   disableRaftBaseLayers,0
;   useSkirt,1
;   skirtExtruder,0
;   skirtLayers,1
;   skirtOutlines,1
;   skirtOffset,4
;   usePrimePillar,0
;   primePillarExtruder,999
;   primePillarWidth,12
;   primePillarLocation,7
;   primePillarSpeedMultiplier,1
;   useOozeShield,0
;   oozeShieldExtruder,999
;   oozeShieldOffset,2
;   oozeShieldOutlines,1
;   oozeShieldSidewallShape,1
;   oozeShieldSidewallAngle,30
;   oozeShieldSpeedMultiplier,1
;   infillExtruder,0
;   internalInfillPattern,Rectilinear
;   externalInfillPattern,Rectilinear
;   infillPercentage,15
;   outlineOverlapPercentage,15
;   infillExtrusionWidthPercentage,100
;   minInfillLength,5
;   infillLayerInterval,1
;   infillAngles,45,-45
;   overlapInfillAngles,0
;   generateSupport,0
;   supportExtruder,0
;   supportInfillPercentage,30
;   supportExtraInflation,0
;   denseSupportLayers,0
;   denseSupportInfillPercentage,70
;   supportLayerInterval,1
;   supportHorizontalPartOffset,0.3
;   supportUpperSeparationLayers,1
;   supportLowerSeparationLayers,1
;   supportType,0
;   supportGridSpacing,4
;   maxOverhangAngle,45
;   supportAngles,0
;   temperatureName,Extruder 1,Heated Bed
;   temperatureNumber,0,0
;   temperatureSetpointCount,1,3
;   temperatureSetpointLayers,1,1,2,3
;   temperatureSetpointTemperatures,225,70,65,60
;   temperatureStabilizeAtStartup,1,1
;   temperatureHeatedBed,0,1
;   temperatureRelayBetweenLayers,0,0
;   temperatureRelayBetweenLoops,0,0
;   fanLayers,1,2,3
;   fanSpeeds,0,50,100
;   blipFanToFullPower,0
;   adjustSpeedForCooling,1
;   minSpeedLayerTime,15
;   minCoolingSpeedSlowdown,20
;   increaseFanForCooling,0
;   minFanLayerTime,45
;   maxCoolingFanSpeed,100
;   increaseFanForBridging,0
;   bridgingFanSpeed,100
;   use5D,1
;   relativeEdistances,0
;   allowEaxisZeroing,1
;   independentExtruderAxes,0
;   includeM10123,0
;   stickySupport,1
;   applyToolheadOffsets,0
;   gcodeXoffset,0
;   gcodeYoffset,0
;   gcodeZoffset,0
;   overrideMachineDefinition,1
;   machineTypeOverride,0
;   strokeXoverride,300
;   strokeYoverride,200
;   strokeZoverride,350
;   originOffsetXoverride,0
;   originOffsetYoverride,0
;   originOffsetZoverride,0
;   homeXdirOverride,-1
;   homeYdirOverride,-1
;   homeZdirOverride,-1
;   flipXoverride,1
;   flipYoverride,-1
;   flipZoverride,1
;   toolheadOffsets,0,0|0,0|0,0|0,0|0,0|0,0
;   overrideFirmwareConfiguration,1
;   firmwareTypeOverride,RepRap (Marlin/Repetier/Sprinter)
;   GPXconfigOverride,r2
;   baudRateOverride,115200
;   overridePrinterModels,0
;   printerModelsOverride
;   startingGcode,G28 ; home all axes
;   layerChangeGcode,
;   retractionGcode,
;   toolChangeGcode,
;   endingGcode,G91 ;relative positioning,G1 Z+0.5 ;move Z up a bit,G28 X0 Y0 ;move X/Y to min endstops,M104 S0 ; turn off extruder,M140 S0 ; turn off bed,M84 ; disable motors
;   exportFileFormat,gcode
;   celebration,0
;   celebrationSong,Random Song
;   postProcessing,
;   defaultSpeed,3600
;   outlineUnderspeed,0.5
;   solidInfillUnderspeed,0.8
;   supportUnderspeed,0.8
;   rapidXYspeed,4200
;   rapidZspeed,1002
;   minBridgingArea,50
;   bridgingExtraInflation,0
;   bridgingExtrusionMultiplier,1
;   bridgingSpeedMultiplier,1
;   filamentDiameter,1.7
;   filamentPricePerKg,30
;   filamentDensity,1.25
;   useMinPrintHeight,0
;   minPrintHeight,0
;   useMaxPrintHeight,0
;   maxPrintHeight,0
;   useDiaphragm,0
;   diaphragmLayerInterval,20
;   robustSlicing,1
;   mergeAllIntoSolid,0
;   onlyRetractWhenCrossingOutline,1
;   retractBetweenLayers,1
;   useRetractionMinTravel,0
;   retractionMinTravel,3
;   retractWhileWiping,0
;   onlyWipeOutlines,1
;   avoidCrossingOutline,0
;   maxMovementDetourFactor,3
;   toolChangeRetractionDistance,12
;   toolChangeExtraRestartDistance,-0.5
;   toolChangeRetractionSpeed,600
;   allowThinWallGapFill,1
;   thinWallAllowedOverlapPercentage,10
;   horizontalSizeCompensation,0
G90
M82
M106 S0
M140 S70
M190 S70
M104 S225 T0
M109 S225 T0
G28 ; home all axes
G92 E0
G1 E-4.0000 F3600
G1 Z0.300 F1002
; layer 1, Z = 0.3
T0
; tool H0.300 W0.480
; skirt
G1 X101.116 Y41.631 F4200
G1 E0.0000 F1080
G92 E0
G1 X101.722 Y40.168 E0.1005 F1800
G1 X101.729 Y40.154 E0.1015
G1 X101.999 Y39.686 E0.1358
G1 X102.008 Y39.673 E0.1368
G1 X102.972 Y38.416 E0.2373
G1 X102.983 Y38.404 E0.2383
G1 X103.364 Y38.022 E0.2725
G1 X103.376 Y38.012 E0.2735
G1 X104.633 Y37.047 E0.3740
G1 X104.646 Y37.039 E0.3750
G1 X105.114 Y36.769 E0.4093
G1 X105.128 Y36.762 E0.4103
G1 X106.592 Y36.155 E0.5108
G1 X106.606 Y36.150 E0.5118
G1 X107.128 Y36.011 E0.5461
G1 X107.144 Y36.007 E0.5471
G1 X108.580 Y35.818 E0.6390
G1 X108.588 Y35.818 E0.6395
G1 X108.857 Y35.800 E0.6566
G1 X108.865 Y35.800 E0.6571
G1 X196.705 Y35.800 E6.2298
G1 X196.793 Y35.836 E6.2358
G1 X199.203 Y38.247 E6.4521
G1 X199.240 Y38.335 E6.4582
G1 X199.240 Y61.744 E7.9433
G1 X199.203 Y61.832 E7.9494
G1 X196.793 Y64.243 E8.1657
G1 X196.705 Y64.280 E8.1717
G1 X179.240 Y64.280 E9.2797
G1 X179.240 Y126.174 E13.2064
G1 X179.240 Y126.182 E13.2069
G1 X179.222 Y126.452 E13.2240
G1 X179.221 Y126.459 E13.2245
G1 X179.032 Y127.896 E13.3165
G1 X179.029 Y127.911 E13.3174
G1 X178.889 Y128.433 E13.3517
G1 X178.884 Y128.448 E13.3527
G1 X178.278 Y129.912 E13.4532
G1 X178.271 Y129.926 E13.4542
G1 X178.001 Y130.393 E13.4885
G1 X177.992 Y130.407 E13.4895
G1 X177.028 Y131.663 E13.5900
G1 X177.017 Y131.675 E13.5910
G1 X176.636 Y132.057 E13.6252
G1 X176.624 Y132.068 E13.6262
G1 X175.367 Y133.032 E13.7267
G1 X175.354 Y133.041 E13.7277
G1 X174.886 Y133.311 E13.7620
G1 X174.872 Y133.318 E13.7630
G1 X173.408 Y133.924 E13.8635
G1 X173.394 Y133.929 E13.8645
G1 X172.872 Y134.069 E13.8988
G1 X172.856 Y134.072 E13.8998
G1 X171.420 Y134.261 E13.9917
G1 X171.412 Y134.262 E13.9922
G1 X171.143 Y134.279 E14.0093
G1 X171.135 Y134.280 E14.0098
G1 X154.240 Y134.280 E15.0817
G1 X154.240 Y161.665 E16.8190
G1 X154.203 Y161.753 E16.8251
G1 X151.793 Y164.164 E17.0414
G1 X151.705 Y164.200 E17.0474
G1 X128.295 Y164.200 E18.5325
G1 X128.207 Y164.164 E18.5386
G1 X125.797 Y161.753 E18.7549
G1 X125.760 Y161.665 E18.7609
G1 X125.760 Y134.280 E20.4983
G1 X108.865 Y134.280 E21.5701
G1 X108.857 Y134.279 E21.5706
G1 X108.588 Y134.262 E21.5878
G1 X108.580 Y134.261 E21.5883
G1 X107.144 Y134.072 E21.6802
G1 X107.128 Y134.069 E21.6812
G1 X106.606 Y133.929 E21.7155
G1 X106.592 Y133.924 E21.7165
G1 X105.128 Y133.318 E21.8170
G1 X105.114 Y133.311 E21.8180
G1 X104.646 Y133.041 E21.8522
G1 X104.633 Y133.032 E21.8532
G1 X103.376 Y132.068 E21.9537
G1 X103.364 Y132.057 E21.9547
G1 X102.983 Y131.675 E21.9890
G1 X102.972 Y131.663 E21.9900
G1 X102.008 Y130.407 E22.0905
G1 X101.999 Y130.393 E22.0915
G1 X101.729 Y129.926 E22.1258
G1 X101.722 Y129.912 E22.1267
G1 X101.116 Y128.448 E22.2273
G1 X101.111 Y128.433 E22.2283
G1 X100.971 Y127.911 E22.2625
G1 X100.968 Y127.896 E22.2635
G1 X100.779 Y126.459 E22.3554
G1 X100.778 Y126.451 E22.3559
G1 X100.760 Y126.182 E22.3731
G1 X100.760 Y126.174 E22.3736
G1 X100.760 Y43.905 E27.5929
G1 X100.760 Y43.897 E27.5934
G1 X100.778 Y43.628 E27.6105
G1 X100.779 Y43.620 E27.6110
G1 X100.968 Y42.183 E27.7029
G1 X100.971 Y42.168 E27.7039
G1 X101.111 Y41.646 E27.7382
G1 X101.116 Y41.631 E27.7392
G92 E0
G1 E-4.0000 F3600
; inner perimeter
G1 X106.200 Y45.109 F4200
G1 E0.0000 F3600
G92 E0
G1 X106.509 Y45.048 E0.0200 F1500
G1 X106.653 Y45.395 E0.0438
G1 X107.083 Y45.956 E0.0887
G1 X107.645 Y46.387 E0.1336
G1 X108.299 Y46.658 E0.1785
G1 X109.000 Y46.750 E0.2234
G1 X109.701 Y46.658 E0.2682
G1 X110.355 Y46.387 E0.3131
G1 X110.917 Y45.956 E0.3580
G1 X111.347 Y45.395 E0.4029
G1 X111.618 Y44.741 E0.4478
G1 X111.710 Y44.040 E0.4927
G1 X111.618 Y43.338 E0.5376
G1 X111.347 Y42.684 E0.5825
G1 X110.917 Y42.123 E0.6274
G1 X110.355 Y41.692 E0.6722
G1 X110.008 Y41.549 E0.6961
G1 X110.070 Y41.240 E0.7161
G1 X169.930 Y41.240 E4.5137
G1 X169.992 Y41.549 E4.5337
G1 X169.645 Y41.692 E4.5575
G1 X169.083 Y42.123 E4.6024
G1 X168.653 Y42.684 E4.6473
G1 X168.382 Y43.338 E4.6922
G1 X168.290 Y44.040 E4.7371
G1 X168.382 Y44.741 E4.7820
G1 X168.653 Y45.395 E4.8268
G1 X169.083 Y45.956 E4.8717
G1 X169.645 Y46.387 E4.9166
G1 X170.299 Y46.658 E4.9615
G1 X171.000 Y46.750 E5.0064
G1 X171.701 Y46.658 E5.0513
G1 X172.355 Y46.387 E5.0962
G1 X172.917 Y45.956 E5.1411
G1 X173.347 Y45.395 E5.1859
G1 X173.618 Y44.741 E5.2308
G1 X173.710 Y44.040 E5.2757
G1 X173.618 Y43.338 E5.3206
G1 X173.347 Y42.684 E5.3655
G1 X172.917 Y42.123 E5.4104
G1 X172.355 Y41.692 E5.4553
G1 X172.008 Y41.549 E5.4791
G1 X172.070 Y41.240 E5.4991
G1 X193.800 Y41.240 E6.8777
G1 X193.800 Y58.840 E7.9943
G1 X173.800 Y58.840 E9.2631
G1 X173.800 Y124.970 E13.4585
G1 X173.491 Y125.031 E13.4785
G1 X173.347 Y124.684 E13.5023
G1 X172.917 Y124.123 E13.5472
G1 X172.355 Y123.692 E13.5921
G1 X171.701 Y123.422 E13.6370
G1 X171.000 Y123.329 E13.6819
G1 X170.299 Y123.422 E13.7268
G1 X169.645 Y123.692 E13.7716
G1 X169.083 Y124.123 E13.8165
G1 X168.653 Y124.684 E13.8614
G1 X168.382 Y125.338 E13.9063
G1 X168.290 Y126.040 E13.9512
G1 X168.382 Y126.741 E13.9961
G1 X168.653 Y127.395 E14.0410
G1 X169.083 Y127.956 E14.0859
G1 X169.645 Y128.387 E14.1307
G1 X169.992 Y128.531 E14.1546
G1 X169.930 Y128.840 E14.1746
G1 X148.800 Y128.840 E15.5151
G1 X148.800 Y158.760 E17.4133
G1 X131.200 Y158.760 E18.5299
G1 X131.200 Y128.840 E20.4281
G1 X110.070 Y128.840 E21.7686
G1 X110.008 Y128.531 E21.7886
G1 X110.355 Y128.387 E21.8125
G1 X110.917 Y127.956 E21.8573
G1 X111.347 Y127.395 E21.9022
G1 X111.618 Y126.741 E21.9471
G1 X111.710 Y126.040 E21.9920
G1 X111.618 Y125.338 E22.0369
G1 X111.347 Y124.684 E22.0818
G1 X110.917 Y124.123 E22.1267
G1 X110.355 Y123.692 E22.1716
G1 X109.701 Y123.422 E22.2165
G1 X109.000 Y123.329 E22.2613
G1 X108.299 Y123.422 E22.3062
G1 X107.645 Y123.692 E22.3511
G1 X107.083 Y124.123 E22.3960
G1 X106.653 Y124.684 E22.4409
G1 X106.509 Y125.031 E22.4647
G1 X106.200 Y124.970 E22.4847
G1 X106.200 Y45.109 E27.5512
; inner perimeter
G1 X105.838 Y43.192 F4200
G92 E0
G1 X106.165 Y42.403 E0.0542 F1200
G1 X106.685 Y41.725 E0.1084
G1 X107.363 Y41.204 E0.1627
G1 X108.153 Y40.877 E0.2169
G1 X109.047 Y40.760 E0.2741
G1 X194.280 Y40.760 E5.6814
G1 X194.280 Y59.320 E6.8589
G1 X174.280 Y59.320 E8.1277
G1 X174.280 Y125.992 E12.3576
G1 X174.162 Y126.887 E12.4148
G1 X173.835 Y127.677 E12.4690
G1 X173.315 Y128.355 E12.5233
G1 X172.637 Y128.875 E12.5775
G1 X171.847 Y129.202 E12.6317
G1 X170.953 Y129.320 E12.6889
G1 X149.280 Y129.320 E14.0639
G1 X149.280 Y159.240 E15.9621
G1 X130.720 Y159.240 E17.1396
G1 X130.720 Y129.320 E19.0378
G1 X109.047 Y129.320 E20.4128
G1 X108.153 Y129.202 E20.4700
G1 X107.363 Y128.875 E20.5242
G1 X106.685 Y128.355 E20.5784
G1 X106.165 Y127.677 E20.6327
G1 X105.838 Y126.887 E20.6869
G1 X105.720 Y125.992 E20.7441
G1 X105.720 Y44.087 E25.9404
G1 X105.838 Y43.192 E25.9976
; outer perimeter
G1 X105.370 Y43.067 F4200
G92 E0
G1 X105.746 Y42.161 E0.0622 F900
G1 X106.343 Y41.382 E0.1245
G1 X107.121 Y40.785 E0.1867
G1 X108.027 Y40.410 E0.2489
G1 X109.016 Y40.280 E0.3122
G1 X194.760 Y40.280 E5.7520
G1 X194.760 Y59.800 E6.9903
G1 X174.760 Y59.800 E8.2592
G1 X174.760 Y126.024 E12.4605
G1 X174.630 Y127.012 E12.5238
G1 X174.254 Y127.919 E12.5860
G1 X173.657 Y128.697 E12.6483
G1 X172.879 Y129.294 E12.7105
G1 X171.973 Y129.669 E12.7727
G1 X170.984 Y129.800 E12.8360
G1 X149.760 Y129.800 E14.1825
G1 X149.760 Y159.720 E16.0807
G1 X130.240 Y159.720 E17.3191
G1 X130.240 Y129.800 E19.2173
G1 X109.016 Y129.800 E20.5638
G1 X108.027 Y129.669 E20.6271
G1 X107.121 Y129.294 E20.6893
G1 X106.343 Y128.697 E20.7515
G1 X105.746 Y127.919 E20.8138
G1 X105.370 Y127.012 E20.8760
G1 X105.240 Y126.024 E20.9393
G1 X105.240 Y44.055 E26.1395
G1 X105.370 Y43.067 E26.2027
G1 X105.746 Y42.161 F3600
G1 X106.343 Y41.382 F3600
G1 X106.373 Y41.359 F3600
; inner perimeter
; inner perimeter
G1 X106.850 Y43.463 F4200
G92 E0
G1 X106.774 Y44.040 E0.0369 F1200
G1 X106.850 Y44.616 E0.0737
G1 X107.072 Y45.153 E0.1106
G1 X107.426 Y45.614 E0.1475
G1 X107.887 Y45.968 E0.1843
G1 X108.424 Y46.190 E0.2212
G1 X109.000 Y46.266 E0.2581
G1 X109.576 Y46.190 E0.2950
G1 X110.113 Y45.968 E0.3318
G1 X110.574 Y45.614 E0.3687
G1 X110.928 Y45.153 E0.4056
G1 X111.150 Y44.616 E0.4424
G1 X111.226 Y44.040 E0.4793
G1 X111.150 Y43.463 E0.5162
G1 X110.928 Y42.926 E0.5530
G1 X110.574 Y42.465 E0.5899
G1 X110.113 Y42.112 E0.6268
G1 X109.576 Y41.889 E0.6637
G1 X109.000 Y41.813 E0.7005
G1 X108.424 Y41.889 E0.7374
G1 X107.887 Y42.112 E0.7743
G1 X107.426 Y42.465 E0.8111
G1 X107.072 Y42.926 E0.8480
G1 X106.850 Y43.463 E0.8849
; outer perimeter
G1 X107.317 Y43.589 F4200
G92 E0
G1 X107.258 Y44.040 E0.0289 F900
G1 X107.317 Y44.491 E0.0577
G1 X107.491 Y44.911 E0.0866
G1 X107.768 Y45.271 E0.1154
G1 X108.129 Y45.548 E0.1443
G1 X108.549 Y45.722 E0.1731
G1 X109.000 Y45.782 E0.2020
G1 X109.451 Y45.722 E0.2308
G1 X109.871 Y45.548 E0.2597
G1 X110.232 Y45.271 E0.2885
G1 X110.509 Y44.911 E0.3174
G1 X110.683 Y44.491 E0.3462
G1 X110.742 Y44.040 E0.3751
G1 X110.683 Y43.589 E0.4039
G1 X110.509 Y43.169 E0.4328
G1 X110.232 Y42.808 E0.4616
G1 X109.871 Y42.531 E0.4905
G1 X109.451 Y42.357 E0.5193
G1 X109.000 Y42.298 E0.5482
G1 X108.549 Y42.357 E0.5770
G1 X108.129 Y42.531 E0.6059
G1 X107.768 Y42.808 E0.6347
G1 X107.491 Y43.169 E0.6636
G1 X107.317 Y43.589 E0.6924
G92 E0
G1 E-4.0000 F3600
G1 X107.258 Y44.040 F3600
G1 X107.317 Y44.491 F3600
G1 X107.491 Y44.911 F3600
G1 X107.768 Y45.271 F3600
G1 X107.912 Y45.382 F3600
; inner perimeter
; inner perimeter
G1 X168.774 Y44.040 F4200
G1 E0.0000 F3600
G92 E0
G1 X168.850 Y44.616 E0.0369 F1200
G1 X169.072 Y45.153 E0.0737
G1 X169.426 Y45.614 E0.1106
G1 X169.887 Y45.968 E0.1475
G1 X170.424 Y46.190 E0.1843
G1 X171.000 Y46.266 E0.2212
G1 X171.576 Y46.190 E0.2581
G1 X172.113 Y45.968 E0.2950
G1 X172.574 Y45.614 E0.3318
G1 X172.928 Y45.153 E0.3687
G1 X173.150 Y44.616 E0.4056
G1 X173.226 Y44.040 E0.4424
G1 X173.150 Y43.463 E0.4793
G1 X172.928 Y42.926 E0.5162
G1 X172.574 Y42.465 E0.5530
G1 X172.113 Y42.112 E0.5899
G1 X171.576 Y41.889 E0.6268
G1 X171.000 Y41.813 E0.6637
G1 X170.424 Y41.889 E0.7005
G1 X169.887 Y42.112 E0.7374
G1 X169.426 Y42.465 E0.7743
G1 X169.072 Y42.926 E0.8111
G1 X168.850 Y43.463 E0.8480
G1 X168.774 Y44.040 E0.8849
; outer perimeter
G1 X169.258 Y44.040 F4200
G92 E0
G1 X169.317 Y44.491 E0.0289 F900
G1 X169.491 Y44.911 E0.0577
G1 X169.768 Y45.271 E0.0866
G1 X170.129 Y45.548 E0.1154
G1 X170.549 Y45.722 E0.1443
G1 X171.000 Y45.782 E0.1731
G1 X171.451 Y45.722 E0.2020
G1 X171.871 Y45.548 E0.2308
G1 X172.232 Y45.271 E0.2597
G1 X172.509 Y44.911 E0.2885
G1 X172.683 Y44.491 E0.3174
G1 X172.742 Y44.040 E0.3462
G1 X172.683 Y43.589 E0.3751
G1 X172.509 Y43.169 E0.4039
G1 X172.232 Y42.808 E0.4328
G1 X171.871 Y42.531 E0.4616
G1 X171.451 Y42.357 E0.4905
G1 X171.000 Y42.298 E0.5193
G1 X170.549 Y42.357 E0.5482
G1 X170.129 Y42.531 E0.5770
G1 X169.768 Y42.808 E0.6059
G1 X169.491 Y43.169 E0.6347
G1 X169.317 Y43.589 E0.6636
G1 X169.258 Y44.040 E0.6924
G1 X169.317 Y44.491 F3600
