; G-Code generated by Simplify3D(R) Version 3.1.1
; Mar 14, 2017 at 2:55:23 PM
; Settings Summary
;   processName,Process1
;   applyToModels,PSUMount
;   profileName,Belfry
;   profileVersion,2017-03-09 09:08:18
;   baseProfile,Default
;   printMaterial,PLA+
;   printQuality,Medium
;   printExtruders,
;   extruderName,Extruder 1
;   extruderToolheadNumber,0
;   extruderDiameter,0.4
;   extruderAutoWidth,1
;   extruderWidth,0.48
;   extrusionMultiplier,1
;   extruderUseRetract,1
;   extruderRetractionDistance,4
;   extruderExtraRestartDistance,0
;   extruderRetractionZLift,0
;   extruderRetractionSpeed,3600
;   extruderUseCoasting,0
;   extruderCoastingDistance,0.2
;   extruderUseWipe,1
;   extruderWipeDistance,2
;   primaryExtruder,0
;   layerHeight,0.3
;   topSolidLayers,3
;   bottomSolidLayers,3
;   perimeterOutlines,3
;   printPerimetersInsideOut,1
;   startPointOption,2
;   startPointOriginX,0
;   startPointOriginY,0
;   startPointOriginZ,300
;   sequentialIslands,0
;   spiralVaseMode,0
;   firstLayerHeightPercentage,100
;   firstLayerWidthPercentage,100
;   firstLayerUnderspeed,0.5
;   useRaft,0
;   raftExtruder,0
;   raftLayers,3
;   raftOffset,3
;   raftSeparationDistance,0.14
;   raftInfill,85
;   disableRaftBaseLayers,0
;   useSkirt,1
;   skirtExtruder,0
;   skirtLayers,1
;   skirtOutlines,1
;   skirtOffset,4
;   usePrimePillar,0
;   primePillarExtruder,999
;   primePillarWidth,12
;   primePillarLocation,7
;   primePillarSpeedMultiplier,1
;   useOozeShield,0
;   oozeShieldExtruder,999
;   oozeShieldOffset,2
;   oozeShieldOutlines,1
;   oozeShieldSidewallShape,1
;   oozeShieldSidewallAngle,30
;   oozeShieldSpeedMultiplier,1
;   infillExtruder,0
;   internalInfillPattern,Rectilinear
;   externalInfillPattern,Rectilinear
;   infillPercentage,15
;   outlineOverlapPercentage,15
;   infillExtrusionWidthPercentage,100
;   minInfillLength,5
;   infillLayerInterval,1
;   infillAngles,45,-45
;   overlapInfillAngles,0
;   generateSupport,0
;   supportExtruder,0
;   supportInfillPercentage,30
;   supportExtraInflation,0
;   denseSupportLayers,0
;   denseSupportInfillPercentage,70
;   supportLayerInterval,1
;   supportHorizontalPartOffset,0.3
;   supportUpperSeparationLayers,1
;   supportLowerSeparationLayers,1
;   supportType,0
;   supportGridSpacing,4
;   maxOverhangAngle,45
;   supportAngles,0
;   temperatureName,Extruder 1,Heated Bed
;   temperatureNumber,0,0
;   temperatureSetpointCount,1,3
;   temperatureSetpointLayers,1,1,2,3
;   temperatureSetpointTemperatures,225,70,65,60
;   temperatureStabilizeAtStartup,1,1
;   temperatureHeatedBed,0,1
;   temperatureRelayBetweenLayers,0,0
;   temperatureRelayBetweenLoops,0,0
;   fanLayers,1,2,3
;   fanSpeeds,0,50,100
;   blipFanToFullPower,0
;   adjustSpeedForCooling,1
;   minSpeedLayerTime,15
;   minCoolingSpeedSlowdown,20
;   increaseFanForCooling,0
;   minFanLayerTime,45
;   maxCoolingFanSpeed,100
;   increaseFanForBridging,0
;   bridgingFanSpeed,100
;   use5D,1
;   relativeEdistances,0
;   allowEaxisZeroing,1
;   independentExtruderAxes,0
;   includeM10123,0
;   stickySupport,1
;   applyToolheadOffsets,0
;   gcodeXoffset,0
;   gcodeYoffset,0
;   gcodeZoffset,0
;   overrideMachineDefinition,1
;   machineTypeOverride,0
;   strokeXoverride,300
;   strokeYoverride,200
;   strokeZoverride,350
;   originOffsetXoverride,0
;   originOffsetYoverride,0
;   originOffsetZoverride,0
;   homeXdirOverride,-1
;   homeYdirOverride,-1
;   homeZdirOverride,-1
;   flipXoverride,1
;   flipYoverride,-1
;   flipZoverride,1
;   toolheadOffsets,0,0|0,0|0,0|0,0|0,0|0,0
;   overrideFirmwareConfiguration,1
;   firmwareTypeOverride,RepRap (Marlin/Repetier/Sprinter)
;   GPXconfigOverride,r2
;   baudRateOverride,115200
;   overridePrinterModels,0
;   printerModelsOverride
;   startingGcode,G28 ; home all axes
;   layerChangeGcode,
;   retractionGcode,
;   toolChangeGcode,
;   endingGcode,G91 ;relative positioning,G1 Z+0.5 ;move Z up a bit,G28 X0 Y0 ;move X/Y to min endstops,M104 S0 ; turn off extruder,M140 S0 ; turn off bed,M84 ; disable motors
;   exportFileFormat,gcode
;   celebration,0
;   celebrationSong,Random Song
;   postProcessing,
;   defaultSpeed,3600
;   outlineUnderspeed,0.5
;   solidInfillUnderspeed,0.8
;   supportUnderspeed,0.8
;   rapidXYspeed,4200
;   rapidZspeed,1002
;   minBridgingArea,50
;   bridgingExtraInflation,0
;   bridgingExtrusionMultiplier,1
;   bridgingSpeedMultiplier,1
;   filamentDiameter,1.7
;   filamentPricePerKg,30
;   filamentDensity,1.25
;   useMinPrintHeight,0
;   minPrintHeight,0
;   useMaxPrintHeight,0
;   maxPrintHeight,0
;   useDiaphragm,0
;   diaphragmLayerInterval,20
;   robustSlicing,1
;   mergeAllIntoSolid,0
;   onlyRetractWhenCrossingOutline,1
;   retractBetweenLayers,1
;   useRetractionMinTravel,0
;   retractionMinTravel,3
;   retractWhileWiping,0
;   onlyWipeOutlines,1
;   avoidCrossingOutline,0
;   maxMovementDetourFactor,3
;   toolChangeRetractionDistance,12
;   toolChangeExtraRestartDistance,-0.5
;   toolChangeRetractionSpeed,600
;   allowThinWallGapFill,1
;   thinWallAllowedOverlapPercentage,10
;   horizontalSizeCompensation,0
G90
M82
M106 S0
M140 S70
M190 S70
M104 S225 T0
M109 S225 T0
G28 ; home all axes
G92 E0
G1 E-4.0000 F3600
G1 Z0.300 F1002
; layer 1, Z = 0.3
T0
; tool H0.300 W0.480
; skirt
G1 X70.797 Y48.207 F4200
G1 E0.0000 F1080
G92 E0
G1 X73.207 Y45.797 E0.2163 F1800
G1 X73.295 Y45.760 E0.2223
G1 X95.572 Y45.760 E1.6356
G1 X95.605 Y45.765 E1.6377
G1 X96.705 Y46.076 E1.7102
G1 X96.735 Y46.089 E1.7123
G1 X228.136 Y126.951 E11.5006
G1 X228.178 Y126.995 E11.5045
G1 X229.225 Y128.868 E11.6406
G1 X229.240 Y128.927 E11.6445
G1 X229.240 Y151.705 E13.0895
G1 X229.203 Y151.793 E13.0956
G1 X226.793 Y154.203 E13.3119
G1 X226.705 Y154.240 E13.3179
G1 X73.295 Y154.240 E23.0505
G1 X73.207 Y154.203 E23.0565
G1 X70.797 Y151.793 E23.2728
G1 X70.760 Y151.705 E23.2789
G1 X70.760 Y48.295 E29.8393
G1 X70.797 Y48.207 E29.8454
G92 E0
G1 E-4.0000 F3600
; inner perimeter
G1 X76.200 Y51.200 F4200
G1 E0.0000 F3600
G92 E0
G1 X94.660 Y51.200 E1.1712 F1500
G1 X223.800 Y130.671 E10.7910
G1 X223.800 Y148.800 E11.9412
G1 X76.200 Y148.800 E21.3052
G1 X76.200 Y51.200 E27.4971
; inner perimeter
G1 X75.720 Y50.720 F4200
G92 E0
G1 X94.796 Y50.720 E1.2102 F1200
G1 X224.280 Y130.402 E10.8557
G1 X224.280 Y149.280 E12.0534
G1 X75.720 Y149.280 E21.4783
G1 X75.720 Y50.720 E27.7311
; outer perimeter
G1 X75.240 Y50.240 F4200
G92 E0
G1 X94.932 Y50.240 E1.2493 F900
G1 X224.760 Y130.134 E10.9204
G1 X224.760 Y149.760 E12.1655
G1 X75.240 Y149.760 E21.6513
G1 X75.240 Y50.240 E27.9651
G1 X77.240 Y50.240 F3600
; inner perimeter
G1 X82.942 Y57.942 F4200
G92 E0
G1 X82.480 Y58.545 E0.0482 F1500
G1 X82.189 Y59.247 E0.0964
G1 X82.090 Y60.000 E0.1446
G1 X82.189 Y60.753 E0.1928
G1 X82.480 Y61.455 E0.2410
G1 X82.942 Y62.058 E0.2892
G1 X83.545 Y62.520 E0.3374
G1 X84.247 Y62.811 E0.3856
G1 X85.000 Y62.910 E0.4338
G1 X85.753 Y62.811 E0.4820
G1 X86.455 Y62.520 E0.5302
G1 X87.058 Y62.058 E0.5784
G1 X87.520 Y61.455 E0.6266
G1 X87.811 Y60.753 E0.6748
G1 X87.910 Y60.000 E0.7230
G1 X87.811 Y59.247 E0.7712
G1 X87.520 Y58.545 E0.8194
G1 X87.058 Y57.942 E0.8676
G1 X86.455 Y57.480 E0.9158
G1 X85.753 Y57.189 E0.9640
G1 X85.000 Y57.090 E1.0122
G1 X84.247 Y57.189 E1.0604
G1 X83.545 Y57.480 E1.1086
G1 X82.942 Y57.942 E1.1568
; inner perimeter
G1 X83.284 Y58.284 F4200
G92 E0
G1 X82.899 Y58.787 E0.0402 F1200
G1 X82.656 Y59.372 E0.0804
G1 X82.574 Y60.000 E0.1205
G1 X82.656 Y60.628 E0.1607
G1 X82.899 Y61.213 E0.2009
G1 X83.284 Y61.716 E0.2411
G1 X83.787 Y62.101 E0.2813
G1 X84.372 Y62.343 E0.3215
G1 X85.000 Y62.426 E0.3616
G1 X85.628 Y62.343 E0.4018
G1 X86.213 Y62.101 E0.4420
G1 X86.716 Y61.716 E0.4822
G1 X87.101 Y61.213 E0.5224
G1 X87.344 Y60.628 E0.5625
G1 X87.426 Y60.000 E0.6027
G1 X87.344 Y59.372 E0.6429
G1 X87.101 Y58.787 E0.6831
G1 X86.716 Y58.284 E0.7233
G1 X86.213 Y57.899 E0.7635
G1 X85.628 Y57.656 E0.8036
G1 X85.000 Y57.574 E0.8438
G1 X84.372 Y57.656 E0.8840
G1 X83.787 Y57.899 E0.9242
G1 X83.284 Y58.284 E0.9644
; outer perimeter
G1 X83.627 Y58.627 F4200
G92 E0
G1 X83.318 Y59.029 E0.0322 F900
G1 X83.124 Y59.497 E0.0643
G1 X83.058 Y60.000 E0.0965
G1 X83.124 Y60.503 E0.1287
G1 X83.318 Y60.971 E0.1608
G1 X83.627 Y61.373 E0.1930
G1 X84.029 Y61.682 E0.2251
G1 X84.497 Y61.876 E0.2573
G1 X85.000 Y61.942 E0.2895
G1 X85.503 Y61.876 E0.3216
G1 X85.971 Y61.682 E0.3538
G1 X86.373 Y61.373 E0.3860
G1 X86.682 Y60.971 E0.4181
G1 X86.876 Y60.503 E0.4503
G1 X86.942 Y60.000 E0.4825
G1 X86.876 Y59.497 E0.5146
G1 X86.682 Y59.029 E0.5468
G1 X86.373 Y58.627 E0.5789
G1 X85.971 Y58.318 E0.6111
G1 X85.503 Y58.124 E0.6433
G1 X85.000 Y58.058 E0.6754
G1 X84.497 Y58.124 E0.7076
G1 X84.029 Y58.318 E0.7398
G1 X83.627 Y58.627 E0.7719
G1 X83.318 Y59.029 F3600
G1 X83.124 Y59.497 F3600
G1 X83.058 Y60.000 F3600
G1 X83.120 Y60.475 F3600
; inner perimeter
G1 X84.247 Y137.189 F4200
G92 E0
G1 X83.545 Y137.480 E0.0482 F1500
G1 X82.942 Y137.942 E0.0964
G1 X82.480 Y138.545 E0.1446
G1 X82.189 Y139.247 E0.1928
G1 X82.090 Y140.000 E0.2410
G1 X82.189 Y140.753 E0.2892
G1 X82.480 Y141.455 E0.3374
G1 X82.942 Y142.058 E0.3856
G1 X83.545 Y142.520 E0.4338
G1 X84.247 Y142.811 E0.4820
G1 X85.000 Y142.910 E0.5302
G1 X85.753 Y142.811 E0.5784
G1 X86.455 Y142.520 E0.6266
G1 X87.058 Y142.058 E0.6748
G1 X87.520 Y141.455 E0.7230
G1 X87.811 Y140.753 E0.7712
G1 X87.910 Y140.000 E0.8194
G1 X87.811 Y139.247 E0.8676
G1 X87.520 Y138.545 E0.9158
G1 X87.058 Y137.942 E0.9640
G1 X86.455 Y137.480 E1.0122
G1 X85.753 Y137.189 E1.0604
G1 X85.000 Y137.090 E1.1086
G1 X84.247 Y137.189 E1.1568
; inner perimeter
G1 X84.372 Y137.656 F4200
G92 E0
G1 X83.787 Y137.899 E0.0402 F1200
G1 X83.284 Y138.284 E0.0804
G1 X82.899 Y138.787 E0.1205
G1 X82.656 Y139.372 E0.1607
G1 X82.574 Y140.000 E0.2009
G1 X82.656 Y140.628 E0.2411
G1 X82.899 Y141.213 E0.2813
G1 X83.284 Y141.716 E0.3215
G1 X83.787 Y142.101 E0.3616
G1 X84.372 Y142.344 E0.4018
G1 X85.000 Y142.426 E0.4420
G1 X85.628 Y142.344 E0.4822
G1 X86.213 Y142.101 E0.5224
G1 X86.716 Y141.716 E0.5625
G1 X87.101 Y141.213 E0.6027
G1 X87.344 Y140.628 E0.6429
G1 X87.426 Y140.000 E0.6831
G1 X87.344 Y139.372 E0.7233
G1 X87.101 Y138.787 E0.7635
G1 X86.716 Y138.284 E0.8036
G1 X86.213 Y137.899 E0.8438
G1 X85.628 Y137.656 E0.8840
G1 X85.000 Y137.574 E0.9242
G1 X84.372 Y137.656 E0.9644
; outer perimeter
G1 X84.497 Y138.124 F4200
G92 E0
G1 X84.029 Y138.318 E0.0322 F900
G1 X83.627 Y138.627 E0.0643
G1 X83.318 Y139.029 E0.0965
G1 X83.124 Y139.497 E0.1287
G1 X83.058 Y140.000 E0.1608
G1 X83.124 Y140.503 E0.1930
G1 X83.318 Y140.971 E0.2251
G1 X83.627 Y141.373 E0.2573
G1 X84.029 Y141.682 E0.2895
G1 X84.497 Y141.876 E0.3216
G1 X85.000 Y141.942 E0.3538
G1 X85.503 Y141.876 E0.3860
G1 X85.971 Y141.682 E0.4181
G1 X86.373 Y141.373 E0.4503
G1 X86.682 Y140.971 E0.4825
G1 X86.876 Y140.503 E0.5146
G1 X86.942 Y140.000 E0.5468
G1 X86.876 Y139.497 E0.5789
G1 X86.682 Y139.029 E0.6111
G1 X86.373 Y138.627 E0.6433
G1 X85.971 Y138.318 E0.6754
G1 X85.503 Y138.124 E0.7076
G1 X85.000 Y138.058 E0.7398
G1 X84.497 Y138.124 E0.7719
G92 E0
G1 E-4.0000 F3600
G1 X84.029 Y138.318 F3600
G1 X83.627 Y138.627 F3600
G1 X83.318 Y139.029 F3600
G1 X83.135 Y139.472 F3600
; inner perimeter
G1 X212.480 Y138.545 F4200
G1 E0.0000 F3600
G92 E0
G1 X212.189 Y139.247 E0.0482 F1500
G1 X212.090 Y140.000 E0.0964
G1 X212.189 Y140.753 E0.1446
G1 X212.480 Y141.455 E0.1928
G1 X212.942 Y142.058 E0.2410
G1 X213.545 Y142.520 E0.2892
G1 X214.247 Y142.811 E0.3374
G1 X215.000 Y142.910 E0.3856
G1 X215.753 Y142.811 E0.4338
G1 X216.455 Y142.520 E0.4820
G1 X217.058 Y142.058 E0.5302
G1 X217.520 Y141.455 E0.5784
G1 X217.811 Y140.753 E0.6266
G1 X217.910 Y140.000 E0.6748
G1 X217.811 Y139.247 E0.7230
G1 X217.520 Y138.545 E0.7712
G1 X217.058 Y137.942 E0.8194
G1 X216.455 Y137.480 E0.8676
G1 X215.753 Y137.189 E0.9158
G1 X215.000 Y137.090 E0.9640
G1 X214.247 Y137.189 E1.0122
G1 X213.545 Y137.480 E1.0604
G1 X212.942 Y137.942 E1.1086
G1 X212.480 Y138.545 E1.1568
; inner perimeter
G1 X212.899 Y138.787 F4200
G92 E0
G1 X212.656 Y139.372 E0.0402 F1200
G1 X212.574 Y140.000 E0.0804
G1 X212.656 Y140.628 E0.1205
G1 X212.899 Y141.213 E0.1607
G1 X213.284 Y141.716 E0.2009
G1 X213.787 Y142.101 E0.2411
G1 X214.372 Y142.344 E0.2813
G1 X215.000 Y142.426 E0.3215
G1 X215.628 Y142.344 E0.3616
G1 X216.213 Y142.101 E0.4018
G1 X216.716 Y141.716 E0.4420
G1 X217.101 Y141.213 E0.4822
G1 X217.344 Y140.628 E0.5224
G1 X217.426 Y140.000 E0.5625
G1 X217.344 Y139.372 E0.6027
G1 X217.101 Y138.787 E0.6429
G1 X216.716 Y138.284 E0.6831
G1 X216.213 Y137.899 E0.7233
G1 X215.628 Y137.656 E0.7635
G1 X215.000 Y137.574 E0.8036
G1 X214.372 Y137.656 E0.8438
G1 X213.787 Y137.899 E0.8840
G1 X213.284 Y138.284 E0.9242
G1 X212.899 Y138.787 E0.9644
; outer perimeter
G1 X213.318 Y139.029 F4200
G92 E0
G1 X213.124 Y139.497 E0.0322 F900
G1 X213.058 Y140.000 E0.0643
G1 X213.124 Y140.503 E0.0965
G1 X213.318 Y140.971 E0.1287
G1 X213.627 Y141.373 E0.1608
G1 X214.029 Y141.682 E0.1930
G1 X214.497 Y141.876 E0.2251
G1 X215.000 Y141.942 E0.2573
G1 X215.503 Y141.876 E0.2895
G1 X215.971 Y141.682 E0.3216
G1 X216.373 Y141.373 E0.3538
G1 X216.682 Y140.971 E0.3860
G1 X216.876 Y140.503 E0.4181
G1 X216.942 Y140.000 E0.4503
G1 X216.876 Y139.497 E0.4825
G1 X216.682 Y139.029 E0.5146
G1 X216.373 Y138.627 E0.5468
G1 X215.971 Y138.318 E0.5789
G1 X215.503 Y138.124 E0.6111
G1 X215.000 Y138.058 E0.6433
G1 X214.497 Y138.124 E0.6754
G1 X214.029 Y138.318 E0.7076
G1 X213.627 Y138.627 E0.7398
G1 X213.318 Y139.029 E0.7719
G1 X213.124 Y139.497 F3600
G1 X213.058 Y140.000 F3600
G1 X213.124 Y140.503 F3600
G1 X213.307 Y140.945 F3600
; solid layer
G1 X214.269 Y143.226 F4200
G92 E0
G1 X219.436 Y148.392 E0.4635 F1440
G1 X220.114 Y148.392 E0.5066
G1 X215.039 Y143.317 E0.9619
G1 X215.639 Y143.238 E1.0003
G1 X220.793 Y148.392 E1.4628
G1 X221.472 Y148.392 E1.5058
G1 X216.163 Y143.083 E1.9822
G1 X216.643 Y142.884 E2.0151
G1 X222.151 Y148.392 E2.5093
G1 X222.830 Y148.392 E2.5523
G1 X217.031 Y142.593 E3.0726
G1 X217.349 Y142.349 E3.0981
G1 X217.399 Y142.283 E3.1033
G1 X223.392 Y148.276 E3.6410
G1 X223.392 Y147.597 E3.6840
G1 X217.694 Y141.899 E4.1953
G1 X217.877 Y141.661 E4.2143
G1 X217.952 Y141.478 E4.2268
G1 X223.392 Y146.918 E4.7149
G1 X223.392 Y146.239 E4.7579
G1 X218.151 Y140.998 E5.2281
G1 X218.209 Y140.860 E5.2376
G1 X218.265 Y140.433 E5.2649
G1 X223.392 Y145.560 E5.7250
G1 X223.392 Y144.881 E5.7680
G1 X218.293 Y139.783 E6.2255
G1 X222.335 Y130.248 F4200
G92 E0
G1 X223.392 Y131.305 E0.0948 F1440
G1 X223.392 Y131.984 E0.1379
G1 X220.570 Y129.162 E0.3910
G1 X218.805 Y128.076 E0.5225
G1 X223.392 Y132.663 E0.9340
G1 X223.392 Y133.341 E0.9771
G1 X217.040 Y126.990 E1.5470
G1 X215.275 Y125.904 E1.6784
G1 X223.392 Y134.020 E2.4066
G1 X223.392 Y134.699 E2.4497
G1 X213.511 Y124.818 E3.3363
G1 X211.746 Y123.732 E3.4677
G1 X223.392 Y135.378 E4.5127
G1 X223.392 Y136.057 E4.5557
G1 X209.981 Y122.645 E5.7590
G1 X208.216 Y121.559 E5.8905
G1 X223.392 Y136.736 E7.2521
G1 X223.392 Y137.414 E7.2951
G1 X206.451 Y120.473 E8.8151
G1 X204.686 Y119.387 E8.9466
G1 X223.392 Y138.093 E10.6249
G1 X223.392 Y138.772 E10.6680
G1 X202.921 Y118.301 E12.5046
G1 X201.156 Y117.215 E12.6361
G1 X223.392 Y139.451 E14.6311
G1 X223.392 Y140.130 E14.6742
G1 X199.391 Y116.129 E16.8276
G1 X197.626 Y115.043 E16.9590
G1 X223.392 Y140.809 E19.2707
G1 X223.392 Y141.487 E19.3138
G1 X195.861 Y113.957 E21.7839
G1 X194.096 Y112.870 E21.9154
G1 X223.392 Y142.166 E24.5438
G1 X223.392 Y142.845 E24.5868
G1 X192.331 Y111.784 E27.3736
G1 X190.566 Y110.698 E27.5051
G1 X223.392 Y143.524 E30.4502
G1 X223.392 Y144.203 E30.4933
G1 X218.123 Y138.934 E30.9660
G1 X217.877 Y138.339 E31.0068
G1 X217.349 Y137.651 E31.0618
G1 X216.661 Y137.123 E31.1169
G1 X216.066 Y136.877 E31.1577
G1 X188.801 Y109.612 E33.6039
G1 X187.036 Y108.526 E33.7354
G1 X215.217 Y136.707 E36.2638
G1 X215.000 Y136.678 E36.2777
G1 X214.567 Y136.735 E36.3054
G1 X185.272 Y107.440 E38.9338
G1 X183.507 Y106.354 E39.0652
G1 X214.002 Y136.849 E41.8012
G1 X213.522 Y137.048 E41.8342
G1 X181.742 Y105.268 E44.6855
G1 X179.977 Y104.181 E44.8170
G1 X213.101 Y137.306 E47.7889
G1 X212.717 Y137.600 E47.8196
