; G-Code generated by Simplify3D(R) Version 3.1.1
; Mar 11, 2017 at 6:53:18 PM
; Settings Summary
;   processName,Process1
;   applyToModels,Roller
;   profileName,Kossel Mini (modified)
;   profileVersion,2017-03-11 11:43:22
;   baseProfile,
;   printMaterial,SemiFlex
;   printQuality,Medium
;   printExtruders,
;   extruderName,Primary Extruder
;   extruderToolheadNumber,0
;   extruderDiameter,0.4
;   extruderAutoWidth,1
;   extruderWidth,0.48
;   extrusionMultiplier,1
;   extruderUseRetract,0
;   extruderRetractionDistance,4
;   extruderExtraRestartDistance,0
;   extruderRetractionZLift,0.1
;   extruderRetractionSpeed,3600
;   extruderUseCoasting,0
;   extruderCoastingDistance,5
;   extruderUseWipe,1
;   extruderWipeDistance,2
;   primaryExtruder,0
;   layerHeight,0.3
;   topSolidLayers,2
;   bottomSolidLayers,2
;   perimeterOutlines,3
;   printPerimetersInsideOut,1
;   startPointOption,2
;   startPointOriginX,0
;   startPointOriginY,0
;   startPointOriginZ,300
;   sequentialIslands,0
;   spiralVaseMode,0
;   firstLayerHeightPercentage,80
;   firstLayerWidthPercentage,120
;   firstLayerUnderspeed,0.5
;   useRaft,0
;   raftExtruder,0
;   raftLayers,3
;   raftOffset,3
;   raftSeparationDistance,0.14
;   raftInfill,85
;   disableRaftBaseLayers,0
;   useSkirt,1
;   skirtExtruder,0
;   skirtLayers,1
;   skirtOutlines,3
;   skirtOffset,4
;   usePrimePillar,0
;   primePillarExtruder,999
;   primePillarWidth,12
;   primePillarLocation,7
;   primePillarSpeedMultiplier,1
;   useOozeShield,0
;   oozeShieldExtruder,999
;   oozeShieldOffset,2
;   oozeShieldOutlines,1
;   oozeShieldSidewallShape,1
;   oozeShieldSidewallAngle,30
;   oozeShieldSpeedMultiplier,1
;   infillExtruder,0
;   internalInfillPattern,Rectilinear
;   externalInfillPattern,Rectilinear
;   infillPercentage,10
;   outlineOverlapPercentage,30
;   infillExtrusionWidthPercentage,110
;   minInfillLength,2
;   infillLayerInterval,1
;   infillAngles,45,-45
;   overlapInfillAngles,0
;   generateSupport,0
;   supportExtruder,0
;   supportInfillPercentage,30
;   supportExtraInflation,0
;   denseSupportLayers,0
;   denseSupportInfillPercentage,70
;   supportLayerInterval,1
;   supportHorizontalPartOffset,0.3
;   supportUpperSeparationLayers,1
;   supportLowerSeparationLayers,1
;   supportType,0
;   supportGridSpacing,4
;   maxOverhangAngle,45
;   supportAngles,0
;   temperatureName,Primary Extruder,Heated Bed
;   temperatureNumber,0,1
;   temperatureSetpointCount,2,1
;   temperatureSetpointLayers,1,2,1
;   temperatureSetpointTemperatures,235,230,50
;   temperatureStabilizeAtStartup,1,1
;   temperatureHeatedBed,0,1
;   temperatureRelayBetweenLayers,0,0
;   temperatureRelayBetweenLoops,0,0
;   fanLayers,1,2,3
;   fanSpeeds,0,50,100
;   blipFanToFullPower,1
;   adjustSpeedForCooling,1
;   minSpeedLayerTime,15
;   minCoolingSpeedSlowdown,20
;   increaseFanForCooling,0
;   minFanLayerTime,60
;   maxCoolingFanSpeed,100
;   increaseFanForBridging,1
;   bridgingFanSpeed,100
;   use5D,1
;   relativeEdistances,0
;   allowEaxisZeroing,1
;   independentExtruderAxes,0
;   includeM10123,0
;   stickySupport,1
;   applyToolheadOffsets,0
;   gcodeXoffset,0
;   gcodeYoffset,0
;   gcodeZoffset,0
;   overrideMachineDefinition,1
;   machineTypeOverride,1
;   strokeXoverride,190
;   strokeYoverride,190
;   strokeZoverride,204.4
;   originOffsetXoverride,95
;   originOffsetYoverride,95
;   originOffsetZoverride,0
;   homeXdirOverride,0
;   homeYdirOverride,0
;   homeZdirOverride,1
;   flipXoverride,1
;   flipYoverride,-1
;   flipZoverride,1
;   toolheadOffsets,0,0|0,0|0,0|0,0|0,0|0,0
;   overrideFirmwareConfiguration,1
;   firmwareTypeOverride,RepRap (Marlin/Repetier/Sprinter)
;   GPXconfigOverride,r2
;   baudRateOverride,115200
;   overridePrinterModels,1
;   printerModelsOverride
;   startingGcode,G28 ; home all axes
;   layerChangeGcode,
;   retractionGcode,
;   toolChangeGcode,
;   endingGcode,M104 S0 ; turn off extruder,M140 S0 ; turn off bed,M107 ; turn off cooling fan,G28 ; home axes,M84 ; disable motors
;   exportFileFormat,gcode
;   celebration,0
;   celebrationSong,Random Song
;   postProcessing,
;   defaultSpeed,1800
;   outlineUnderspeed,0.5
;   solidInfillUnderspeed,0.8
;   supportUnderspeed,0.8
;   rapidXYspeed,6000
;   rapidZspeed,1200
;   minBridgingArea,50
;   bridgingExtraInflation,0
;   bridgingExtrusionMultiplier,0.95
;   bridgingSpeedMultiplier,0.7
;   filamentDiameter,1.73
;   filamentPricePerKg,25
;   filamentDensity,1.25
;   useMinPrintHeight,0
;   minPrintHeight,0
;   useMaxPrintHeight,0
;   maxPrintHeight,10
;   useDiaphragm,0
;   diaphragmLayerInterval,20
;   robustSlicing,1
;   mergeAllIntoSolid,0
;   onlyRetractWhenCrossingOutline,1
;   retractBetweenLayers,1
;   useRetractionMinTravel,0
;   retractionMinTravel,3
;   retractWhileWiping,0
;   onlyWipeOutlines,1
;   avoidCrossingOutline,0
;   maxMovementDetourFactor,3
;   toolChangeRetractionDistance,12
;   toolChangeExtraRestartDistance,-0.5
;   toolChangeRetractionSpeed,600
;   allowThinWallGapFill,1
;   thinWallAllowedOverlapPercentage,10
;   horizontalSizeCompensation,0
G90
M82
M106 S0
M140 S50
M190 S50
M104 S235 T0
M109 S235 T0
G28 ; home all axes
G92 E0
G1 E-4.0000 F3600
G1 Z0.340 F1200
; layer 1, Z = 0.24
T0
; tool H0.300 W0.576
; skirt
G1 X-30.185 Y7.891 F6000
G1 Z0.240 F1200
G1 E0.0000 F1080
G92 E0
G1 X-30.907 Y4.260 E0.2722 F900
G1 X-30.913 Y4.222 E0.2750
G1 X-30.953 Y3.923 E0.2972
G1 X-30.957 Y3.884 E0.3001
G1 X-31.199 Y0.190 E0.5722
G1 X-31.200 Y0.151 E0.5751
G1 X-31.200 Y-0.151 E0.5972
G1 X-31.199 Y-0.190 E0.6001
G1 X-30.957 Y-3.884 E0.8723
G1 X-30.953 Y-3.923 E0.8752
G1 X-30.913 Y-4.222 E0.8973
G1 X-30.907 Y-4.260 E0.9002
G1 X-30.185 Y-7.891 E1.1724
G1 X-30.176 Y-7.930 E1.1752
G1 X-30.098 Y-8.221 E1.1974
G1 X-30.086 Y-8.258 E1.2003
G1 X-28.896 Y-11.764 E1.4724
G1 X-28.883 Y-11.801 E1.4753
G1 X-28.767 Y-12.079 E1.4974
G1 X-28.751 Y-12.115 E1.5003
G1 X-27.114 Y-15.435 E1.7725
G1 X-27.095 Y-15.470 E1.7754
G1 X-26.945 Y-15.730 E1.7975
G1 X-26.924 Y-15.764 E1.8004
G1 X-24.867 Y-18.842 E2.0726
G1 X-24.844 Y-18.874 E2.0754
G1 X-24.661 Y-19.113 E2.0976
G1 X-24.636 Y-19.143 E2.1005
G1 X-22.195 Y-21.927 E2.3726
G1 X-22.168 Y-21.955 E2.3755
G1 X-21.955 Y-22.168 E2.3976
G1 X-21.927 Y-22.195 E2.4005
G1 X-19.143 Y-24.636 E2.6727
G1 X-19.113 Y-24.661 E2.6756
G1 X-18.874 Y-24.844 E2.6977
G1 X-18.842 Y-24.867 E2.7006
G1 X-15.764 Y-26.924 E2.9728
G1 X-15.730 Y-26.945 E2.9756
G1 X-15.470 Y-27.095 E2.9978
G1 X-15.435 Y-27.114 E3.0007
G1 X-12.115 Y-28.751 E3.2728
G1 X-12.079 Y-28.767 E3.2757
G1 X-11.801 Y-28.883 E3.2978
G1 X-11.764 Y-28.897 E3.3007
G1 X-8.258 Y-30.087 E3.5729
G1 X-8.221 Y-30.098 E3.5758
G1 X-7.930 Y-30.176 E3.5979
G1 X-7.891 Y-30.185 E3.6008
G1 X-4.260 Y-30.907 E3.8730
G1 X-4.222 Y-30.913 E3.8758
G1 X-3.923 Y-30.953 E3.8980
G1 X-3.884 Y-30.957 E3.9009
G1 X-0.190 Y-31.199 E4.1730
G1 X-0.151 Y-31.200 E4.1759
G1 X0.151 Y-31.200 E4.1980
G1 X0.190 Y-31.199 E4.2009
G1 X3.884 Y-30.957 E4.4731
G1 X3.923 Y-30.953 E4.4760
G1 X4.222 Y-30.913 E4.4981
G1 X4.260 Y-30.907 E4.5010
G1 X7.891 Y-30.185 E4.7732
G1 X7.930 Y-30.176 E4.7760
G1 X8.221 Y-30.098 E4.7982
G1 X8.258 Y-30.087 E4.8011
G1 X11.764 Y-28.897 E5.0732
G1 X11.801 Y-28.883 E5.0761
G1 X12.079 Y-28.767 E5.0982
G1 X12.115 Y-28.751 E5.1011
G1 X15.435 Y-27.114 E5.3733
G1 X15.470 Y-27.095 E5.3762
G1 X15.730 Y-26.945 E5.3983
G1 X15.764 Y-26.924 E5.4012
G1 X18.842 Y-24.867 E5.6734
G1 X18.874 Y-24.844 E5.6762
G1 X19.113 Y-24.661 E5.6984
G1 X19.143 Y-24.636 E5.7013
G1 X21.927 Y-22.195 E5.9734
G1 X21.955 Y-22.168 E5.9763
G1 X22.168 Y-21.955 E5.9984
G1 X22.195 Y-21.927 E6.0013
G1 X24.636 Y-19.143 E6.2735
G1 X24.661 Y-19.113 E6.2764
G1 X24.844 Y-18.874 E6.2985
G1 X24.867 Y-18.842 E6.3014
G1 X26.924 Y-15.764 E6.5736
G1 X26.945 Y-15.730 E6.5764
G1 X27.095 Y-15.470 E6.5986
G1 X27.114 Y-15.435 E6.6015
G1 X28.751 Y-12.115 E6.8736
G1 X28.767 Y-12.079 E6.8765
G1 X28.883 Y-11.801 E6.8986
G1 X28.897 Y-11.764 E6.9015
G1 X30.087 Y-8.258 E7.1737
G1 X30.098 Y-8.221 E7.1766
G1 X30.176 Y-7.930 E7.1987
G1 X30.185 Y-7.891 E7.2016
G1 X30.907 Y-4.260 E7.4738
G1 X30.913 Y-4.222 E7.4766
G1 X30.953 Y-3.923 E7.4988
G1 X30.957 Y-3.884 E7.5017
G1 X31.199 Y-0.190 E7.7738
G1 X31.200 Y-0.151 E7.7767
G1 X31.200 Y0.151 E7.7988
G1 X31.199 Y0.190 E7.8017
G1 X30.957 Y3.884 E8.0739
G1 X30.953 Y3.923 E8.0768
G1 X30.913 Y4.222 E8.0989
G1 X30.907 Y4.260 E8.1018
G1 X30.185 Y7.891 E8.3740
G1 X30.176 Y7.930 E8.3768
G1 X30.098 Y8.221 E8.3990
G1 X30.087 Y8.258 E8.4019
G1 X28.897 Y11.764 E8.6740
G1 X28.883 Y11.801 E8.6769
G1 X28.767 Y12.079 E8.6990
G1 X28.751 Y12.115 E8.7019
G1 X27.114 Y15.435 E8.9741
G1 X27.095 Y15.470 E8.9770
G1 X26.945 Y15.730 E8.9991
G1 X26.924 Y15.764 E9.0020
G1 X24.867 Y18.842 E9.2742
G1 X24.844 Y18.874 E9.2770
G1 X24.661 Y19.113 E9.2992
G1 X24.636 Y19.143 E9.3021
G1 X22.195 Y21.927 E9.5742
G1 X22.168 Y21.955 E9.5771
G1 X21.955 Y22.168 E9.5992
G1 X21.927 Y22.195 E9.6021
G1 X19.143 Y24.636 E9.8743
G1 X19.113 Y24.661 E9.8772
G1 X18.874 Y24.844 E9.8993
G1 X18.842 Y24.867 E9.9022
G1 X15.764 Y26.924 E10.1744
G1 X15.730 Y26.945 E10.1772
G1 X15.470 Y27.095 E10.1994
G1 X15.435 Y27.114 E10.2023
G1 X12.115 Y28.751 E10.4744
G1 X12.079 Y28.767 E10.4773
G1 X11.801 Y28.883 E10.4994
G1 X11.764 Y28.897 E10.5023
G1 X8.258 Y30.087 E10.7745
G1 X8.221 Y30.098 E10.7774
G1 X7.930 Y30.176 E10.7995
G1 X7.891 Y30.185 E10.8024
G1 X4.260 Y30.907 E11.0746
G1 X4.222 Y30.913 E11.0774
G1 X3.923 Y30.953 E11.0996
G1 X3.884 Y30.957 E11.1025
G1 X0.190 Y31.199 E11.3746
G1 X0.151 Y31.200 E11.3775
G1 X-0.151 Y31.200 E11.3996
G1 X-0.190 Y31.199 E11.4025
G1 X-3.884 Y30.957 E11.6747
G1 X-3.923 Y30.953 E11.6776
G1 X-4.222 Y30.913 E11.6997
G1 X-4.260 Y30.907 E11.7026
G1 X-7.891 Y30.185 E11.9748
G1 X-7.930 Y30.176 E11.9776
G1 X-8.221 Y30.098 E11.9998
G1 X-8.258 Y30.087 E12.0027
G1 X-11.764 Y28.897 E12.2748
G1 X-11.801 Y28.883 E12.2777
G1 X-12.079 Y28.767 E12.2998
G1 X-12.115 Y28.751 E12.3027
G1 X-15.435 Y27.114 E12.5749
G1 X-15.470 Y27.095 E12.5778
G1 X-15.730 Y26.945 E12.5999
G1 X-15.764 Y26.924 E12.6028
G1 X-18.842 Y24.867 E12.8750
G1 X-18.874 Y24.844 E12.8778
G1 X-19.113 Y24.661 E12.9000
G1 X-19.143 Y24.636 E12.9029
G1 X-21.927 Y22.195 E13.1750
G1 X-21.955 Y22.168 E13.1779
G1 X-22.168 Y21.955 E13.2000
G1 X-22.195 Y21.927 E13.2029
G1 X-24.636 Y19.143 E13.4751
G1 X-24.661 Y19.113 E13.4780
G1 X-24.844 Y18.874 E13.5001
G1 X-24.867 Y18.842 E13.5030
G1 X-26.924 Y15.764 E13.7752
G1 X-26.945 Y15.730 E13.7780
G1 X-27.095 Y15.470 E13.8002
G1 X-27.114 Y15.435 E13.8031
G1 X-28.751 Y12.115 E14.0752
G1 X-28.767 Y12.079 E14.0781
G1 X-28.883 Y11.801 E14.1002
G1 X-28.896 Y11.764 E14.1031
G1 X-30.086 Y8.258 E14.3753
G1 X-30.098 Y8.221 E14.3782
G1 X-30.176 Y7.930 E14.4003
G1 X-30.185 Y7.891 E14.4032
G1 X-29.716 Y7.790 F6000
G92 E0
G1 X-30.435 Y4.175 E0.2710 F900
G1 X-30.439 Y4.151 E0.2727
G1 X-30.476 Y3.868 E0.2937
G1 X-30.478 Y3.845 E0.2954
G1 X-30.719 Y0.166 E0.5664
G1 X-30.720 Y0.143 E0.5682
G1 X-30.720 Y-0.143 E0.5892
G1 X-30.719 Y-0.166 E0.5909
G1 X-30.478 Y-3.845 E0.8619
G1 X-30.476 Y-3.868 E0.8636
G1 X-30.439 Y-4.151 E0.8846
G1 X-30.435 Y-4.175 E0.8863
G1 X-29.716 Y-7.790 E1.1573
G1 X-29.710 Y-7.813 E1.1591
G1 X-29.636 Y-8.089 E1.1801
G1 X-29.629 Y-8.111 E1.1818
G1 X-28.444 Y-11.602 E1.4528
G1 X-28.436 Y-11.624 E1.4545
G1 X-28.327 Y-11.888 E1.4755
G1 X-28.317 Y-11.909 E1.4772
G1 X-26.687 Y-15.216 E1.7482
G1 X-26.676 Y-15.236 E1.7500
G1 X-26.533 Y-15.484 E1.7710
G1 X-26.520 Y-15.504 E1.7727
G1 X-24.472 Y-18.569 E2.0437
G1 X-24.459 Y-18.588 E2.0454
G1 X-24.285 Y-18.814 E2.0664
G1 X-24.270 Y-18.833 E2.0681
G1 X-21.839 Y-21.604 E2.3391
G1 X-21.823 Y-21.621 E2.3409
G1 X-21.621 Y-21.823 E2.3618
G1 X-21.604 Y-21.839 E2.3636
G1 X-18.833 Y-24.270 E2.6346
G1 X-18.814 Y-24.285 E2.6363
G1 X-18.588 Y-24.459 E2.6573
G1 X-18.569 Y-24.472 E2.6590
G1 X-15.504 Y-26.520 E2.9300
G1 X-15.484 Y-26.533 E2.9318
G1 X-15.236 Y-26.676 E2.9527
G1 X-15.216 Y-26.687 E2.9545
G1 X-11.909 Y-28.317 E3.2255
G1 X-11.888 Y-28.327 E3.2272
G1 X-11.624 Y-28.436 E3.2482
G1 X-11.602 Y-28.445 E3.2499
G1 X-8.111 Y-29.629 E3.5209
G1 X-8.089 Y-29.636 E3.5227
G1 X-7.813 Y-29.710 E3.5436
G1 X-7.790 Y-29.716 E3.5454
G1 X-4.175 Y-30.435 E3.8164
G1 X-4.151 Y-30.439 E3.8181
G1 X-3.868 Y-30.476 E3.8391
G1 X-3.845 Y-30.478 E3.8408
G1 X-0.166 Y-30.719 E4.1118
G1 X-0.143 Y-30.720 E4.1135
G1 X0.143 Y-30.720 E4.1345
G1 X0.166 Y-30.719 E4.1363
G1 X3.845 Y-30.478 E4.4073
G1 X3.868 Y-30.476 E4.4090
G1 X4.151 Y-30.439 E4.4300
G1 X4.175 Y-30.435 E4.4317
G1 X7.790 Y-29.716 E4.7027
G1 X7.813 Y-29.710 E4.7044
G1 X8.089 Y-29.636 E4.7254
G1 X8.111 Y-29.629 E4.7272
G1 X11.602 Y-28.445 E4.9982
G1 X11.624 Y-28.436 E4.9999
G1 X11.888 Y-28.327 E5.0209
G1 X11.909 Y-28.317 E5.0226
G1 X15.216 Y-26.687 E5.2936
G1 X15.236 Y-26.676 E5.2953
G1 X15.484 Y-26.533 E5.3163
G1 X15.504 Y-26.520 E5.3181
G1 X18.569 Y-24.472 E5.5891
G1 X18.588 Y-24.459 E5.5908
G1 X18.814 Y-24.285 E5.6118
G1 X18.833 Y-24.270 E5.6135
G1 X21.604 Y-21.839 E5.8845
G1 X21.621 Y-21.823 E5.8862
G1 X21.823 Y-21.621 E5.9072
G1 X21.839 Y-21.604 E5.9089
G1 X24.270 Y-18.833 E6.1799
G1 X24.285 Y-18.814 E6.1817
G1 X24.459 Y-18.588 E6.2027
G1 X24.472 Y-18.569 E6.2044
G1 X26.520 Y-15.504 E6.4754
G1 X26.533 Y-15.484 E6.4771
G1 X26.676 Y-15.236 E6.4981
G1 X26.687 Y-15.216 E6.4998
G1 X28.317 Y-11.909 E6.7708
G1 X28.327 Y-11.888 E6.7726
G1 X28.436 Y-11.624 E6.7936
G1 X28.445 Y-11.602 E6.7953
G1 X29.629 Y-8.111 E7.0663
G1 X29.636 Y-8.089 E7.0680
G1 X29.710 Y-7.813 E7.0890
G1 X29.716 Y-7.790 E7.0907
G1 X30.435 Y-4.175 E7.3617
G1 X30.439 Y-4.151 E7.3635
G1 X30.476 Y-3.868 E7.3845
G1 X30.478 Y-3.845 E7.3862
G1 X30.719 Y-0.166 E7.6572
G1 X30.720 Y-0.143 E7.6589
G1 X30.720 Y0.143 E7.6799
G1 X30.719 Y0.166 E7.6816
G1 X30.478 Y3.845 E7.9526
G1 X30.476 Y3.868 E7.9544
G1 X30.439 Y4.151 E7.9753
G1 X30.435 Y4.175 E7.9771
G1 X29.716 Y7.790 E8.2481
G1 X29.710 Y7.813 E8.2498
G1 X29.636 Y8.089 E8.2708
G1 X29.629 Y8.111 E8.2725
G1 X28.445 Y11.602 E8.5435
G1 X28.436 Y11.624 E8.5453
G1 X28.327 Y11.888 E8.5662
G1 X28.317 Y11.909 E8.5680
G1 X26.687 Y15.216 E8.8390
G1 X26.676 Y15.236 E8.8407
G1 X26.533 Y15.484 E8.8617
G1 X26.520 Y15.504 E8.8634
G1 X24.472 Y18.569 E9.1344
G1 X24.459 Y18.588 E9.1361
G1 X24.285 Y18.814 E9.1571
G1 X24.270 Y18.833 E9.1589
G1 X21.839 Y21.604 E9.4299
G1 X21.823 Y21.621 E9.4316
G1 X21.621 Y21.823 E9.4526
G1 X21.604 Y21.839 E9.4543
G1 X18.833 Y24.270 E9.7253
G1 X18.814 Y24.285 E9.7270
G1 X18.588 Y24.459 E9.7480
G1 X18.569 Y24.472 E9.7498
G1 X15.504 Y26.520 E10.0208
G1 X15.484 Y26.533 E10.0225
G1 X15.236 Y26.676 E10.0435
G1 X15.216 Y26.687 E10.0452
G1 X11.909 Y28.317 E10.3162
G1 X11.888 Y28.327 E10.3179
G1 X11.624 Y28.436 E10.3389
G1 X11.602 Y28.445 E10.3407
G1 X8.111 Y29.629 E10.6117
G1 X8.089 Y29.636 E10.6134
G1 X7.813 Y29.710 E10.6344
G1 X7.790 Y29.716 E10.6361
G1 X4.175 Y30.435 E10.9071
G1 X4.151 Y30.439 E10.9088
G1 X3.868 Y30.476 E10.9298
G1 X3.845 Y30.478 E10.9316
G1 X0.166 Y30.719 E11.2026
G1 X0.143 Y30.720 E11.2043
G1 X-0.143 Y30.720 E11.2253
G1 X-0.166 Y30.719 E11.2270
G1 X-3.845 Y30.478 E11.4980
G1 X-3.868 Y30.476 E11.4997
G1 X-4.151 Y30.439 E11.5207
G1 X-4.175 Y30.435 E11.5224
G1 X-7.790 Y29.716 E11.7934
G1 X-7.813 Y29.710 E11.7952
G1 X-8.089 Y29.636 E11.8162
G1 X-8.111 Y29.629 E11.8179
G1 X-11.602 Y28.445 E12.0889
G1 X-11.624 Y28.436 E12.0906
G1 X-11.888 Y28.327 E12.1116
G1 X-11.909 Y28.317 E12.1133
G1 X-15.216 Y26.687 E12.3843
G1 X-15.236 Y26.676 E12.3861
G1 X-15.484 Y26.533 E12.4071
G1 X-15.504 Y26.520 E12.4088
G1 X-18.569 Y24.472 E12.6798
G1 X-18.588 Y24.459 E12.6815
G1 X-18.814 Y24.285 E12.7025
G1 X-18.833 Y24.270 E12.7042
G1 X-21.604 Y21.839 E12.9752
G1 X-21.621 Y21.823 E12.9770
G1 X-21.823 Y21.621 E12.9980
G1 X-21.839 Y21.604 E12.9997
G1 X-24.270 Y18.833 E13.2707
G1 X-24.285 Y18.814 E13.2724
G1 X-24.459 Y18.588 E13.2934
G1 X-24.472 Y18.569 E13.2951
G1 X-26.520 Y15.504 E13.5661
G1 X-26.533 Y15.484 E13.5679
G1 X-26.676 Y15.236 E13.5888
G1 X-26.687 Y15.216 E13.5906
G1 X-28.317 Y11.909 E13.8616
G1 X-28.327 Y11.888 E13.8633
G1 X-28.436 Y11.624 E13.8843
G1 X-28.444 Y11.602 E13.8860
G1 X-29.629 Y8.111 E14.1570
