; G-Code generated by Simplify3D(R) Version 3.1.1
; Mar 9, 2017 at 12:36:54 PM
; Settings Summary
;   processName,Process1
;   applyToModels,ServoGear
;   profileName,Kossel Mini (modified)
;   profileVersion,2017-03-07 18:00:27
;   baseProfile,
;   printMaterial,PLA+
;   printQuality,Medium
;   printExtruders,
;   extruderName,Primary Extruder
;   extruderToolheadNumber,0
;   extruderDiameter,0.4
;   extruderAutoWidth,1
;   extruderWidth,0.48
;   extrusionMultiplier,1
;   extruderUseRetract,1
;   extruderRetractionDistance,4
;   extruderExtraRestartDistance,0
;   extruderRetractionZLift,0.1
;   extruderRetractionSpeed,3600
;   extruderUseCoasting,0
;   extruderCoastingDistance,5
;   extruderUseWipe,1
;   extruderWipeDistance,2
;   primaryExtruder,0
;   layerHeight,0.2
;   topSolidLayers,3
;   bottomSolidLayers,3
;   perimeterOutlines,3
;   printPerimetersInsideOut,1
;   startPointOption,2
;   startPointOriginX,0
;   startPointOriginY,0
;   startPointOriginZ,300
;   sequentialIslands,0
;   spiralVaseMode,0
;   firstLayerHeightPercentage,80
;   firstLayerWidthPercentage,120
;   firstLayerUnderspeed,0.5
;   useRaft,0
;   raftExtruder,0
;   raftLayers,3
;   raftOffset,3
;   raftSeparationDistance,0.14
;   raftInfill,85
;   disableRaftBaseLayers,0
;   useSkirt,1
;   skirtExtruder,0
;   skirtLayers,1
;   skirtOutlines,1
;   skirtOffset,4
;   usePrimePillar,0
;   primePillarExtruder,999
;   primePillarWidth,12
;   primePillarLocation,7
;   primePillarSpeedMultiplier,1
;   useOozeShield,0
;   oozeShieldExtruder,999
;   oozeShieldOffset,2
;   oozeShieldOutlines,1
;   oozeShieldSidewallShape,1
;   oozeShieldSidewallAngle,30
;   oozeShieldSpeedMultiplier,1
;   infillExtruder,0
;   internalInfillPattern,Rectilinear
;   externalInfillPattern,Rectilinear
;   infillPercentage,50
;   outlineOverlapPercentage,30
;   infillExtrusionWidthPercentage,110
;   minInfillLength,2
;   infillLayerInterval,1
;   infillAngles,45,-45
;   overlapInfillAngles,0
;   generateSupport,1
;   supportExtruder,0
;   supportInfillPercentage,30
;   supportExtraInflation,0
;   denseSupportLayers,0
;   denseSupportInfillPercentage,70
;   supportLayerInterval,1
;   supportHorizontalPartOffset,0.3
;   supportUpperSeparationLayers,1
;   supportLowerSeparationLayers,1
;   supportType,0
;   supportGridSpacing,4
;   maxOverhangAngle,45
;   supportAngles,0
;   temperatureName,Primary Extruder,Heated Bed
;   temperatureNumber,0,1
;   temperatureSetpointCount,2,3
;   temperatureSetpointLayers,1,2,1,2,3
;   temperatureSetpointTemperatures,230,225,70,65,60
;   temperatureStabilizeAtStartup,1,1
;   temperatureHeatedBed,0,1
;   temperatureRelayBetweenLayers,0,0
;   temperatureRelayBetweenLoops,0,0
;   fanLayers,1,2,3
;   fanSpeeds,0,50,100
;   blipFanToFullPower,1
;   adjustSpeedForCooling,1
;   minSpeedLayerTime,15
;   minCoolingSpeedSlowdown,20
;   increaseFanForCooling,0
;   minFanLayerTime,60
;   maxCoolingFanSpeed,100
;   increaseFanForBridging,1
;   bridgingFanSpeed,100
;   use5D,1
;   relativeEdistances,0
;   allowEaxisZeroing,1
;   independentExtruderAxes,0
;   includeM10123,0
;   stickySupport,1
;   applyToolheadOffsets,0
;   gcodeXoffset,0
;   gcodeYoffset,0
;   gcodeZoffset,0
;   overrideMachineDefinition,1
;   machineTypeOverride,1
;   strokeXoverride,190
;   strokeYoverride,190
;   strokeZoverride,204.4
;   originOffsetXoverride,95
;   originOffsetYoverride,95
;   originOffsetZoverride,0
;   homeXdirOverride,0
;   homeYdirOverride,0
;   homeZdirOverride,1
;   flipXoverride,1
;   flipYoverride,-1
;   flipZoverride,1
;   toolheadOffsets,0,0|0,0|0,0|0,0|0,0|0,0
;   overrideFirmwareConfiguration,1
;   firmwareTypeOverride,RepRap (Marlin/Repetier/Sprinter)
;   GPXconfigOverride,r2
;   baudRateOverride,115200
;   overridePrinterModels,1
;   printerModelsOverride
;   startingGcode,G28 ; home all axes
;   layerChangeGcode,
;   retractionGcode,
;   toolChangeGcode,
;   endingGcode,M104 S0 ; turn off extruder,M140 S0 ; turn off bed,M107 ; turn off cooling fan,G28 ; home axes,M84 ; disable motors
;   exportFileFormat,gcode
;   celebration,0
;   celebrationSong,Random Song
;   postProcessing,
;   defaultSpeed,3600
;   outlineUnderspeed,0.5
;   solidInfillUnderspeed,0.8
;   supportUnderspeed,0.8
;   rapidXYspeed,6000
;   rapidZspeed,1200
;   minBridgingArea,50
;   bridgingExtraInflation,0
;   bridgingExtrusionMultiplier,0.95
;   bridgingSpeedMultiplier,0.7
;   filamentDiameter,1.73
;   filamentPricePerKg,25
;   filamentDensity,1.25
;   useMinPrintHeight,0
;   minPrintHeight,0
;   useMaxPrintHeight,0
;   maxPrintHeight,10
;   useDiaphragm,0
;   diaphragmLayerInterval,20
;   robustSlicing,1
;   mergeAllIntoSolid,0
;   onlyRetractWhenCrossingOutline,1
;   retractBetweenLayers,1
;   useRetractionMinTravel,0
;   retractionMinTravel,3
;   retractWhileWiping,0
;   onlyWipeOutlines,1
;   avoidCrossingOutline,0
;   maxMovementDetourFactor,3
;   toolChangeRetractionDistance,12
;   toolChangeExtraRestartDistance,-0.5
;   toolChangeRetractionSpeed,600
;   allowThinWallGapFill,1
;   thinWallAllowedOverlapPercentage,10
;   horizontalSizeCompensation,0
G90
M82
M106 S0
M140 S70
M190 S70
M104 S230 T0
M109 S230 T0
G28 ; home all axes
G92 E0
G1 E-4.0000 F3600
G1 Z0.260 F1200
; layer 1, Z = 0.16
T0
; tool H0.200 W0.576
; skirt
G1 X16.934 Y22.812 F6000
G1 Z0.160 F1200
G1 E0.0000 F1080
G92 E0
G1 X16.940 Y22.936 E0.0061 F1800
G1 X16.940 Y22.941 E0.0064
G1 X16.943 Y23.924 E0.0545
G1 X16.943 Y23.928 E0.0547
G1 X16.940 Y24.049 E0.0607
G1 X16.940 Y24.053 E0.0608
G1 X16.829 Y26.026 E0.1577
G1 X16.807 Y26.089 E0.1609
G1 X15.482 Y27.999 E0.2749
G1 X15.431 Y28.042 E0.2782
G1 X10.213 Y30.334 E0.5575
G1 X10.147 Y30.343 E0.5607
G1 X7.844 Y30.027 E0.6746
G1 X7.783 Y30.001 E0.6779
G1 X6.260 Y28.753 E0.7744
G1 X6.257 Y28.750 E0.7746
G1 X6.167 Y28.672 E0.7804
G1 X6.165 Y28.670 E0.7806
G1 X5.460 Y28.020 E0.8276
G1 X5.457 Y28.017 E0.8278
G1 X5.354 Y27.916 E0.8349
G1 X5.302 Y28.034 E0.8412
G1 X5.300 Y28.038 E0.8414
G1 X4.884 Y28.908 E0.8887
G1 X4.883 Y28.911 E0.8888
G1 X4.827 Y29.020 E0.8948
G1 X4.825 Y29.023 E0.8950
G1 X3.868 Y30.752 E0.9919
G1 X3.821 Y30.799 E0.9951
G1 X1.799 Y31.945 E1.1090
G1 X1.734 Y31.961 E1.1123
G1 X-3.960 Y31.762 E1.3915
G1 X-4.023 Y31.741 E1.3948
G1 X-5.961 Y30.459 E1.5087
G1 X-6.004 Y30.408 E1.5119
G1 X-6.833 Y28.628 E1.6082
G1 X-6.835 Y28.625 E1.6083
G1 X-6.883 Y28.513 E1.6143
G1 X-6.884 Y28.510 E1.6145
G1 X-7.240 Y27.612 E1.6618
G1 X-7.241 Y27.608 E1.6620
G1 X-7.289 Y27.475 E1.6689
G1 X-7.387 Y27.559 E1.6753
G1 X-7.390 Y27.562 E1.6755
G1 X-8.148 Y28.169 E1.7231
G1 X-8.151 Y28.171 E1.7233
G1 X-8.247 Y28.244 E1.7292
G1 X-8.250 Y28.246 E1.7294
G1 X-9.857 Y29.385 E1.8259
G1 X-9.920 Y29.407 E1.8291
G1 X-12.239 Y29.561 E1.9430
G1 X-12.304 Y29.547 E1.9463
G1 X-17.347 Y26.898 E2.2255
G1 X-17.396 Y26.852 E2.2288
G1 X-18.584 Y24.858 E2.3425
G1 X-18.601 Y24.794 E2.3458
G1 X-18.578 Y22.830 E2.4420
G1 X-18.578 Y22.826 E2.4422
G1 X-18.573 Y22.703 E2.4483
G1 X-18.572 Y22.700 E2.4484
G1 X-18.501 Y21.712 E2.4970
G1 X-18.501 Y21.707 E2.4972
G1 X-18.485 Y21.575 E2.5037
G1 X-18.974 Y21.715 E2.5287
G1 X-18.980 Y21.717 E2.5289
G1 X-19.173 Y21.762 E2.5386
G1 X-19.178 Y21.763 E2.5389
G1 X-21.582 Y22.207 E2.6587
G1 X-21.649 Y22.201 E2.6620
G1 X-23.843 Y21.338 E2.7775
G1 X-23.896 Y21.297 E2.7808
G1 X-27.302 Y16.707 E3.0610
G1 X-27.326 Y16.644 E3.0642
G1 X-27.530 Y14.328 E3.1782
G1 X-27.517 Y14.262 E3.1815
G1 X-26.639 Y12.500 E3.2780
G1 X-26.637 Y12.497 E3.2782
G1 X-26.581 Y12.393 E3.2839
G1 X-26.580 Y12.390 E3.2841
G1 X-26.104 Y11.559 E3.3310
G1 X-26.102 Y11.555 E3.3313
G1 X-26.026 Y11.432 E3.3383
G1 X-26.158 Y11.406 E3.3450
G1 X-26.162 Y11.406 E3.3452
G1 X-27.103 Y11.193 E3.3925
G1 X-27.107 Y11.192 E3.3926
G1 X-27.224 Y11.162 E3.3986
G1 X-27.227 Y11.161 E3.3987
G1 X-29.121 Y10.615 E3.4953
G1 X-29.177 Y10.580 E3.4986
G1 X-30.744 Y8.862 E3.6125
G1 X-30.774 Y8.803 E3.6158
G1 X-31.849 Y3.190 E3.8959
G1 X-31.843 Y3.123 E3.8992
G1 X-30.995 Y0.924 E4.0146
G1 X-30.955 Y0.870 E4.0179
G1 X-29.018 Y-0.588 E4.1367
G1 X-29.014 Y-0.590 E4.1370
G1 X-28.881 Y-0.682 E4.1449
G1 X-28.877 Y-0.685 E4.1451
G1 X-28.401 Y-0.988 E4.1728
G1 X-28.403 Y-0.989 E4.1729
G1 X-28.516 Y-1.073 E4.1797
G1 X-28.519 Y-1.075 E4.1799
G1 X-29.275 Y-1.674 E4.2272
G1 X-29.278 Y-1.676 E4.2274
G1 X-29.372 Y-1.756 E4.2334
G1 X-29.375 Y-1.758 E4.2336
G1 X-30.842 Y-3.072 E4.3301
G1 X-30.878 Y-3.128 E4.3334
G1 X-31.544 Y-5.353 E4.4472
G1 X-31.545 Y-5.420 E4.4505
G1 X-30.081 Y-10.944 E4.7306
G1 X-30.046 Y-11.002 E4.7339
G1 X-28.327 Y-12.616 E4.8494
G1 X-28.267 Y-12.647 E4.8527
G1 X-25.888 Y-13.120 E4.9716
G1 X-25.883 Y-13.121 E4.9719
G1 X-25.724 Y-13.146 E4.9797
G1 X-25.720 Y-13.146 E4.9800
G1 X-25.161 Y-13.213 E5.0076
G1 X-25.162 Y-13.214 E5.0076
G1 X-25.229 Y-13.342 E5.0147
G1 X-25.231 Y-13.346 E5.0149
G1 X-25.650 Y-14.213 E5.0622
G1 X-25.652 Y-14.216 E5.0623
G1 X-25.700 Y-14.324 E5.0681
G1 X-25.702 Y-14.328 E5.0683
G1 X-26.455 Y-16.147 E5.1648
G1 X-26.463 Y-16.213 E5.1681
G1 X-26.098 Y-18.510 E5.2820
G1 X-26.070 Y-18.570 E5.2853
G1 X-22.364 Y-22.899 E5.5646
G1 X-22.308 Y-22.936 E5.5678
G1 X-20.098 Y-23.650 E5.6817
G1 X-20.032 Y-23.653 E5.6849
G1 X-18.117 Y-23.190 E5.7815
G1 X-18.114 Y-23.189 E5.7816
G1 X-17.996 Y-23.157 E5.7876
G1 X-17.993 Y-23.156 E5.7878
G1 X-17.069 Y-22.874 E5.8351
G1 X-17.065 Y-22.873 E5.8354
G1 X-16.937 Y-22.829 E5.8420
G1 X-16.942 Y-22.964 E5.8486
G1 X-16.942 Y-22.968 E5.8488
G1 X-16.944 Y-23.934 E5.8962
G1 X-16.944 Y-23.938 E5.8963
G1 X-16.940 Y-24.061 E5.9024
G1 X-16.940 Y-24.065 E5.9026
G1 X-16.827 Y-26.032 E5.9991
G1 X-16.805 Y-26.094 E6.0024
G1 X-15.480 Y-28.001 E6.1162
G1 X-15.429 Y-28.043 E6.1194
G1 X-10.213 Y-30.335 E6.3986
G1 X-10.147 Y-30.344 E6.4019
G1 X-7.844 Y-30.028 E6.5158
G1 X-7.783 Y-30.002 E6.5191
G1 X-6.259 Y-28.753 E6.6156
G1 X-6.257 Y-28.751 E6.6158
G1 X-6.165 Y-28.671 E6.6217
G1 X-6.162 Y-28.669 E6.6219
G1 X-5.443 Y-28.005 E6.6699
G1 X-5.439 Y-28.001 E6.6701
G1 X-5.343 Y-27.904 E6.6768
G1 X-5.147 Y-28.375 E6.7018
G1 X-5.145 Y-28.380 E6.7021
G1 X-5.060 Y-28.559 E6.7118
G1 X-5.058 Y-28.564 E6.7121
G1 X-3.907 Y-30.720 E6.8318
G1 X-3.860 Y-30.768 E6.8351
G1 X-1.817 Y-31.945 E6.9506
G1 X-1.752 Y-31.961 E6.9539
G1 X3.959 Y-31.762 E7.2340
G1 X4.022 Y-31.741 E7.2373
G1 X5.959 Y-30.459 E7.3511
G1 X6.003 Y-30.408 E7.3544
G1 X6.832 Y-28.628 E7.4506
G1 X6.834 Y-28.625 E7.4508
G1 X6.882 Y-28.513 E7.4568
G1 X6.883 Y-28.510 E7.4569
G1 X7.238 Y-27.613 E7.5042
G1 X7.240 Y-27.610 E7.5044
G1 X7.287 Y-27.476 E7.5113
G1 X7.288 Y-27.472 E7.5115
G1 X7.290 Y-27.467 E7.5118
G1 X7.719 Y-27.835 E7.5395
G1 X7.723 Y-27.838 E7.5398
G1 X7.848 Y-27.937 E7.5476
G1 X7.851 Y-27.940 E7.5478
G1 X9.808 Y-29.372 E7.6666
G1 X9.871 Y-29.395 E7.6699
G1 X12.223 Y-29.570 E7.7855
G1 X12.289 Y-29.556 E7.7888
G1 X17.349 Y-26.898 E8.0689
G1 X17.397 Y-26.852 E8.0722
G1 X18.586 Y-24.855 E8.1861
G1 X18.603 Y-24.791 E8.1893
G1 X18.577 Y-22.827 E8.2856
G1 X18.577 Y-22.823 E8.2858
G1 X18.572 Y-22.703 E8.2916
G1 X18.571 Y-22.700 E8.2918
G1 X18.501 Y-21.719 E8.3400
G1 X18.500 Y-21.713 E8.3403
G1 X18.484 Y-21.575 E8.3471
G1 X18.975 Y-21.715 E8.3721
G1 X18.981 Y-21.717 E8.3724
G1 X19.172 Y-21.762 E8.3821
G1 X19.178 Y-21.763 E8.3824
G1 X21.580 Y-22.207 E8.5021
G1 X21.647 Y-22.201 E8.5054
G1 X23.841 Y-21.338 E8.6209
G1 X23.895 Y-21.297 E8.6242
G1 X27.300 Y-16.708 E8.9043
G1 X27.324 Y-16.646 E8.9076
G1 X27.529 Y-14.332 E9.0214
G1 X27.517 Y-14.266 E9.0247
G1 X26.643 Y-12.508 E9.1209
G1 X26.641 Y-12.505 E9.1211
G1 X26.583 Y-12.397 E9.1271
G1 X26.582 Y-12.394 E9.1273
G1 X26.102 Y-11.557 E9.1745
G1 X26.099 Y-11.553 E9.1747
G1 X26.024 Y-11.432 E9.1817
G1 X26.158 Y-11.406 E9.1884
G1 X26.162 Y-11.406 E9.1886
G1 X27.104 Y-11.193 E9.2359
G1 X27.107 Y-11.192 E9.2361
G1 X27.225 Y-11.162 E9.2421
G1 X27.228 Y-11.161 E9.2422
G1 X29.120 Y-10.614 E9.3387
G1 X29.177 Y-10.579 E9.3420
G1 X30.743 Y-8.863 E9.4559
G1 X30.773 Y-8.803 E9.4591
G1 X31.846 Y-3.206 E9.7385
G1 X31.841 Y-3.140 E9.7417
G1 X31.019 Y-0.964 E9.8557
G1 X30.980 Y-0.911 E9.8589
G1 X29.423 Y0.296 E9.9555
G1 X29.420 Y0.298 E9.9556
G1 X29.323 Y0.369 E9.9615
G1 X29.320 Y0.371 E9.9617
G1 X28.510 Y0.927 E10.0099
G1 X28.505 Y0.930 E10.0101
G1 X28.393 Y1.000 E10.0166
G1 X28.808 Y1.296 E10.0416
G1 X28.813 Y1.299 E10.0419
G1 X28.967 Y1.421 E10.0516
G1 X28.972 Y1.425 E10.0518
G1 X30.818 Y3.026 E10.1716
G1 X30.855 Y3.083 E10.1749
G1 X31.548 Y5.337 E10.2905
G1 X31.549 Y5.404 E10.2938
G1 X30.083 Y10.928 E10.5739
G1 X30.050 Y10.986 E10.5771
G1 X28.368 Y12.589 E10.6910
G1 X28.309 Y12.620 E10.6943
G1 X26.384 Y13.033 E10.7908
G1 X26.380 Y13.034 E10.7910
G1 X26.260 Y13.056 E10.7969
G1 X26.257 Y13.056 E10.7971
G1 X25.303 Y13.203 E10.8444
G1 X25.299 Y13.203 E10.8446
G1 X25.163 Y13.219 E10.8513
G1 X25.223 Y13.333 E10.8576
G1 X25.225 Y13.336 E10.8578
G1 X25.646 Y14.205 E10.9051
G1 X25.648 Y14.208 E10.9053
G1 X25.698 Y14.320 E10.9113
G1 X25.700 Y14.324 E10.9115
G1 X26.455 Y16.150 E11.0083
G1 X26.462 Y16.216 E11.0116
G1 X26.096 Y18.511 E11.1255
G1 X26.069 Y18.571 E11.1287
G1 X22.351 Y22.912 E11.4088
G1 X22.295 Y22.949 E11.4121
G1 X20.046 Y23.657 E11.5276
G1 X19.979 Y23.659 E11.5309
G1 X17.619 Y23.049 E11.6504
G1 X17.614 Y23.048 E11.6507
G1 X17.426 Y22.990 E11.6603
G1 X17.421 Y22.988 E11.6606
G1 X16.934 Y22.812 E11.6859
G92 E0
G1 E-4.0000 F3600
G1 Z0.260 F1200
; inner perimeter
G1 X11.261 Y23.098 F6000
G1 Z0.160 F1200
G1 E0.0000 F3600
G92 E0
G1 X11.262 Y23.669 E0.0280 F1500
G1 X9.808 Y24.308 E0.1058
G1 X9.661 Y24.176 E0.1155
G1 X9.407 Y23.934 E0.1327
G1 X8.913 Y23.411 E0.1679
G1 X8.491 Y22.885 E0.2010
G1 X8.320 Y22.640 E0.2156
G1 X8.170 Y22.397 E0.2296
G1 X8.056 Y22.176 E0.2418
G1 X7.772 Y21.457 E0.2797
G1 X7.458 Y20.924 E0.3100
G1 X7.133 Y20.544 E0.3345
G1 X6.507 Y20.092 E0.3723
G1 X5.678 Y19.987 E0.4133
G1 X2.121 Y20.669 E0.5908
G1 X1.387 Y21.073 E0.6319
G1 X0.973 Y21.727 E0.6698
G1 X0.823 Y22.168 E0.6926
G1 X0.749 Y22.534 E0.7109
G1 X0.711 Y23.058 E0.7367
G1 X0.719 Y23.589 E0.7627
G1 X0.696 Y23.827 E0.7744
G1 X0.650 Y24.091 E0.7875
G1 X0.484 Y24.739 E0.8203
G1 X0.386 Y25.034 E0.8356
G1 X0.124 Y25.696 E0.8705
G1 X-0.123 Y26.212 E0.8985
G1 X-1.707 Y26.157 E0.9762
G1 X-1.913 Y25.635 E1.0037
G1 X-2.132 Y24.946 E1.0391
G1 X-2.206 Y24.654 E1.0539
G1 X-2.329 Y23.990 E1.0870
G1 X-2.356 Y23.721 E1.1002
G1 X-2.364 Y23.484 E1.1119
G1 X-2.319 Y22.958 E1.1377
G1 X-2.319 Y22.433 E1.1635
G1 X-2.367 Y22.060 E1.1819
G1 X-2.487 Y21.606 E1.2049
G1 X-2.853 Y20.927 E1.2427
G1 X-3.553 Y20.473 E1.2836
G1 X-7.059 Y19.542 E1.4614
G1 X-7.896 Y19.590 E1.5024
G1 X-8.548 Y19.997 E1.5401
G1 X-8.899 Y20.350 E1.5645
G1 X-9.249 Y20.860 E1.5949
G1 X-9.582 Y21.557 E1.6327
G1 X-9.710 Y21.768 E1.6448
G1 X-9.878 Y22.002 E1.6589
G1 X-10.061 Y22.231 E1.6733
G1 X-10.522 Y22.729 E1.7066
G1 X-11.046 Y23.214 E1.7415
G1 X-11.316 Y23.437 E1.7587
G1 X-11.480 Y23.564 E1.7689
G1 X-12.887 Y22.825 E1.8467
G1 X-12.846 Y22.261 E1.8745
G1 X-12.746 Y21.556 E1.9094
G1 X-12.684 Y21.250 E1.9246
G1 X-12.508 Y20.607 E1.9573
G1 X-12.417 Y20.356 E1.9704
G1 X-12.319 Y20.133 E1.9824
G1 X-12.050 Y19.678 E2.0083
G1 X-11.822 Y19.204 E2.0340
G1 X-11.703 Y18.846 E2.0525
G1 X-11.615 Y18.387 E2.0754
G1 X-11.651 Y17.615 E2.1133
G1 X-12.086 Y16.903 E2.1542
G1 X-14.838 Y14.544 E2.3318
G1 X-15.615 Y14.223 E2.3730
G1 X-16.381 Y14.308 E2.4108
G1 X-16.850 Y14.475 E2.4352
G1 X-17.384 Y14.782 E2.4654
G1 X-17.989 Y15.267 E2.5034
G1 X-18.193 Y15.398 E2.5153
G1 X-18.449 Y15.539 E2.5296
G1 X-18.710 Y15.664 E2.5438
G1 X-19.360 Y15.920 E2.5780
G1 X-19.663 Y16.019 E2.5936
G1 X-20.383 Y16.211 E2.6301
G1 X-20.568 Y16.251 E2.6394
G1 X-21.514 Y14.975 E2.7173
G1 X-21.235 Y14.487 E2.7448
G1 X-20.834 Y13.888 E2.7802
G1 X-20.651 Y13.647 E2.7949
G1 X-20.208 Y13.137 E2.8281
G1 X-20.015 Y12.947 E2.8413
G1 X-19.835 Y12.794 E2.8529
G1 X-19.397 Y12.503 E2.8787
G1 X-18.983 Y12.172 E2.9047
G1 X-18.720 Y11.900 E2.9232
G1 X-18.445 Y11.528 E2.9459
G1 X-18.139 Y10.818 E2.9838
G1 X-18.223 Y9.982 E3.0249
G1 X-19.679 Y6.667 E3.2024
G1 X-20.236 Y6.041 E3.2434
G1 X-20.967 Y5.784 E3.2814
G1 X-21.460 Y5.732 E3.3057
G1 X-22.078 Y5.775 E3.3361
G1 X-22.833 Y5.950 E3.3741
G1 X-23.077 Y5.981 E3.3861
G1 X-23.360 Y5.995 E3.4000
