; G-Code generated by Simplify3D(R) Version 3.1.1
; Mar 10, 2017 at 3:14:44 PM
; Settings Summary
;   processName,Process1
;   applyToModels,SharpieHolder
;   profileName,Kossel Mini (modified)
;   profileVersion,2017-03-09 09:09:04
;   baseProfile,
;   printMaterial,PLA+
;   printQuality,Medium
;   printExtruders,
;   extruderName,Primary Extruder
;   extruderToolheadNumber,0
;   extruderDiameter,0.4
;   extruderAutoWidth,1
;   extruderWidth,0.48
;   extrusionMultiplier,1
;   extruderUseRetract,1
;   extruderRetractionDistance,4
;   extruderExtraRestartDistance,0
;   extruderRetractionZLift,0.1
;   extruderRetractionSpeed,3600
;   extruderUseCoasting,0
;   extruderCoastingDistance,5
;   extruderUseWipe,1
;   extruderWipeDistance,2
;   primaryExtruder,0
;   layerHeight,0.3
;   topSolidLayers,3
;   bottomSolidLayers,3
;   perimeterOutlines,3
;   printPerimetersInsideOut,1
;   startPointOption,2
;   startPointOriginX,0
;   startPointOriginY,0
;   startPointOriginZ,300
;   sequentialIslands,0
;   spiralVaseMode,0
;   firstLayerHeightPercentage,80
;   firstLayerWidthPercentage,120
;   firstLayerUnderspeed,0.5
;   useRaft,0
;   raftExtruder,0
;   raftLayers,3
;   raftOffset,3
;   raftSeparationDistance,0.14
;   raftInfill,85
;   disableRaftBaseLayers,0
;   useSkirt,1
;   skirtExtruder,0
;   skirtLayers,1
;   skirtOutlines,1
;   skirtOffset,4
;   usePrimePillar,0
;   primePillarExtruder,999
;   primePillarWidth,12
;   primePillarLocation,7
;   primePillarSpeedMultiplier,1
;   useOozeShield,0
;   oozeShieldExtruder,999
;   oozeShieldOffset,2
;   oozeShieldOutlines,1
;   oozeShieldSidewallShape,1
;   oozeShieldSidewallAngle,30
;   oozeShieldSpeedMultiplier,1
;   infillExtruder,0
;   internalInfillPattern,Rectilinear
;   externalInfillPattern,Rectilinear
;   infillPercentage,20
;   outlineOverlapPercentage,30
;   infillExtrusionWidthPercentage,110
;   minInfillLength,2
;   infillLayerInterval,1
;   infillAngles,45,-45
;   overlapInfillAngles,0
;   generateSupport,0
;   supportExtruder,0
;   supportInfillPercentage,30
;   supportExtraInflation,0
;   denseSupportLayers,0
;   denseSupportInfillPercentage,70
;   supportLayerInterval,1
;   supportHorizontalPartOffset,0.3
;   supportUpperSeparationLayers,1
;   supportLowerSeparationLayers,1
;   supportType,0
;   supportGridSpacing,4
;   maxOverhangAngle,45
;   supportAngles,0
;   temperatureName,Primary Extruder,Heated Bed
;   temperatureNumber,0,1
;   temperatureSetpointCount,2,3
;   temperatureSetpointLayers,1,2,1,2,3
;   temperatureSetpointTemperatures,230,225,70,65,60
;   temperatureStabilizeAtStartup,1,1
;   temperatureHeatedBed,0,1
;   temperatureRelayBetweenLayers,0,0
;   temperatureRelayBetweenLoops,0,0
;   fanLayers,1,2,3
;   fanSpeeds,0,50,100
;   blipFanToFullPower,1
;   adjustSpeedForCooling,1
;   minSpeedLayerTime,15
;   minCoolingSpeedSlowdown,20
;   increaseFanForCooling,0
;   minFanLayerTime,60
;   maxCoolingFanSpeed,100
;   increaseFanForBridging,1
;   bridgingFanSpeed,100
;   use5D,1
;   relativeEdistances,0
;   allowEaxisZeroing,1
;   independentExtruderAxes,0
;   includeM10123,0
;   stickySupport,1
;   applyToolheadOffsets,0
;   gcodeXoffset,0
;   gcodeYoffset,0
;   gcodeZoffset,0
;   overrideMachineDefinition,1
;   machineTypeOverride,1
;   strokeXoverride,190
;   strokeYoverride,190
;   strokeZoverride,204.4
;   originOffsetXoverride,95
;   originOffsetYoverride,95
;   originOffsetZoverride,0
;   homeXdirOverride,0
;   homeYdirOverride,0
;   homeZdirOverride,1
;   flipXoverride,1
;   flipYoverride,-1
;   flipZoverride,1
;   toolheadOffsets,0,0|0,0|0,0|0,0|0,0|0,0
;   overrideFirmwareConfiguration,1
;   firmwareTypeOverride,RepRap (Marlin/Repetier/Sprinter)
;   GPXconfigOverride,r2
;   baudRateOverride,115200
;   overridePrinterModels,1
;   printerModelsOverride
;   startingGcode,G28 ; home all axes
;   layerChangeGcode,
;   retractionGcode,
;   toolChangeGcode,
;   endingGcode,M104 S0 ; turn off extruder,M140 S0 ; turn off bed,M107 ; turn off cooling fan,G28 ; home axes,M84 ; disable motors
;   exportFileFormat,gcode
;   celebration,0
;   celebrationSong,Random Song
;   postProcessing,
;   defaultSpeed,3600
;   outlineUnderspeed,0.5
;   solidInfillUnderspeed,0.8
;   supportUnderspeed,0.8
;   rapidXYspeed,6000
;   rapidZspeed,1200
;   minBridgingArea,50
;   bridgingExtraInflation,0
;   bridgingExtrusionMultiplier,0.95
;   bridgingSpeedMultiplier,0.7
;   filamentDiameter,1.73
;   filamentPricePerKg,25
;   filamentDensity,1.25
;   useMinPrintHeight,0
;   minPrintHeight,0
;   useMaxPrintHeight,0
;   maxPrintHeight,10
;   useDiaphragm,0
;   diaphragmLayerInterval,20
;   robustSlicing,1
;   mergeAllIntoSolid,0
;   onlyRetractWhenCrossingOutline,1
;   retractBetweenLayers,1
;   useRetractionMinTravel,0
;   retractionMinTravel,3
;   retractWhileWiping,0
;   onlyWipeOutlines,1
;   avoidCrossingOutline,0
;   maxMovementDetourFactor,3
;   toolChangeRetractionDistance,12
;   toolChangeExtraRestartDistance,-0.5
;   toolChangeRetractionSpeed,600
;   allowThinWallGapFill,1
;   thinWallAllowedOverlapPercentage,10
;   horizontalSizeCompensation,0
G90
M82
M106 S0
M140 S70
M190 S70
M104 S230 T0
M109 S230 T0
G28 ; home all axes
G92 E0
G1 E-4.0000 F3600
G1 Z0.340 F1200
; layer 1, Z = 0.24
T0
; tool H0.300 W0.576
; skirt
G1 X21.740 Y-64.919 F6000
G1 Z0.240 F1200
G1 E0.0000 F1080
G92 E0
G1 X21.740 Y64.919 E9.5447 F1800
G1 X21.703 Y65.007 E9.5517
G1 X19.293 Y67.417 E9.8023
G1 X19.205 Y67.454 E9.8093
G1 X-19.205 Y67.454 E12.6329
G1 X-19.293 Y67.417 E12.6399
G1 X-21.703 Y65.007 E12.8905
G1 X-21.740 Y64.919 E12.8975
G1 X-21.740 Y-64.919 E22.4422
G1 X-21.703 Y-65.007 E22.4492
G1 X-19.293 Y-67.417 E22.6998
G1 X-19.205 Y-67.454 E22.7069
G1 X19.205 Y-67.454 E25.5304
G1 X19.293 Y-67.417 E25.5374
G1 X21.703 Y-65.007 E25.7881
G1 X21.740 Y-64.919 E25.7951
G92 E0
G1 E-4.0000 F3600
G1 Z0.340 F1200
; inner perimeter
G1 X16.060 Y-61.774 F6000
G1 Z0.240 F1200
G1 E0.0000 F3600
G92 E0
G1 X16.060 Y-54.654 E0.5234 F1500
G1 X0.223 Y-54.654 E1.6877
G1 X0.194 Y-55.084 E1.7193
G1 X0.821 Y-55.169 E1.7659
G1 X1.573 Y-55.482 E1.8257
G1 X2.232 Y-55.982 E1.8865
G1 X2.732 Y-56.641 E1.9474
G1 X3.046 Y-57.396 E2.0075
G1 X3.204 Y-58.598 E2.0966
G1 X2.594 Y-59.437 E2.1729
G1 X2.170 Y-59.847 E2.2162
G1 X1.679 Y-60.181 E2.2599
G1 X1.147 Y-60.421 E2.3028
G1 X0.586 Y-60.568 E2.3454
G1 X-0.002 Y-60.620 E2.3888
G1 X-0.587 Y-60.568 E2.4320
G1 X-1.312 Y-60.380 E2.4871
G1 X-1.419 Y-60.299 E2.4969
G1 X-1.687 Y-60.177 E2.5186
G1 X-2.174 Y-59.846 E2.5619
G1 X-2.591 Y-59.440 E2.6046
G1 X-3.209 Y-58.606 E2.6809
G1 X-3.050 Y-57.396 E2.7707
G1 X-2.734 Y-56.636 E2.8312
G1 X-2.231 Y-55.982 E2.8919
G1 X-1.579 Y-55.482 E2.9522
G1 X-0.819 Y-55.169 E3.0126
G1 X-0.196 Y-55.083 E3.0589
G1 X-0.225 Y-54.654 E3.0905
G1 X-1.442 Y-54.654 E3.1800
G1 X-1.442 Y-44.680 E3.9132
G1 X-1.908 Y-44.619 E3.9477
G1 X-3.686 Y-43.882 E4.0893
G1 X-5.214 Y-42.711 E4.2308
G1 X-6.382 Y-41.184 E4.3721
G1 X-7.119 Y-39.409 E4.5134
G1 X-7.370 Y-37.500 E4.6549
G1 X-7.119 Y-35.594 E4.7963
G1 X-6.382 Y-33.817 E4.9377
G1 X-5.214 Y-32.289 E5.0791
G1 X-3.685 Y-31.118 E5.2206
G1 X-1.908 Y-30.383 E5.3620
G1 X-1.442 Y-30.321 E5.3966
G1 X-1.442 Y-19.680 E6.1788
G1 X-1.908 Y-19.619 E6.2133
G1 X-3.686 Y-18.882 E6.3549
G1 X-5.214 Y-17.711 E6.4964
G1 X-6.382 Y-16.184 E6.6377
G1 X-7.119 Y-14.409 E6.7790
G1 X-7.370 Y-12.500 E6.9205
G1 X-7.119 Y-10.591 E7.0620
G1 X-6.382 Y-8.816 E7.2033
G1 X-5.214 Y-7.289 E7.3447
G1 X-3.685 Y-6.118 E7.4862
G1 X-1.908 Y-5.383 E7.6276
G1 X-1.442 Y-5.322 E7.6622
G1 X-1.442 Y5.320 E8.4445
G1 X-1.908 Y5.381 E8.4790
G1 X-3.686 Y6.118 E8.6205
G1 X-5.214 Y7.289 E8.7620
G1 X-6.382 Y8.816 E8.9033
G1 X-7.119 Y10.591 E9.0446
G1 X-7.370 Y12.500 E9.1861
G1 X-7.119 Y14.409 E9.3277
G1 X-6.382 Y16.184 E9.4690
G1 X-5.214 Y17.711 E9.6103
G1 X-3.685 Y18.882 E9.7519
G1 X-1.908 Y19.617 E9.8933
G1 X-1.442 Y19.678 E9.9278
G1 X-1.442 Y30.320 E10.7101
G1 X-1.908 Y30.381 E10.7446
G1 X-3.686 Y31.118 E10.8861
G1 X-5.213 Y32.289 E11.0276
G1 X-6.382 Y33.814 E11.1688
G1 X-7.119 Y35.592 E11.3103
G1 X-7.370 Y37.500 E11.4518
G1 X-7.119 Y39.409 E11.5933
G1 X-6.382 Y41.184 E11.7346
G1 X-5.214 Y42.711 E11.8759
G1 X-3.686 Y43.882 E12.0174
G1 X-1.908 Y44.619 E12.1590
G1 X-1.442 Y44.680 E12.1935
G1 X-1.442 Y54.656 E12.9269
G1 X-1.321 Y54.656 E12.9358
G1 X-1.247 Y55.027 E12.9636
G1 X-1.726 Y55.225 E13.0017
G1 X-2.445 Y55.774 E13.0682
G1 X-2.991 Y56.493 E13.1345
G1 X-3.334 Y57.319 E13.2003
G1 X-3.455 Y58.213 E13.2667
G1 X-3.334 Y59.113 E13.3334
G1 X-2.990 Y59.938 E13.3991
G1 X-2.446 Y60.655 E13.4652
G1 X-1.726 Y61.208 E13.5320
G1 X-1.251 Y61.402 E13.5698
G1 X-1.324 Y61.774 E13.5976
G1 X-16.060 Y61.774 E14.6809
G1 X-16.060 Y-61.774 E23.7632
G1 X16.060 Y-61.774 E26.1245
G92 E0
G1 E-4.0000 F3600
G1 Z0.340 F1200
G1 X16.060 Y54.656 F6000
G1 Z0.240 F1200
G1 E0.0000 F3600
G92 E0
G1 X16.060 Y61.774 E0.5233 F1500
G1 X1.320 Y61.774 E1.6068
G1 X1.247 Y61.402 E1.6347
G1 X1.723 Y61.207 E1.6725
G1 X2.438 Y60.657 E1.7388
G1 X2.989 Y59.942 E1.8051
G1 X3.336 Y59.108 E1.8715
G1 X3.450 Y58.213 E1.9379
G1 X3.336 Y57.324 E2.0038
G1 X2.989 Y56.489 E2.0703
G1 X2.437 Y55.771 E2.1368
G1 X1.723 Y55.226 E2.2029
G1 X1.243 Y55.027 E2.2410
G1 X1.317 Y54.656 E2.2688
G1 X16.060 Y54.656 E3.3526
G92 E0
G1 E-4.0000 F3600
G1 Z0.340 F1200
; inner perimeter
G1 X16.636 Y-62.350 F6000
G1 Z0.240 F1200
G1 E0.0000 F3600
G92 E0
G1 X16.636 Y-54.078 E0.6081 F1200
G1 X-0.866 Y-54.078 E1.8947
G1 X-0.866 Y-44.174 E2.6228
G1 X-1.757 Y-44.058 E2.6888
G1 X-3.396 Y-43.379 E2.8192
G1 X-4.803 Y-42.300 E2.9495
G1 X-5.879 Y-40.893 E3.0797
G1 X-6.558 Y-39.258 E3.2099
G1 X-6.789 Y-37.500 E3.3403
G1 X-6.558 Y-35.744 E3.4705
G1 X-5.879 Y-34.107 E3.6008
G1 X-4.803 Y-32.700 E3.7310
G1 X-3.395 Y-31.621 E3.8613
G1 X-1.758 Y-30.944 E3.9916
G1 X-0.866 Y-30.826 E4.0577
G1 X-0.866 Y-19.174 E4.9142
G1 X-1.757 Y-19.058 E4.9803
G1 X-3.396 Y-18.379 E5.1107
G1 X-4.803 Y-17.300 E5.2410
G1 X-5.879 Y-15.893 E5.3712
G1 X-6.558 Y-14.258 E5.5014
G1 X-6.789 Y-12.500 E5.6317
G1 X-6.558 Y-10.742 E5.7621
G1 X-5.879 Y-9.107 E5.8922
G1 X-4.803 Y-7.700 E6.0224
G1 X-3.395 Y-6.621 E6.1528
G1 X-1.757 Y-5.944 E6.2831
G1 X-0.866 Y-5.827 E6.3492
G1 X-0.866 Y5.826 E7.2058
G1 X-1.757 Y5.942 E7.2718
G1 X-3.396 Y6.621 E7.4022
G1 X-4.803 Y7.700 E7.5325
G1 X-5.879 Y9.107 E7.6627
G1 X-6.558 Y10.742 E7.7929
G1 X-6.789 Y12.500 E7.9233
G1 X-6.558 Y14.258 E8.0536
G1 X-5.879 Y15.893 E8.1838
G1 X-4.803 Y17.300 E8.3140
G1 X-3.395 Y18.379 E8.4443
G1 X-1.757 Y19.056 E8.5746
G1 X-0.866 Y19.173 E8.6407
G1 X-0.866 Y30.826 E9.4973
G1 X-1.757 Y30.942 E9.5634
G1 X-3.396 Y31.621 E9.6938
G1 X-4.802 Y32.700 E9.8241
G1 X-5.879 Y34.104 E9.9541
G1 X-6.558 Y35.742 E10.0845
G1 X-6.789 Y37.500 E10.2148
G1 X-6.558 Y39.258 E10.3452
G1 X-5.879 Y40.893 E10.4753
G1 X-4.803 Y42.300 E10.6055
G1 X-3.396 Y43.379 E10.7359
G1 X-1.757 Y44.058 E10.8662
G1 X-0.866 Y44.174 E10.9323
G1 X-0.866 Y54.080 E11.6605
G1 X16.636 Y54.080 E12.9471
G1 X16.636 Y62.350 E13.5551
G1 X-16.636 Y62.350 E16.0010
G1 X-16.636 Y-62.350 E25.1680
G1 X16.636 Y-62.350 E27.6139
; outer perimeter
G1 X17.212 Y-62.926 F6000
G92 E0
G1 X17.212 Y-53.502 E0.6928 F900
G1 X-0.290 Y-53.502 E1.9794
G1 X-0.290 Y-43.669 E2.7023
G1 X-1.607 Y-43.497 E2.7999
G1 X-3.105 Y-42.876 E2.9191
G1 X-4.392 Y-41.889 E3.0383
G1 X-5.376 Y-40.603 E3.1573
G1 X-5.997 Y-39.107 E3.2764
G1 X-6.208 Y-37.500 E3.3956
G1 X-5.997 Y-35.895 E3.5146
G1 X-5.376 Y-34.397 E3.6338
G1 X-4.392 Y-33.111 E3.7529
G1 X-3.105 Y-32.124 E3.8720
G1 X-1.607 Y-31.506 E3.9912
G1 X-0.290 Y-31.330 E4.0889
G1 X-0.290 Y-18.669 E5.0196
G1 X-1.607 Y-18.497 E5.1172
G1 X-3.105 Y-17.876 E5.2365
G1 X-4.392 Y-16.889 E5.3556
G1 X-5.376 Y-15.603 E5.4747
G1 X-5.997 Y-14.107 E5.5937
G1 X-6.208 Y-12.500 E5.7129
G1 X-5.997 Y-10.893 E5.8321
G1 X-5.376 Y-9.397 E5.9512
G1 X-4.392 Y-8.111 E6.0702
G1 X-3.105 Y-7.124 E6.1894
G1 X-1.607 Y-6.505 E6.3085
G1 X-0.290 Y-6.332 E6.4062
G1 X-0.290 Y6.331 E7.3371
G1 X-1.607 Y6.503 E7.4347
G1 X-3.105 Y7.124 E7.5539
G1 X-4.392 Y8.111 E7.6731
G1 X-5.376 Y9.397 E7.7921
G1 X-5.997 Y10.893 E7.9112
G1 X-6.208 Y12.500 E8.0304
G1 X-5.997 Y14.107 E8.1495
G1 X-5.376 Y15.603 E8.2686
G1 X-4.392 Y16.889 E8.3877
G1 X-3.105 Y17.876 E8.5068
G1 X-1.607 Y18.495 E8.6260
G1 X-0.290 Y18.668 E8.7236
G1 X-0.290 Y31.331 E9.6545
G1 X-1.607 Y31.503 E9.7522
G1 X-3.105 Y32.124 E9.8714
G1 X-4.391 Y33.111 E9.9905
G1 X-5.376 Y34.395 E10.1095
G1 X-5.997 Y35.893 E10.2287
G1 X-6.208 Y37.500 E10.3478
G1 X-5.997 Y39.107 E10.4670
G1 X-5.376 Y40.603 E10.5861
G1 X-4.392 Y41.889 E10.7051
G1 X-3.105 Y42.876 E10.8243
G1 X-1.607 Y43.497 E10.9435
G1 X-0.290 Y43.669 E11.0412
G1 X-0.290 Y53.504 E11.7642
G1 X17.212 Y53.504 E13.0508
G1 X17.212 Y62.926 E13.7434
G1 X-17.212 Y62.926 E16.2740
G1 X-17.212 Y-62.926 E25.5257
G1 X17.212 Y-62.926 E28.0563
G1 X17.212 Y-60.926 F3600
; inner perimeter
; inner perimeter
G1 X2.603 Y-58.445 F6000
G92 E0
G1 X2.158 Y-59.058 E0.0557 F1200
G1 X1.805 Y-59.399 E0.0917
G1 X1.397 Y-59.677 E0.1281
G1 X0.955 Y-59.876 E0.1637
G1 X0.487 Y-59.998 E0.1993
G1 X-0.002 Y-60.042 E0.2353
G1 X-0.488 Y-59.998 E0.2712
G1 X-1.055 Y-59.852 E0.3143
G1 X-1.121 Y-59.801 E0.3204
G1 X-1.404 Y-59.673 E0.3432
G1 X-1.808 Y-59.398 E0.3791
G1 X-2.156 Y-59.060 E0.4148
G1 X-2.608 Y-58.450 E0.4706
G1 X-2.489 Y-57.547 E0.5375
G1 X-2.231 Y-56.928 E0.5869
G1 X-1.820 Y-56.393 E0.6364
G1 X-1.289 Y-55.986 E0.6857
G1 X-0.668 Y-55.730 E0.7350
G1 X-0.003 Y-55.638 E0.7844
G1 X0.669 Y-55.730 E0.8342
G1 X1.284 Y-55.986 E0.8832
G1 X1.821 Y-56.393 E0.9327
G1 X2.228 Y-56.930 E0.9823
G1 X2.485 Y-57.547 E1.0314
G1 X2.603 Y-58.445 E1.0980
; outer perimeter
G1 X2.002 Y-58.292 F6000
G92 E0
G1 X1.721 Y-58.679 E0.0351 F900
G1 X1.440 Y-58.950 E0.0638
G1 X1.114 Y-59.173 E0.0929
G1 X0.762 Y-59.331 E0.1212
G1 X0.388 Y-59.429 E0.1497
G1 X-0.002 Y-59.464 E0.1784
G1 X-0.390 Y-59.429 E0.2070
G1 X-0.798 Y-59.323 E0.2381
G1 X-0.824 Y-59.304 E0.2404
G1 X-1.121 Y-59.169 E0.2644
G1 X-1.443 Y-58.950 E0.2930
G1 X-1.721 Y-58.679 E0.3216
G1 X-2.006 Y-58.294 E0.3568
G1 X-1.928 Y-57.698 E0.4010
G1 X-1.728 Y-57.219 E0.4392
G1 X-1.410 Y-56.804 E0.4776
G1 X-0.999 Y-56.489 E0.5157
G1 X-0.517 Y-56.290 E0.5540
G1 X-0.002 Y-56.220 E0.5922
G1 X0.517 Y-56.290 E0.6307
G1 X0.994 Y-56.489 E0.6687
G1 X1.410 Y-56.804 E0.7071
G1 X1.725 Y-57.220 E0.7454
G1 X1.924 Y-57.698 E0.7835
G1 X2.002 Y-58.292 E0.8276
G92 E0
G1 E-4.0000 F3600
G1 X1.721 Y-58.679 F3600
G1 X1.440 Y-58.950 F3600
G1 X1.114 Y-59.173 F3600
G1 X0.762 Y-59.331 F3600
G1 X0.423 Y-59.420 F3600
G1 Z0.340 F1200
; inner perimeter
; inner perimeter
G1 X0.742 Y55.442 F6000
G1 Z0.240 F1200
G1 E0.0000 F3600
G92 E0
G1 X-0.002 Y55.345 E0.0552 F1200
G1 X-0.743 Y55.442 E0.1101
G1 X-1.436 Y55.729 E0.1652
G1 X-2.033 Y56.184 E0.2204
G1 X-2.487 Y56.782 E0.2756
G1 X-2.773 Y57.471 E0.3304
G1 X-2.874 Y58.214 E0.3855
G1 X-2.773 Y58.962 E0.4410
G1 X-2.487 Y59.649 E0.4957
G1 X-2.034 Y60.245 E0.5508
G1 X-1.436 Y60.704 E0.6062
G1 X-0.742 Y60.988 E0.6613
G1 X-0.002 Y61.085 E0.7162
G1 X0.740 Y60.988 E0.7712
G1 X1.433 Y60.703 E0.8263
G1 X2.028 Y60.246 E0.8814
G1 X2.486 Y59.651 E0.9366
G1 X2.774 Y58.959 E0.9918
G1 X2.869 Y58.214 E1.0470
G1 X2.774 Y57.474 E1.1018
G1 X2.486 Y56.780 E1.1571
G1 X2.027 Y56.183 E1.2124
G1 X1.433 Y55.729 E1.2674
G1 X0.742 Y55.442 E1.3224
; outer perimeter
G1 X0.591 Y56.003 F6000
G92 E0
G1 X-0.002 Y55.925 E0.0440 F900
G1 X-0.593 Y56.003 E0.0878
G1 X-1.147 Y56.232 E0.1319
G1 X-1.622 Y56.595 E0.1758
G1 X-1.984 Y57.071 E0.2198
G1 X-2.212 Y57.622 E0.2636
G1 X-2.293 Y58.214 E0.3075
G1 X-2.212 Y58.810 E0.3517
G1 X-1.984 Y59.359 E0.3954
G1 X-1.622 Y59.835 E0.4394
G1 X-1.147 Y60.200 E0.4834
G1 X-0.593 Y60.427 E0.5275
G1 X-0.002 Y60.504 E0.5712
G1 X0.591 Y60.427 E0.6152
G1 X1.143 Y60.200 E0.6591
G1 X1.617 Y59.835 E0.7031
G1 X1.983 Y59.360 E0.7472
G1 X2.213 Y58.809 E0.7910
G1 X2.288 Y58.214 E0.8351
G1 X2.213 Y57.623 E0.8789
G1 X1.983 Y57.071 E0.9229
G1 X1.617 Y56.594 E0.9671
G1 X1.143 Y56.232 E1.0109
G1 X0.591 Y56.003 E1.0548
G1 X-0.002 Y55.925 F3600
G1 X-0.593 Y56.003 F3600
G1 X-1.147 Y56.232 F3600
G1 X-1.311 Y56.357 F3600
; gap fill
G1 X-0.407 Y54.985 F6000
G92 E0
G1 X-0.903 Y54.489 E0.0516 F1440
G1 X-0.088 Y54.489 E0.1115
